A-tak/A-tak Neutral Low Contrast Room 1.0_1.A042_12142250_C017.cube
TITLE "Generated by Resolve"
LUT_3D_SIZE 5
0.0370947 0.0370947 0.0370947
0.329839 0.0424811 0.0424811
0.579217 0.00851453 0.00851453
0.780529 0.0749828 0.0749828
0.971542 0.183642 0.183642
0.0148775 0.301274 0.0148775
0.292226 0.292226 0.0391394
0.559564 0.337682 0.0778973
0.73434 0.388846 0.116945
0.884199 0.431037 0.141085
0.104845 0.605341 0.104845
0.361822 0.576471 0.0928511
0.572717 0.572717 0.0729534
0.724086 0.58703 0.0823072
0.860441 0.60766 0.0940719
0.151034 0.789929 0.151034
0.410483 0.749538 0.118502
0.599359 0.735821 0.0896468
0.73843 0.73843 0.0884108
0.864637 0.74786 0.0919966
0.168994 0.939178 0.168994
0.444816 0.891646 0.124575
0.624643 0.876341 0.0998093
0.757778 0.874083 0.0957809
0.877256 0.877256 0.0962844
0.0662242 0.0662242 0.282689
0.331075 0.0296483 0.331075
0.575647 0.00706493 0.388632
0.780163 0.0867933 0.470039
0.96437 0.180026 0.543206
0.0212863 0.296696 0.296696
0.289998 0.289998 0.289998
0.557336 0.33109 0.33109
0.730983 0.378714 0.378714
0.877394 0.419242 0.419242
0.0987411 0.594675 0.391623
0.346868 0.568231 0.346868
0.562249 0.562249 0.340093
0.713558 0.575387 0.35993
0.848371 0.594507 0.388113
0.138033 0.775036 0.443793
0.393378 0.738567 0.393378
0.586007 0.723476 0.375418
0.725521 0.725521 0.378592
0.851057 0.734188 0.392004
0.152163 0.921782 0.485237
0.426413 0.878264 0.426429
0.60914 0.861982 0.407782
0.742855 0.859632 0.404105
0.862409 0.862409 0.408026
0.0418555 0.0418555 0.553933
0.349279 0.0106813 0.552758
0.589029 0.0150607 0.589029
0.79472 0.117082 0.66212
0.972061 0.191943 0.724895
0.0233158 0.31133 0.537362
0.302815 0.302815 0.536767
0.561425 0.336736 0.561425
0.732586 0.380392 0.593484
0.876722 0.41857 0.622843
0.0982681 0.595392 0.595392
0.344717 0.56643 0.56643
0.558434 0.558434 0.558434
0.708705 0.57055 0.57055
0.843534 0.589639 0.589639
0.132448 0.771572 0.636378
0.387472 0.733684 0.596017
0.579843 0.717388 0.579843
0.719036 0.719036 0.581781
0.844602 0.727703 0.590906
0.146715 0.917357 0.667933
0.420325 0.872847 0.620371
0.602777 0.855711 0.602777
0.736217 0.85301 0.599893
0.855711 0.855711 0.602716
0.0396124 0.0396124 0.720333
0.382956 0.00909438 0.704784
0.61323 0.0400397 0.745464
0.811475 0.142824 0.811475
0.982147 0.204532 0.867475
0.0414282 0.345113 0.694453
0.330968 0.330968 0.697795
0.572702 0.352209 0.712871
0.738857 0.388754 0.738857
0.880079 0.422507 0.763317
0.106203 0.60267 0.738827
0.352773 0.571862 0.711131
0.562249 0.562249 0.700832
0.710521 0.572656 0.710521
0.844221 0.590387 0.727275
0.133425 0.773083 0.773083
0.388891 0.734554 0.734554
0.58024 0.717739 0.717739
0.718807 0.718807 0.718807
0.844266 0.727413 0.727413
0.146136 0.916854 0.80119
0.419562 0.87248 0.755749
0.601663 0.854719 0.737942
0.734936 0.851759 0.734936
0.854231 0.854231 0.737469
0.044892 0.044892 0.868177
0.423713 0.0181277 0.850553
0.646097 0.0858167 0.895064
0.831296 0.166506 0.946929
0.994812 0.218326 0.994812
0.0695201 0.384451 0.839109
0.362203 0.362203 0.835737
0.587945 0.373816 0.844236
0.747295 0.401129 0.864378
0.884565 0.428565 0.884565
0.114717 0.614435 0.867002
0.366888 0.581445 0.837186
0.570184 0.570184 0.825406
0.715892 0.578271 0.83299
0.847333 0.593683 0.847333
0.135805 0.777386 0.893584
0.393744 0.737743 0.854658
0.58352 0.720806 0.837827
0.721172 0.721172 0.838132
0.845853 0.728893 0.845853
0.147524 0.918547 0.918547
0.42092 0.873426 0.873426
0.602579 0.855543 0.855543
0.735531 0.852338 0.852338
0.854475 0.854475 0.854475
