A-tak/A-tak Room Flat for BMPCC.cube
TITLE "Generated by Resolve"
LUT_3D_SIZE 9
0 0 0
0.0157168 0 0
0.0683909 0 0
0.3953 0 0
0.801053 0 0
0.881865 0 0
0.935836 0 0
0.987243 0 0
1 0 0
0 0.0128481 0
0.0107424 0.0132906 0
0.0630655 0.00952163 0
0.386694 0 0
0.773571 0 0
0.859388 0 0
0.92549 0 0
1 0 0
1 0 0
0 0.0590066 0
0 0.0524605 0
0.0483558 0.0532082 0
0.360845 0 0
0.796658 0 0
0.95082 0 0
1 0.0231479 0
1 0.12755 0
1 0.277562 0.100435
0 0.212482 0
0 0.237293 0
0 0.293523 0
0.309667 0.320699 0
0.885725 0.345617 0
1 0.515435 0
1 0.659449 0.0087129
1 0.75964 0.0396277
1 0.820356 0.0663615
0 0.608026 0
0 0.761486 0
0 0.928679 0
0.428153 0.970306 0
0.939956 0.943633 0
1 0.981552 0
1 1 0
1 1 0
1 1 0
0 1 0
0.0550698 1 0.0059205
0.16878 1 0.0287633
0.617166 1 0.0033875
1 1 0
1 1 0
1 1 0
1 1 0
1 1 0
0.044892 1 0.0462196
0.113176 1 0.0541543
0.202274 1 0.0541085
0.64596 1 0.00825513
1 1 0
1 1 0
1 1 0
1 1 0
1 1 0
0.0542763 1 0.0552529
0.114778 1 0.0552834
0.200366 1 0.0513161
0.644755 1 0.00700389
1 1 0
1 1 0
1 1 0
1 1 0
1 1 0
0.0517739 1 0.0527504
0.112734 1 0.0533455
0.200153 1 0.0497139
0.647044 1 0.00593576
1 1 0
1 1 0
1 1 0
1 1 0
1 1 0
0 0 0.0255894
0.0154116 0 0.0249485
0.0679179 0 0.0235599
0.394614 0 0
0.801572 0 0
0.879637 0 0
0.93344 0 0
0.983886 0 0
1 0 0
0 0.0125429 0.0203555
0.00996414 0.0125277 0.0199741
0.0624247 0.00782788 0.0156558
0.384741 0 0
0.771664 0 0
0.860227 0 0
0.930739 0 0
1 0 0
1 0 0
0 0.0568551 0.00553903
0 0.0518044 0.00292973
0.0502632 0.0552834 0.00782788
0.37409 0.00115969 0
0.816678 0 0
0.985534 0 0
1 0.0531014 0
1 0.173465 0.0759136
1 0.327657 0.210437
0 0.218112 0
0 0.253086 0
0 0.321859 0
0.348318 0.359472 0
0.938994 0.402289 0
1 0.567758 0.0201877
1 0.69601 0.0683452
1 0.780285 0.111025
1 0.830777 0.138109
0 0.653971 0
0 0.822034 0
0.0200351 0.976333 0
0.461311 1 0.00178531
0.958923 0.962234 0
1 0.991913 0.00357061
1 1 0.0125734
1 1 0.0156252
1 1 0.0174105
0 1 0.0249027
0.0681621 1 0.0689555
0.174166 1 0.0899977
0.611429 1 0.0434272
1 1 0.0104982
1 1 0.00860609
1 1 0.0090486
1 1 0.00874342
1 1 0.00805676
0.0481117 1 0.107836
0.114839 1 0.114504
0.200244 1 0.112917
0.631724 1 0.0502022
1 1 0.0116732
1 1 0.00758373
1 1 0.00753796
1 1 0.00781262
1 1 0.00762951
0.0543679 1 0.114687
0.114595 1 0.114214
0.197528 1 0.10927
0.631342 1 0.048127
1 1 0.0110628
1 1 0.00724804
1 1 0.00698863
1 1 0.00675975
1 1 0.00656138
0.0519417 1 0.112062
0.112734 1 0.112352
0.19733 1 0.107744
0.632364 1 0.0459449
1 1 0.0102388
1 1 0.00628672
1 1 0.00624094
1 1 0.00601205
1 1 0.00581369
0 0 0.0751659
0.0151522 0 0.0723735
0.067689 0 0.0706188
0.399161 0 0.0242161
0.797421 0 0
0.873854 0 0
0.92694 0 0
0.977096 0 0
1 0 0
0 0.0130312 0.0679484
0.00921645 0.0116426 0.0688487
0.0611124 0.00660716 0.0641184
0.380865 0 0.00750744
0.768688 0 0
0.860243 0 0
0.935699 0 0
1 0 0
1 0 0
0 0.0542153 0.0536355
0 0.0523384 0.0512398
0.0538796 0.0590524 0.0571603
0.396094 0.00552377 0.00730907
0.840391 0 0
1 0.000381476 0
1 0.0872969 0.0800488
1 0.222293 0.210391
1 0.370428 0.357443
0 0.22565 0
0 0.272267 0
0 0.354849 0
0.394553 0.405707 0.0210727
0.990692 0.463905 0.0446937
1 0.613138 0.106859
1 0.725261 0.166964
1 0.795911 0.20856
1 0.837659 0.23418
0 0.704021 0
0 0.878477 0
0.0500649 1 0.0517433
0.490043 1 0.0645304
0.976089 0.97911 0.0395514
1 1 0.0535744
1 1 0.0657511
1 1 0.0724041
1 1 0.0756542
0 1 0.12845
0.0768597 1 0.162402
0.17702 1 0.175845
0.603586 1 0.114794
1 1 0.0578164
1 1 0.0536812
1 1 0.0541238
1 1 0.0538796
1 1 0.0537728
0.0486915 1 0.207004
0.114168 1 0.203357
0.197238 1 0.195834
0.618036 1 0.121035
1 1 0.0586709
1 1 0.0514229
1 1 0.0519722
1 1 0.0519265
1 1 0.052079
0.0521096 1 0.213336
0.112276 1 0.202869
0.194278 1 0.192889
0.617548 1 0.119356
1 1 0.0583352
1 1 0.0512245
1 1 0.0504921
1 1 0.0501564
1 1 0.0500801
0.0498817 1 0.212985
0.11075 1 0.202884
0.193698 1 0.192294
0.618067 1 0.117845
1 1 0.057557
1 1 0.05037
1 1 0.0495308
1 1 0.0489815
1 1 0.0486763
0 0 0.492241
0 0 0.473365
0.0443427 0 0.471153
0.378256 0 0.376562
0.76817 0 0.286412
0.844785 0 0.297368
0.897734 0 0.315465
0.946868 0 0.338369
1 0 0.374472
0 0 0.482811
0 0 0.483406
0.0327916 0 0.474525
0.339055 0 0.33727
0.743099 0 0.21886
0.839933 0 0.225742
0.918883 0 0.271458
1 0 0.369268
1 0 0.511055
0 0.0280156 0.441352
0 0.0274662 0.437217
0.0320745 0.0363317 0.46363
0.370199 0 0.368536
0.836973 0 0.30042
1 0 0.447288
1 0.0945296 0.62974
1 0.23624 0.841489
1 0.369329 1
0 0.221866 0.210483
0 0.276066 0.263539
0 0.3664 0.353445
0.420462 0.431586 0.418891
1 0.489586 0.477607
1 0.618708 0.609415
1 0.714092 0.707637
1 0.772061 0.767666
1 0.805539 0.802411
0 0.742748 0.208957
0 0.903914 0.3523
0.0561379 1 0.498238
0.471412 1 0.470344
0.966369 0.969818 0.384878
1 0.984115 0.41529
1 0.996368 0.444785
1 1 0.463111
1 1 0.475044
0 1 0.681392
0.0584421 1 0.694423
0.151949 1 0.686824
0.55639 1 0.556283
0.981064 1 0.406271
1 1 0.391806
1 1 0.394736
1 1 0.39794
1 1 0.402747
0.0230716 1 0.787442
0.0860609 1 0.750729
0.166873 1 0.714199
0.566567 1 0.566629
0.978805 1 0.406226
1 1 0.383017
1 1 0.382971
1 1 0.38468
1 1 0.388571
0.0237278 1 0.79794
0.0831159 1 0.752544
0.16408 1 0.713222
0.566476 1 0.566552
0.978058 1 0.407919
1 1 0.382101
1 1 0.376715
1 1 0.375601
1 1 0.377203
0.021622 1 0.803296
0.0814984 1 0.757336
0.163134 1 0.71577
0.567163 1 0.567269
0.97641 1 0.408911
1 1 0.381826
1 1 0.374075
1 1 0.370672
1 1 0.369894
0 0 0.943358
0 0 0.938994
0.0198215 0 0.936202
0.345846 0 0.846983
0.730388 0 0.733577
0.8094 0 0.722637
0.864912 0 0.718334
0.919158 0 0.720394
0.981598 0 0.732982
0 0 0.934539
0 0 0.929992
0.00663767 0 0.922957
0.292699 0 0.828458
0.703395 0 0.706645
0.806806 0 0.712154
0.894255 0 0.750072
1 0 0.816831
1 0 0.908522
0 0 0.898085
0 0 0.908537
0.00682078 0.0102083 0.937209
0.336858 0 0.883482
0.820569 0 0.826612
1 0 0.933181
1 0.112261 1
1 0.259846 1
1 0.382361 1
0 0.205158 0.713481
0 0.263752 0.810529
0 0.369955 0.901854
0.438788 0.449851 0.993622
1 0.500526 1
1 0.620722 1
1 0.705287 1
1 0.755611 1
1 0.784131 1
0 0.765301 0.762509
0 0.910033 0.913649
0.0522164 1 1
0.444984 1 1
0.937621 0.941772 0.944717
1 0.951873 0.95523
1 0.962844 0.966659
1 0.968246 0.972305
1 0.970108 0.974227
0 1 1
0.0425269 1 1
0.129976 1 1
0.505348 1 1
0.940459 1 0.947646
1 1 0.934203
1 1 0.934554
1 1 0.934127
1 1 0.934737
0.00634775 1 1
0.0641794 1 1
0.140658 1 1
0.511421 1 1
0.937545 1 0.944671
1 1 0.929397
1 1 0.929046
1 1 0.929366
1 1 0.930083
0.00602731 1 1
0.0611276 1 1
0.138735 1 1
0.512184 1 1
0.937224 1 0.944366
1 1 0.928573
1 1 0.92578
1 1 0.924788
1 1 0.92488
0.00453193 1 1
0.060029 1 1
0.137255 1 1
0.513161 1 1
0.936019 1 0.94316
1 1 0.927382
1 1 0.924102
1 1 0.922148
1 1 0.921324
0 0 1
0 0 1
0.0171206 0 1
0.35111 0 0.933013
0.726131 0 0.823499
0.804807 0 0.809873
0.860746 0 0.802716
0.917739 0 0.805142
0.984741 0 0.817792
0 0 1
0 0 1
0.00225834 0 1
0.290425 0 0.922728
0.702678 0 0.809796
0.811002 0 0.81706
0.90695 0 0.855985
1 0 0.9252
1 0 1
0 0 0.988586
0 0 1
0.0112612 0.0153048 1
0.367712 0 0.999542
0.850202 0 0.953063
1 0.0286412 1
1 0.159152 1
1 0.301259 1
1 0.415137 1
0 0.220966 0.846159
0 0.291447 0.933715
0.00740063 0.420066 1
0.493721 0.504494 1
1 0.546456 1
1 0.650553 1
1 0.721157 1
1 0.762875 1
1 0.786267 1
0 0.816556 0.914244
0 0.948455 1
0.0697185 1 1
0.469505 1 1
0.942184 0.946258 1
1 0.952926 1
1 0.961257 1
1 0.965408 1
1 0.966308 1
0 1 1
0.0450752 1 1
0.130159 1 1
0.503716 1 1
0.93611 1 1
1 1 1
1 1 1
1 1 1
1 1 1
0.00517281 1 1
0.0618601 1 1
0.137026 1 1
0.502953 1 1
0.931548 1 1
1 1 1
1 1 1
1 1 1
1 1 1
0.00364691 1 1
0.0585031 1 1
0.135088 1 1
0.502602 1 1
0.93138 1 1
1 1 1
1 1 1
1 1 1
1 1 1
0.00244144 1 1
0.0571908 1 1
0.133486 1 1
0.502876 1 1
0.930236 1 1
1 1 1
1 1 1
1 1 1
1 1 1
0 0 1
0 0 1
0.0180819 0 1
0.358801 0 0.989013
0.724422 0 0.885435
0.802258 0 0.872312
0.859358 0 0.866133
0.919249 0 0.870298
0.991547 0 0.885786
0 0 1
0 0 1
0 0 1
0.294255 0 0.982025
0.707225 0 0.874998
0.820813 0 0.887373
0.926619 0 0.936019
1 0 1
1 0 1
0 0 1
0 0.00122072 1
0.020737 0.0255131 1
0.410544 0 1
0.889952 0 1
1 0.067628 1
1 0.210147 1
1 0.341863 1
1 0.447959 1
0 0.243595 0.931914
0 0.329732 1
0.0277256 0.478859 1
0.547829 0.55819 1
1 0.591318 1
1 0.679042 1
1 0.737774 1
1 0.771572 1
1 0.791104 1
0 0.865629 1
0 0.985534 1
0.0869612 1 1
0.493187 1 1
0.948837 0.952743 1
1 0.956512 1
1 0.962737 1
1 0.965438 1
1 0.965789 1
0 1 1
0.0486915 1 1
0.132784 1 1
0.509911 1 1
0.937957 1 1
1 1 1
1 1 1
1 1 1
1 1 1
0.00543221 1 1
0.061387 1 1
0.136629 1 1
0.503624 1 1
0.931716 1 1
1 1 1
1 1 1
1 1 1
1 1 1
0.00300603 1 1
0.0581521 1 1
0.134524 1 1
0.501488 1 1
0.930404 1 1
1 1 1
1 1 1
1 1 1
1 1 1
0.00180056 1 1
0.0565499 1 1
0.132677 1 1
0.500267 1 1
0.928862 1 1
1 1 1
1 1 1
1 1 1
1 1 1
0 0 1
0 0 1
0.0187228 0 1
0.366247 0 1
0.723308 0 0.941115
0.799451 0 0.927306
0.859403 0 0.924346
0.922667 0 0.931548
1 0 0.953826
0 0 1
0 0 1
0 0 1
0.300847 0 1
0.714458 0 0.937835
0.833341 0 0.958679
0.95021 0 1
1 0 1
1 0 1
0 0 1
0 0.00683604 1
0.0328832 0.038407 1
0.457191 0.0133059 1
0.931502 0.00448615 1
1 0.111955 1
1 0.258915 1
1 0.380224 1
1 0.47715 1
0 0.270909 1
0 0.375662 1
0.0552682 0.543099 1
0.595697 0.60557 1
1 0.630777 1
1 0.702983 1
1 0.751598 1
1 0.779065 1
1 0.794949 1
0 0.909911 1
0 1 1
0.101793 1 1
0.51313 1 1
0.954253 0.958053 1
1 0.959426 1
1 0.964172 1
1 0.965667 1
1 0.965087 1
0 1 1
0.0521859 1 1
0.135164 1 1
0.516045 1 1
0.938781 1 1
1 1 1
1 1 1
1 1 1
1 1 1
0.00535592 1 1
0.0609751 1 1
0.136263 1 1
0.506218 1 1
0.932723 1 1
1 1 1
1 1 1
1 1 1
1 1 1
0.00239567 1 1
0.0583047 1 1
0.134295 1 1
0.502785 1 1
0.93048 1 1
1 1 1
1 1 1
1 1 1
1 1 1
0.00122072 1 1
0.0559701 1 1
0.132204 1 1
0.499916 1 1
0.928313 1 1
1 1 1
1 1 1
1 1 1
1 1 1
0 0 1
0 0 1
0.018967 0 1
0.37406 0 1
0.722484 0 0.996582
0.797848 0 0.983169
0.860319 0 0.982986
0.927443 0 0.995117
1 0 1
0 0 1
0 0 1
0 0 1
0.310491 0 1
0.724208 0 1
0.849149 0 1
0.976822 0 1
1 0 1
1 0.0370336 1
0 0 1
0 0.0145876 1
0.0484779 0.0547951 1
0.505486 0.0300755 1
0.978882 0.0379797 1
1 0.161669 1
1 0.303075 1
1 0.416068 1
1 0.502312 1
0 0.303868 1
0 0.429053 1
0.0872053 0.607065 1
0.639094 0.648478 1
1 0.664164 1
1 0.72314 1
1 0.763363 1
1 0.785473 1
1 0.798291 1
0 0.950103 1
0.000396735 1 1
0.114702 1 1
0.529366 1 1
0.959075 0.962768 1
1 0.961715 1
1 0.965118 1
1 0.96553 1
1 0.964675 1
0 1 1
0.0546883 1 1
0.137087 1 1
0.520775 1 1
0.939254 1 1
1 1 1
1 1 1
1 1 1
1 1 1
0.00523384 1 1
0.0603037 1 1
0.136217 1 1
0.509789 1 1
0.934524 1 1
1 1 1
1 1 1
1 1 1
1 1 1
0.00207523 1 1
0.0578164 1 1
0.134234 1 1
0.505043 1 1
0.93106 1 1
1 1 1
1 1 1
1 1 1
1 1 1
0.000686656 1 1
0.0554513 1 1
0.13196 1 1
0.501183 1 1
0.92842 1 1
1 1 1
1 1 1
1 1 1
1 1 1
