A-tak/A-tak High Contrast CT125.cube
TITLE "Generated by Resolve"
LUT_3D_SIZE 9
0 0 0
0 0 0
0.0464485 0 0
0.22678 0 0
0.842969 0 0
1 0 0
1 0 0
1 0 0
1 0 0
0 0 0
0 0 0
0.00329595 0 0
0.174426 0 0
0.762783 0 0
1 0 0
1 0 0
1 0 0
1 0 0
0 0 0
0 0 0
0 0 0
0.126619 0 0
0.667491 0 0
1 0 0
1 0 0
1 0 0
1 0 0
0 0.139757 0
0 0.119905 0
0 0.0978561 0
0.0871443 0.087129 0
0.594965 0 0
1 0 0
1 0 0
1 0 0
1 0.0722667 0
0 0.391836 0
0 0.369924 0
0 0.367941 0
0 0.407218 0
0.400168 0.400153 0
0.988861 0.424048 0
1 0.517494 0
1 0.604547 0
1 0.646937 0
0 0.7149 0
0 0.802029 0
0 0.907454 0
0 1 0
0.445624 1 0
0.998611 0.998596 0
1 1 0
1 0.989609 0
1 0.976074 0
0 1 0
0 1 0
0 1 0
0.0379034 1 0
0.429725 1 0
0.975906 1 0
1 1 0
1 1 0
1 1 0
0 1 0
0 1 0
0 1 0
0 1 0
0.353918 1 0
0.934859 1 0
1 1 0
1 1 0
1 1 0
0 1 0
0 1 0
0 1 0
0 1 0
0.281682 1 0
0.892851 1 0
1 1 0
1 1 0
1 1 0
0 0 0
0 0 0
0.0446021 0 0
0.226917 0 0
0.845014 0 0
1 0 0
1 0 0
1 0 0
1 0 0
0 0 0
0 0 0
0.00593576 0 0
0.177462 0 0
0.768795 0 0
1 0 0
1 0 0
1 0 0
1 0 0
0 0 0
0 0 0
0 0 0
0.125216 0 0
0.667247 0 0
1 0 0
1 0 0
1 0 0
1 0 0
0 0.133532 0
0 0.113741 0
0 0.0920424 0
0.080827 0.080827 0
0.595209 0 0
1 0 0
1 0 0
1 0.00927749 0
1 0.106249 0
0 0.384176 0
0 0.367559 0
0 0.37377 0
0 0.425788 0
0.432715 0.432715 0
1 0.455268 0
1 0.550561 0
1 0.625574 0
1 0.652949 0
0 0.740093 0
0 0.837842 0
0 0.943328 0
0 1 0
0.454002 1 0
1 1 0
1 0.999359 0
1 0.98526 0
1 0.972213 0
0 1 0
0 1 0
0 1 0
0.0310369 1 0
0.415534 1 0
0.97142 1 0
1 1 0
1 1 0
1 1 0
0 1 0
0 1 0
0 1 0
0 1 0
0.340581 1 0
0.929732 1 0
1 1 0
1 1 0
1 1 0
0 1 0
0 1 0
0 1 0
0 1 0
0.270222 1 0
0.88748 1 0
1 1 0
1 1 0
1 1 0
0 0 0.0590219
0 0 0.0501564
0.0375372 0 0.0375372
0.221714 0 0.0248722
0.843107 0 0
1 0 0
1 0 0
1 0 0
1 0 0
0 0 0.0184176
0 0 0.0140078
0.000579843 0 0.000579843
0.176532 0 0
0.771771 0 0
1 0 0
1 0 0
1 0 0
1 0 0
0 0 0
0 0 0
0 0 0
0.129 0 0
0.671214 0 0
1 0 0
1 0 0
1 0 0
1 0 0
0 0.126818 0
0 0.105531 0
0 0.0881666 0
0.0759899 0.0759899 0
0.607858 0 0
1 0 0
1 0 0
1 0.0417945 0
1 0.139849 0
0 0.378241 0
0 0.36791 0
0 0.385641 0
0 0.453346 0
0.468544 0.468544 0
1 0.489113 0
1 0.583124 0
1 0.64268 0
1 0.657298 0.0366979
0 0.771023 0
0 0.874311 0
0 0.981552 0
0 1 0
0.458015 1 0
1 1 0
1 0.996887 0
1 0.982376 0
1 0.969436 0
0 1 0
0 1 0
0 1 0
0.0243229 1 0
0.4038 1 0
0.967666 1 0
1 1 0
1 1 0
1 1 0
0 1 0
0 1 0
0 1 0
0 1 0
0.330114 1 0
0.925399 1 0
1 1 0
1 1 0
1 1 0
0 1 0
0 1 0
0 1 0
0 1 0
0.262287 1 0
0.883177 1 0
1 1 0
1 1 0
1 1 0
0 0 0.241871
0 0 0.234043
0.0300755 0 0.223224
0.214542 0 0.214542
0.840146 0 0.0771954
1 0 0.0308995
1 0 0.00680552
1 0 0
1 0 0
0 0 0.194537
0 0 0.189731
0 0 0.181048
0.168475 0 0.168475
0.769909 0 0.0324559
1 0 0
1 0 0
1 0 0
1 0 0
0 0 0.152316
0 0 0.142397
0 0 0.138262
0.122957 0 0.122957
0.666041 0 0
1 0 0
1 0 0
1 0 0
1 0 0
0 0.121111 0.121111
0 0.0984512 0.0984512
0 0.0829786 0.0829786
0.0725414 0.0725414 0.0725261
0.635966 0 0
1 0 0
1 0 0
1 0.0787518 0.0787518
1 0.176654 0.176654
0 0.377081 0
0 0.37319 0
0 0.404196 0
0 0.490867 0
0.507179 0.507179 0
1 0.528069 0
1 0.615641 0.0987106
1 0.659205 0.166751
1 0.663523 0.195132
0 0.807248 0
0 0.910903 0
0 1 0
0 1 0
0.461997 1 0
1 1 0
1 0.995911 0
1 0.982574 0
1 0.968963 0
0 1 0.00447089
0 1 0.0249332
0 1 0.0237125
0.0202029 1 0.0202029
0.39855 1 0
0.965866 1 0
1 1 0
1 1 0
1 1 0
0 1 0.00296025
0 1 0
0 1 0
0 1 0
0.328374 1 0
0.923461 1 0
1 1 0
1 1 0
1 1 0
0 1 0
0 1 0
0 1 0
0 1 0
0.26331 1 0
0.881819 1 0
1 1 0
1 1 0
1 1 0
0 0 0.93518
0 0 0.928542
0 0 0.922408
0.16051 0 0.925277
0.783948 0 0.783948
1 0 0.717021
1 0 0.663005
1 0 0.599924
1 0 0.529152
0 0 0.870985
0 0 0.865339
0 0 0.860014
0.113909 0 0.860227
0.709545 0 0.70956
1 0 0.607935
1 0 0.527398
1 0 0.429557
1 0 0.329335
0 0 0.809827
0 0 0.794629
0 0 0.786358
0.0675364 0 0.778592
0.595422 0 0.595438
0.998398 0 0.44538
1 0 0.368536
1 0 0.308263
1 0 0.274586
0 0.0749371 0.771954
0 0.0554513 0.713252
0 0.040238 0.695583
0.0321965 0.0321965 0.71989
0.595376 0 0.595376
1 0 0.501198
1 0 0.52636
1 0.0904707 0.589593
1 0.192126 0.656107
0 0.342565 0.34255
0 0.347326 0.347326
0 0.391699 0.391699
0 0.492042 0.492042
0.51194 0.512016 0.511879
1 0.533684 0.533684
1 0.61239 0.612406
1 0.643519 0.643519
1 0.641718 0.641718
0 0.81886 0.219211
0 0.923812 0.30338
0 1 0.400061
0 1 0.484535
0.418067 1 0.418067
0.989715 0.989715 0.296712
1 0.972824 0.302739
1 0.959899 0.298421
1 0.947066 0.283726
0 1 0.431373
0 1 0.428794
0 1 0.419318
0 1 0.432074
0.361151 1 0.361151
0.944167 1 0.224781
1 1 0.211215
1 1 0.211933
1 1 0.209064
0 1 0.359213
0 1 0.339467
0 1 0.332021
0 1 0.3523
0.300252 1 0.300237
0.903746 1 0.167422
1 1 0.145663
1 1 0.137148
1 1 0.13463
0 1 0.271717
0 1 0.257389
0 1 0.254978
0 1 0.279393
0.241856 1 0.241856
0.864607 1 0.111482
1 1 0.0906233
1 1 0.0765393
1 1 0.0687724
0 0 1
0 0 1
0 0 1
0.139803 0 1
0.753567 0 1
1 0 1
1 0 1
1 0 1
1 0 0.98967
0 0 1
0 0 1
0 0 1
0.0902571 0 1
0.665675 0 1
1 0 1
1 0 0.986206
1 0 0.956451
1 0 0.928893
0 0 1
0 0 1
0 0 1
0.0397955 0 1
0.529412 0 1
0.962646 0 0.962661
1 0 0.941024
1 0 0.931212
1 0 0.947173
0 0.0492256 1
0 0.0286107 1
0 0.0139162 1
0.0125277 0.0125277 1
0.540887 0 1
1 0 1
1 0 1
1 0.0929122 1
1 0.194476 1
0 0.313222 0.847898
0 0.32546 0.883162
0 0.383841 0.952453
0 0.494209 1
0.517983 0.517983 1
1 0.534066 1
1 0.595422 1
1 0.613138 1
1 0.604318 1
0 0.822828 0.822828
0 0.927413 0.927413
0 1 1
0 1 1
0.377447 1 1
0.949584 0.949554 0.949599
1 0.932097 0.932113
1 0.920577 0.920577
1 0.908034 0.908034
0 1 1
0 1 1
0 1 1
0 1 1
0.305455 1 1
0.894057 1 0.894057
1 1 0.876738
1 1 0.872984
1 1 0.866056
0 1 1
0 1 1
0 1 1
0 1 1
0.245518 1 0.979599
0.854536 1 0.854536
1 1 0.835767
1 1 0.82562
1 1 0.820325
0 1 0.989868
0 1 0.980865
0 1 0.976425
0 1 0.98114
0.188632 1 0.942763
0.815457 1 0.815457
1 1 0.798169
1 1 0.784543
1 1 0.775647
0 0 1
0 0 1
0 0 1
0.127687 0 1
0.729061 0 1
1 0 1
1 0 1
1 0 1
1 0 1
0 0 1
0 0 1
0 0 1
0.0786145 0 1
0.632563 0 1
0.999619 0 1
1 0 1
1 0 1
1 0 1
0 0 1
0 0 1
0 0 1
0.0268406 0 1
0.489708 0 1
0.950591 0 1
1 0 1
1 0 1
1 0 1
0 0.0387121 1
0 0.0197147 1
0 0.00714122 1
0.0109712 0.0109865 1
0.52369 0 1
1 0 1
1 0.0275731 1
1 0.12604 1
1 0.226429 1
0 0.308721 1
0 0.332464 1
0 0.406729 1
0 0.522728 1
0.552163 0.552163 1
1 0.563867 1
1 0.605249 1
1 0.610651 1
1 0.597009 1
0 0.85362 1
0 0.960052 1
0 1 1
0 1 1
0.400061 1 1
0.942641 0.942641 1
1 0.926482 1
1 0.914092 1
1 0.902068 1
0 1 1
0 1 1
0 1 1
0 1 1
0.307744 1 1
0.887419 1 1
1 1 1
1 1 1
1 1 1
0 1 1
0 1 1
0 1 1
0 1 1
0.23711 1 1
0.844785 1 1
1 1 1
1 1 1
1 1 1
0 1 1
0 1 1
0 1 1
0 1 1
0.177844 1 1
0.805982 1 1
1 1 1
1 1 1
1 1 0.99826
0 0 1
0 0 1
0 0 1
0.116426 0 1
0.70367 0 1
1 0 1
1 0 1
1 0 1
1 0 1
0 0 1
0 0 1
0 0 1
0.0679484 0 1
0.600259 0 1
0.987518 0 1
1 0 1
1 0 1
1 0 1
0 0 1
0 0 1
0 0 1
0.0155337 0 1
0.456565 0 1
0.939437 0 1
1 0 1
1 0 1
1 0 1
0 0.0292363 1
0 0.0112001 1
0 0.00151064 1
0.0115206 0.0115206 1
0.518059 0 1
1 0 1
1 0.0621042 1
1 0.161059 1
1 0.254276 1
0 0.307301 1
0 0.344686 1
0 0.433555 1
0.0153811 0.550607 1
0.585626 0.585641 1
1 0.585931 1
1 0.612619 1
1 0.607843 1
1 0.589776 1
0 0.885603 1
0 0.989807 1
0 1 1
0 1 1
0.408896 1 1
0.937133 0.937133 1
1 0.923537 1
1 0.909361 1
1 0.896529 1
0 1 1
0 1 1
0 1 1
0 1 1
0.320638 1 1
0.89099 1 1
1 1 1
1 1 1
1 1 1
0 1 1
0 1 1
0 1 1
0 1 1
0.240925 1 1
0.843183 1 1
1 1 1
1 1 1
1 1 1
0 1 1
0 1 1
0 1 1
0 1 1
0.174533 1 1
0.800458 1 1
1 1 1
1 1 1
1 1 1
0 0 1
0 0 1
0 0 1
0.105776 0 1
0.678111 0 1
1 0 1
1 0 1
1 0 1
1 0 1
0 0 1
0 0 1
0 0 1
0.0578012 0 1
0.568841 0 1
0.975525 0 1
1 0 1
1 0 1
1 0 1
0 0 1
0 0 1
0 0 1
0.00584421 0 1
0.42652 0 1
0.929854 0 1
1 0 1
1 0 1
1 0 1
0 0.0198672 1
0 0.00315862 1
0 0 1
0.0149233 0.0149386 1
0.520562 0 1
1 0 1
1 0.0948653 1
1 0.195834 1
1 0.276356 1
0 0.309636 1
0 0.362783 1
0 0.462196 1
0.0572976 0.579995 1
0.616297 0.616297 1
1 0.600687 1
1 0.615656 1
1 0.604257 1
1 0.583429 1
0 0.918593 1
0 1 1
0 1 1
0 1 1
0.408865 1 1
0.931975 0.931975 1
1 0.919799 1
1 0.905745 1
1 0.892012 1
0 1 1
0 1 1
0 1 1
0 1 1
0.329641 1 1
0.890929 1 1
1 1 1
1 1 1
1 1 1
0 1 1
0 1 1
0 1 1
0 1 1
0.249638 1 1
0.84506 1 1
1 1 1
1 1 1
1 1 1
0 1 1
0 1 1
0 1 1
0 1 1
0.177737 1 1
0.799649 1 1
1 1 1
1 1 1
1 1 1
