A-tak/A-tak Room Flat for BMPCC.cube
TITLE "Generated by Resolve"
LUT_3D_SIZE 5
0 0 0
0.0683909 0 0
0.801053 0 0
0.935836 0 0
1 0 0
0 0.0590066 0
0.0483558 0.0532082 0
0.796658 0 0
1 0.0231479 0
1 0.277562 0.100435
0 0.608026 0
0 0.928679 0
0.939956 0.943633 0
1 1 0
1 1 0
0.044892 1 0.0462196
0.202274 1 0.0541085
1 1 0
1 1 0
1 1 0
0.0517739 1 0.0527504
0.200153 1 0.0497139
1 1 0
1 1 0
1 1 0
0 0 0.0751659
0.067689 0 0.0706188
0.797421 0 0
0.92694 0 0
1 0 0
0 0.0542153 0.0536355
0.0538796 0.0590524 0.0571603
0.840391 0 0
1 0.0872969 0.0800488
1 0.370428 0.357443
0 0.704021 0
0.0500649 1 0.0517433
0.976089 0.97911 0.0395514
1 1 0.0657511
1 1 0.0756542
0.0486915 1 0.207004
0.197238 1 0.195834
1 1 0.0586709
1 1 0.0519722
1 1 0.052079
0.0498817 1 0.212985
0.193698 1 0.192294
1 1 0.057557
1 1 0.0495308
1 1 0.0486763
0 0 0.943358
0.0198215 0 0.936202
0.730388 0 0.733577
0.864912 0 0.718334
0.981598 0 0.732982
0 0 0.898085
0.00682078 0.0102083 0.937209
0.820569 0 0.826612
1 0.112261 1
1 0.382361 1
0 0.765301 0.762509
0.0522164 1 1
0.937621 0.941772 0.944717
1 0.962844 0.966659
1 0.970108 0.974227
0.00634775 1 1
0.140658 1 1
0.937545 1 0.944671
1 1 0.929046
1 1 0.930083
0.00453193 1 1
0.137255 1 1
0.936019 1 0.94316
1 1 0.924102
1 1 0.921324
0 0 1
0.0180819 0 1
0.724422 0 0.885435
0.859358 0 0.866133
0.991547 0 0.885786
0 0 1
0.020737 0.0255131 1
0.889952 0 1
1 0.210147 1
1 0.447959 1
0 0.865629 1
0.0869612 1 1
0.948837 0.952743 1
1 0.962737 1
1 0.965789 1
0.00543221 1 1
0.136629 1 1
0.931716 1 1
1 1 1
1 1 1
0.00180056 1 1
0.132677 1 1
0.928862 1 1
1 1 1
1 1 1
0 0 1
0.018967 0 1
0.722484 0 0.996582
0.860319 0 0.982986
1 0 1
0 0 1
0.0484779 0.0547951 1
0.978882 0.0379797 1
1 0.303075 1
1 0.502312 1
0 0.950103 1
0.114702 1 1
0.959075 0.962768 1
1 0.965118 1
1 0.964675 1
0.00523384 1 1
0.136217 1 1
0.934524 1 1
1 1 1
1 1 1
0.000686656 1 1
0.13196 1 1
0.92842 1 1
1 1 1
1 1 1
