A-tak/A-tak Teal Orange Dark Contrast.cube
TITLE "Generated by Resolve"
LUT_3D_SIZE 5
0.0310063 0 0
0.0901045 0 0
0.501472 0 0
0.740688 0.244755 0.0940871
0.95053 0.450202 0.284108
0.0895552 0.0950484 0
0.160998 0.12575 0
0.50248 0.186206 0
0.752361 0.304036 0.118196
0.96849 0.480476 0.303075
0 0.496651 0
0.0782177 0.500877 0.0115358
0.496986 0.505287 0.0370184
0.774517 0.531731 0.157153
0.994598 0.592309 0.339162
0 0.791791 0.207874
0 0.792462 0.209308
0.470161 0.781201 0.1906
0.76321 0.771481 0.210864
0.962097 0.776089 0.318273
0 0.993805 0.375753
0 0.992874 0.374258
0 0.979141 0.358419
0.741207 0.966171 0.352392
0.958679 0.966949 0.391775
0.0451209 0 0.0515755
0.0886702 0 0.0518196
0.501534 0 0.149065
0.741604 0.244938 0.204868
0.95198 0.45095 0.324849
0.0853742 0.100465 0.0748913
0.165316 0.132433 0.105776
0.502983 0.189258 0.172045
0.753841 0.306065 0.237034
0.970672 0.482567 0.354513
0 0.497932 0.182727
0.0932784 0.502403 0.200168
0.499077 0.507332 0.217853
0.7776 0.534066 0.293294
0.995727 0.593271 0.391913
0 0.792065 0.32079
0 0.792493 0.321828
0.469963 0.781094 0.301808
0.762921 0.771191 0.29546
0.961685 0.775662 0.35639
0 0.993393 0.412284
0 0.992493 0.411292
0 0.978759 0.393225
0.740826 0.965789 0.381323
0.958297 0.966567 0.412695
0.17293 0 0.309697
0.156924 0 0.348562
0.49868 0 0.48957
0.740246 0.244831 0.497871
0.952224 0.451347 0.519921
0.191363 0.141238 0.419562
0.238743 0.16202 0.447501
0.501396 0.190417 0.496315
0.754208 0.308125 0.508904
0.972534 0.484474 0.53521
0 0.498787 0.499031
0.062562 0.503532 0.503761
0.500969 0.510185 0.509743
0.78027 0.536263 0.528923
0.993759 0.591485 0.552041
0 0.788769 0.533364
0 0.7888 0.53341
0.466484 0.777157 0.524636
0.758297 0.766674 0.517845
0.957122 0.771221 0.526925
0 0.988952 0.552117
0 0.987823 0.551217
0 0.97409 0.54049
0.736156 0.961135 0.532006
0.953613 0.961898 0.540078
0 0.0416876 0.750896
0 0.0472267 0.751049
0.485908 0.119493 0.743954
0.740734 0.264775 0.745388
0.955627 0.458 0.765011
0 0.220432 0.75259
0 0.227527 0.75465
0.491493 0.240436 0.753124
0.757031 0.325689 0.761715
0.979461 0.495583 0.788373
0 0.504036 0.751659
0 0.509392 0.758495
0.499443 0.518547 0.76965
0.783825 0.541451 0.788861
0.991928 0.590997 0.800687
0 0.785855 0.786114
0 0.785458 0.785702
0.450965 0.773877 0.774075
0.753109 0.762402 0.761959
0.95256 0.76704 0.762936
0 0.984527 0.790402
0 0.983398 0.789288
0 0.969665 0.775845
0.730953 0.95671 0.763165
0.949065 0.957488 0.764065
0 0.290639 0.950805
0 0.290929 0.950896
0.433997 0.28751 0.942596
0.742596 0.341085 0.946273
0.962509 0.482887 0.967163
0 0.329 0.953597
0 0.333516 0.956222
0.43978 0.335332 0.95433
0.760662 0.386404 0.964782
0.990265 0.523598 0.994934
0 0.521202 0.95584
0 0.527886 0.964553
0.443122 0.537972 0.976928
0.785046 0.555962 0.990021
0.992798 0.599924 0.997528
0 0.787747 0.982681
0 0.78732 0.982238
0.299229 0.775509 0.970123
0.748791 0.763287 0.956863
0.951949 0.768048 0.957305
0 0.984726 0.98497
0 0.983581 0.983841
0 0.969848 0.970092
0.725521 0.956893 0.957031
0.948379 0.957671 0.957214
