A-tak/A-tak Teal Film Room33 1.0.cube
TITLE "Generated by Resolve"
LUT_3D_SIZE 9
0.065507 0.065507 0.065507
0.080293 0.0663157 0.076585
0.149691 0.0854505 0.109377
0.30045 0.0983291 0.170077
0.43331 0.142611 0.253895
0.549981 0.217563 0.341344
0.662242 0.152239 0.271321
0.774731 0.0544442 0
0.886564 0.13257 0
0 0.102327 0.0953689
0.0814374 0.109224 0.117708
0.167941 0.104341 0.143801
0.312947 0.0983902 0.194003
0.451774 0.123827 0.277073
0.575463 0.178973 0.36849
0.700969 0.139559 0.312901
0.829709 0.00291447 0
0.958038 0.126925 0.136599
0 0.165621 0.148989
0.0454871 0.175509 0.168139
0.170397 0.180285 0.191455
0.326635 0.178531 0.232059
0.479927 0.193072 0.318212
0.61944 0.23473 0.417655
0.753902 0.222065 0.374609
0.887282 0.205722 0.120729
1 0.141695 0
0 0.287129 0.177813
0 0.312612 0.208286
0.15169 0.330327 0.240925
0.328847 0.333333 0.265995
0.484245 0.340261 0.327077
0.623636 0.361089 0.435111
0.756924 0.36257 0.40148
0.886915 0.350088 0.0764172
1 0.320424 0.166735
0.0105287 0.444373 0.0125887
0.0789197 0.471855 0.0417334
0.176379 0.489052 0.0579385
0.336187 0.488365 0.0571603
0.487648 0.487648 0.0555428
0.62182 0.489357 0.0568246
0.750973 0.499168 0.434592
0.877241 0.495933 0.101213
1 0.512184 0.177432
0.00340276 0.597299 0.0281682
0.0986038 0.620157 0.0606088
0.192706 0.632395 0.0713664
0.342061 0.627436 0.0592813
0.491051 0.623499 0.0586099
0.62327 0.623285 0.0561685
0.750454 0.624094 0.0587472
0.875685 0.625269 0.088426
0.997406 0.625589 0
0.0810254 0.733211 0.0323339
0.164599 0.753613 0.0780041
0.207797 0.763958 0.0867628
0.349477 0.757488 0.037171
0.492607 0.752148 0.0554208
0.625071 0.75108 0.0836805
0.751125 0.751141 0.0972915
0.875731 0.751415 0.0500343
0.997269 0.752804 0
0.296101 0.862104 0.169848
0.228443 0.881437 0.163119
0.227008 0.890867 0.0101625
0.309102 0.883604 0
0.490639 0.877913 0.0114443
0.625254 0.876616 0
0.752743 0.876616 0.0847334
0.876646 0.876631 0.176379
0.997818 0.877409 0.221256
0.534691 0.987045 0.355016
0.38407 1 0.334218
0.436484 1 0.357565
0 1 0
0.471153 1 0
0.597772 1 0
0.752255 0.999222 0
0.880003 0.998505 0.403464
0.998474 0.998489 0.0133974
0.0462196 0.0102541 0
0 0.0630961 0
0.15874 0.0963455 0.118181
0.302144 0.064271 0.0796216
0.434211 0.124895 0.165087
0.551537 0.211246 0.254002
0.664424 0.138705 0.184283
0.777523 0.0974441 0.0136568
0.890349 0 0.0175021
0.00334173 0.10518 0.122805
0.0922866 0.107591 0.115419
0.175906 0.0988174 0.10132
0.316442 0.0873884 0.106142
0.454994 0.115984 0.190661
0.580667 0.177783 0.284794
0.708309 0.14197 0.231724
0.838224 0.0765393 0.0700389
0.966934 0.138064 0.0926528
0.0459754 0.165713 0.0830549
0.0921798 0.175006 0.0923323
0.179782 0.181689 0.107698
0.335088 0.181613 0.150408
0.48864 0.197574 0.237659
0.628565 0.24062 0.337972
0.763378 0.227588 0.295262
0.896757 0.224079 0.132342
1 0.301991 0.143099
0 0.294499 0.100328
0.00764477 0.320195 0.130602
0.166598 0.338293 0.162295
0.338048 0.341238 0.186755
0.493294 0.347906 0.247837
0.6327 0.368795 0.35552
0.765377 0.369909 0.321401
0.894743 0.354742 0.106355
1 0.401404 0.236362
0.026688 0.453849 0.0593271
0.085359 0.481132 0.0860761
0.185565 0.497993 0.102892
0.344564 0.496757 0.101869
0.495064 0.495064 0.100084
0.629175 0.496742 0.101076
0.758114 0.505821 0.353338
0.88423 0.501411 0.108095
1 0.496559 0.137789
0.0261234 0.605386 0.0769207
0.0986496 0.627771 0.100542
0.19202 0.639704 0.110002
0.351125 0.634562 0.109483
0.497673 0.630289 0.101213
0.630091 0.630076 0.103059
0.757153 0.630793 0.105333
0.882063 0.631434 0.102937
1 0.635904 0.0961929
0.12401 0.740078 0.0848859
0.0627604 0.760479 0.107744
0.174228 0.770672 0.108644
0.35787 0.764141 0.109972
0.497215 0.758694 0.0868849
0.631678 0.75761 0.113466
0.757626 0.75761 0.107805
0.882078 0.757763 0.0906844
1 0.758679 0
0.233722 0.86862 0.125597
0.168185 0.887984 0.147051
0.209735 0.897368 0.132891
0.376547 0.890105 0.137835
0.486473 0.884352 0
0.628305 0.883055 0
0.758785 0.883055 0.0984665
0.882979 0.882963 0.140169
1 0.883619 0.0937667
0.545205 0.993515 0.278294
0 1 0.20911
0 1 0
0.468666 1 0.270588
0.386877 1 0
0.644999 1 0.118944
0.765621 1 0.242878
0.88426 1 0.18323
1 1 0
0.0374914 0 0
0 0.041474 0
0.15874 0.127321 0.199283
0.301732 0.0502174 0.145861
0.432914 0.000915541 0.120653
0.549828 0.178729 0.208423
0.663447 0.0920729 0.139391
0.777386 0 0.0819715
0.892164 0 0.081117
0.021088 0.117021 0.210559
0.100893 0.122683 0.213474
0.166781 0.118334 0.205051
0.318486 0.0814069 0.160967
0.456016 0.0622721 0.144717
0.58378 0.159594 0.244205
0.712886 0.109071 0.191653
0.843641 0.101488 0.152117
0.972686 0.186633 0.168902
0.0423743 0.165301 0.165499
0.0922103 0.175708 0.175845
0.18468 0.184695 0.184695
0.34197 0.181888 0.181888
0.494545 0.187213 0.198138
0.634409 0.233906 0.300145
0.769436 0.219257 0.257267
0.90277 0.205203 0.207263
1 0.302342 0.24033
0.0187381 0.298741 0.138659
0.0823377 0.324956 0.164874
0.182574 0.342641 0.182559
0.344274 0.344274 0.184192
0.499046 0.348913 0.211627
0.638163 0.369955 0.317983
0.770382 0.369497 0.282795
0.898955 0.367758 0.204227
1 0.384848 0.206897
0.0196384 0.459724 0.147387
0.0947433 0.486961 0.174838
0.191638 0.503304 0.19115
0.349416 0.501549 0.189349
0.499367 0.499367 0.18703
0.633188 0.50074 0.188647
0.761807 0.50811 0.314855
0.887572 0.504311 0.19617
1 0.500786 0.189914
0.0452888 0.609583 0.165209
0.10811 0.631922 0.187213
0.197635 0.643626 0.19881
0.35407 0.638086 0.19382
0.501518 0.633875 0.18938
0.633509 0.633494 0.188464
0.760464 0.634119 0.188693
0.885313 0.634699 0.18764
1 0.637507 0.193545
0.0639963 0.74374 0.17377
0.0379034 0.764004 0.190433
0.205936 0.774105 0.203784
0.363516 0.767193 0.199207
0.503548 0.761959 0.19118
0.634714 0.760784 0.19057
0.760754 0.760769 0.184726
0.885222 0.760906 0.184436
1 0.762066 0.12639
0.266621 0.8719 0.177676
0.287175 0.891234 0.220951
0.255314 0.900557 0.219028
0.369757 0.893111 0.205921
0.50251 0.887556 0.185183
0.629694 0.886198 0.170703
0.762188 0.885954 0.203006
0.885939 0.885939 0.161746
1 0.886534 0.21387
0.46424 0.996612 0.278447
0.397681 1 0.27863
0 1 0.231907
0 1 0.188434
0.483497 1 0.179156
0.674434 1 0.328817
0.760281 1 0.140841
0.886946 1 0.244739
1 1 0
0 0 0
0 0 0
0.15491 0.150225 0.346609
0.293767 0.0534981 0.297063
0.425361 0 0.273198
0.542672 0 0.258045
0.656977 0 0.245884
0.771923 0.0484016 0.23827
0.889632 0 0.225544
0.0231937 0 0
0 0 0
0.167422 0.139467 0.359136
0.312459 0.0810864 0.315114
0.450965 0.0560616 0.298802
0.581689 0.0575113 0.297139
0.712306 0.0538491 0.301259
0.843702 0.0572366 0.309499
0.973083 0.18352 0.320684
0 0.16231 0.325216
0.0573434 0.175418 0.338018
0.182589 0.184146 0.344518
0.341512 0.181613 0.341695
0.495216 0.183032 0.343053
0.634745 0.190036 0.350134
0.769909 0.199908 0.358907
0.903075 0.208835 0.368261
1 0.21239 0.376104
0.0198672 0.298543 0.298543
0.0822614 0.325231 0.325231
0.183139 0.343206 0.343206
0.344762 0.344778 0.344778
0.499382 0.347219 0.347219
0.637659 0.352972 0.353017
0.769467 0.35877 0.358419
0.897581 0.369696 0.365042
1 0.369894 0.370764
0.0330205 0.460151 0.307988
0.0938125 0.487129 0.334981
0.19118 0.502861 0.350713
0.348302 0.500282 0.348119
0.497932 0.497932 0.345769
0.63154 0.499077 0.34696
0.759686 0.501015 0.348943
0.885542 0.502235 0.350301
1 0.496193 0.34902
0.0266117 0.608331 0.323598
0.104997 0.63035 0.3458
0.197452 0.641871 0.357351
0.351644 0.636103 0.351446
0.499245 0.631815 0.347189
0.631327 0.631327 0.346731
0.758022 0.631662 0.346639
0.882948 0.632181 0.347173
1 0.636149 0.35317
0.202304 0.741772 0.332341
0.135576 0.761898 0.351217
0.188861 0.771862 0.360632
0.354452 0.764858 0.353674
0.49839 0.759548 0.347417
0.631846 0.758328 0.346334
0.758099 0.758083 0.347997
0.882795 0.75848 0.347601
1 0.759823 0.341665
0.270848 0.869566 0.335607
0.20441 0.888808 0.355108
0.147127 0.897887 0.358404
0.376349 0.890654 0.353704
0.505882 0.885161 0.355062
0.634577 0.883833 0.349722
0.758541 0.883375 0.346487
0.88333 0.88333 0.350103
1 0.883787 0.343557
0 0.994095 0.320485
0 1 0.356023
0 1 0.349218
0.477531 1 0.399069
0.594675 1 0.394903
0.61767 1 0.331151
0.75288 1 0.262592
0.884245 1 0.347143
1 1 0.310155
0.033402 0 0
0 0 0
0.14107 0 0.476951
0.28687 0.0331884 0.440162
0.418601 0 0.418601
0.536553 0 0.404105
0.651438 0 0.392645
0.76733 0.0247044 0.384466
0.888319 0 0.385504
0.0403601 0 0
0 0 0
0.155291 0 0.482994
0.307805 0.0742809 0.461051
0.448005 0.0530251 0.44799
0.580728 0.0534218 0.44828
0.712474 0.0670634 0.453727
0.84416 0.0909133 0.461494
0.974151 0 0.469078
0.0362554 0 0
0 0 0
0.194003 0 0.181186
0.341802 0.183963 0.494835
0.496071 0.183734 0.496071
0.635889 0.191623 0.503441
0.771023 0.20174 0.512261
0.9037 0.223392 0.521508
1 0.321553 0.531518
0.0196841 0.299092 0.451255
0.0836194 0.326253 0.478416
0.184298 0.344335 0.496498
0.345556 0.345556 0.497719
0.500145 0.347982 0.500145
0.637797 0.353292 0.505348
0.768948 0.358465 0.510185
0.896712 0.365621 0.513954
1 0.392615 0.520439
0.0270085 0.461067 0.461067
0.0919966 0.487694 0.487694
0.190356 0.502892 0.502892
0.347402 0.499504 0.499504
0.496941 0.496956 0.496941
0.63035 0.497902 0.497902
0.758282 0.499489 0.499489
0.884077 0.502113 0.501045
1 0.502525 0.502678
0.0466773 0.607614 0.475166
0.113054 0.629343 0.49691
0.195117 0.640604 0.508141
0.350469 0.634684 0.502235
0.49781 0.630259 0.49781
0.629679 0.629679 0.49723
0.756191 0.629831 0.497353
0.881148 0.630579 0.498238
1 0.634424 0.499123
0.204379 0.740322 0.481941
0.138506 0.760311 0.501793
0.198428 0.770047 0.511345
0.355413 0.763104 0.504463
0.497032 0.757733 0.498787
0.630228 0.756466 0.497749
0.756191 0.756207 0.497246
0.880934 0.756634 0.498421
1 0.757839 0.49926
0 0.86772 0.483787
0.145724 0.886946 0.504036
0.115236 0.895949 0.511193
0.346899 0.888777 0.506722
0.510445 0.883314 0.500343
0.635004 0.881849 0.500954
0.757351 0.881407 0.499031
0.881209 0.881209 0.496193
1 0.881651 0.502449
0.24683 0.992264 0.496162
0.152056 1 0.506737
0.389487 1 0.521874
0.481453 1 0.519722
0.445914 1 0.498146
0.623377 1 0.499489
0.760479 1 0.500511
0.882948 1 0.511498
1 1 0.505837
0 0 0.60325
0 0 0.602182
0.0779278 0 0.592218
0.281178 0.00209049 0.56582
0.413504 0 0.545953
0.532067 0 0.532067
0.647745 0 0.521401
0.765591 0 0.514855
0.888747 0 0.518181
0 0 0.606744
0 0 0.612024
0.0953536 0.00859083 0.608682
0.304433 0.0619516 0.589059
0.44773 0.0520485 0.580194
0.581842 0.0512398 0.581827
0.71429 0.0670634 0.587961
0.846418 0.108186 0.59585
0.976776 0.260685 0.606912
0 0.130098 0.599252
0 0.150912 0.618112
0.125109 0.171939 0.631357
0.343771 0.183749 0.628382
0.498497 0.186236 0.630945
0.638453 0.19472 0.638437
0.773312 0.206821 0.646983
0.905882 0.222477 0.655299
1 0 0.662806
0 0.300008 0.586862
0 0.327688 0.614328
0.164752 0.34612 0.632273
0.34789 0.347951 0.632578
0.502159 0.34995 0.634607
0.639261 0.354696 0.639261
0.769451 0.359991 0.643122
0.897154 0.363333 0.64651
1 0.36289 0.650156
0.0275273 0.463279 0.595728
0.0964523 0.489403 0.621851
0.191241 0.504067 0.63653
0.347967 0.500191 0.632654
0.497353 0.497368 0.629816
0.630533 0.498054 0.630518
0.758114 0.499367 0.631769
0.883955 0.501823 0.633356
1 0.507668 0.635431
0.044831 0.608148 0.608148
0.0962234 0.629648 0.629648
0.197421 0.640497 0.640497
0.350011 0.634653 0.634653
0.497826 0.630091 0.630106
0.629389 0.629404 0.629404
0.75584 0.629496 0.629496
0.880751 0.630289 0.630167
1 0.633219 0.632227
0.022858 0.740215 0.613855
0 0.760082 0.633661
0.205554 0.769635 0.64329
0.343145 0.762692 0.636271
0.499352 0.757351 0.631006
0.629755 0.755978 0.629633
0.755749 0.755764 0.629404
0.880491 0.756191 0.629847
1 0.757061 0.630747
0.251911 0.867384 0.616815
0.185199 0.886503 0.635813
0.263462 0.895567 0.645136
0.352911 0.888334 0.637613
0.493645 0.882811 0.63212
0.631205 0.881224 0.630838
0.756573 0.880796 0.630091
0.880491 0.880507 0.629526
1 0.880781 0.630869
0 0.991775 0.619181
0 1 0.636866
0 1 0.647059
0 1 0.638468
0.537148 1 0.637583
0.610697 1 0.630854
0.759487 1 0.634272
0.880919 1 0.634989
1 1 0.628901
0.0252842 0.0179294 0.71902
0.0688029 0.0238041 0.718624
0.138231 0.0345922 0.710048
0.275944 0 0.687037
0.409003 0 0.667796
0.528069 0 0.654459
0.644724 0 0.644709
0.765713 0 0.641398
0.890288 0.231937 0.645792
0.0399939 0.0679179 0.724895
0.0737011 0.0776074 0.730861
0.157 0.0722667 0.728771
0.301869 0.0597238 0.712871
0.448249 0.0502785 0.707088
0.583749 0.048127 0.710124
0.716686 0.0747082 0.71667
0.849256 0.0271611 0.724926
0.97969 0 0.734676
0.032578 0.150484 0.721904
0.0880293 0.17232 0.742763
0.188388 0.185718 0.757488
0.346288 0.186648 0.757382
0.501457 0.188663 0.760281
0.641398 0.192752 0.767788
0.776028 0.207492 0.776028
0.908324 0.186099 0.783993
1 0 0.791028
0.0314031 0.303624 0.714992
0.0931106 0.331518 0.742779
0.190051 0.349233 0.760632
0.350591 0.350332 0.761547
0.504326 0.35201 0.763134
0.640925 0.356802 0.767269
0.770611 0.362371 0.770596
0.898009 0.368521 0.773724
1 0.411582 0.777386
0.0534371 0.465843 0.724697
0.100267 0.49131 0.75021
0.193256 0.505058 0.763912
0.348592 0.501259 0.759991
0.498131 0.498207 0.756939
0.630961 0.498833 0.757305
0.758541 0.500008 0.758541
0.884245 0.5037 0.759976
1 0.510109 0.761959
0.0452277 0.609018 0.735378
0.0921187 0.630304 0.756664
0.198657 0.641016 0.767376
0.351705 0.63505 0.761395
0.498024 0.63035 0.756695
0.629282 0.629282 0.755642
0.755917 0.629541 0.755917
0.880766 0.630152 0.756466
1 0.635782 0.758068
0.0238041 0.74052 0.74052
0.0959487 0.760311 0.760311
0.200931 0.769757 0.769757
0.350622 0.762783 0.762768
0.497795 0.757336 0.757336
0.628931 0.755764 0.755764
0.755749 0.755764 0.755749
0.880507 0.756176 0.756191
1 0.757229 0.757137
0 0.867399 0.743084
0 0.886229 0.761837
0.233814 0.895537 0.771252
0.380804 0.88838 0.764126
0.509468 0.882856 0.758618
0.63061 0.881102 0.756802
0.756649 0.880613 0.756329
0.880247 0.880232 0.755917
1 0.880247 0.756039
0 0.991775 0.747005
0.483711 1 0.7673
0.171435 1 0.774716
0 1 0.765545
0.506386 1 0.761059
0.660502 1 0.759594
0.756146 1 0.756924
0.881254 1 0.756649
1 1 0.755596
0.0346838 0.057847 0.836667
0.0801251 0 0.836728
0.143801 0 0.828946
0.269947 0.0249027 0.806653
0.405325 0 0.788006
0.524422 0 0.77528
0.642206 0.0902419 0.766461
0.766415 0.0748455 0.766415
0.892363 0.24448 0.772
0.0451667 0.0627298 0.844694
0.0691691 0.0439765 0.851286
0.14786 0.0437629 0.850034
0.301915 0.0454719 0.836316
0.449165 0.0697185 0.832486
0.585916 0.0461738 0.836622
0.71928 0.0644999 0.84358
0.852445 0.178622 0.85243
0.982895 0.229084 0.862516
0 0.149615 0.846632
0.0894179 0.172457 0.868849
0.199145 0.182574 0.884169
0.347402 0.192218 0.884565
0.504555 0.187304 0.887739
0.644633 0.206744 0.895232
0.778775 0.190219 0.90312
0.91078 0.281498 0.91075
1 0.0877852 0.917372
0.0893111 0.305104 0.842329
0.0936294 0.334051 0.870222
0.19411 0.351064 0.887892
0.354223 0.353643 0.888624
0.506386 0.351614 0.889586
0.642161 0.354879 0.892927
0.771725 0.360693 0.89604
0.898894 0.355367 0.898909
1 0.361868 0.902022
0.00857557 0.467903 0.851575
0.0947433 0.492638 0.876509
0.193698 0.506233 0.88957
0.350057 0.502159 0.885328
0.498054 0.499428 0.882078
0.631586 0.499489 0.882216
0.759091 0.501122 0.883375
0.884672 0.507225 0.884657
1 0.513863 0.886351
0.0256657 0.610025 0.860685
0.142153 0.63064 0.881605
0.19704 0.641505 0.892256
0.351934 0.635248 0.886152
0.498451 0.630655 0.881376
0.629557 0.629541 0.880232
0.756115 0.62977 0.88043
0.880964 0.63122 0.880949
1 0.634882 0.882048
0.125139 0.740948 0.865248
0.135607 0.760372 0.884672
0.212161 0.770001 0.894301
0.354025 0.762966 0.887282
0.500267 0.757366 0.881666
0.630076 0.755947 0.880247
0.755917 0.755917 0.880217
0.880629 0.756344 0.880629
1 0.756786 0.881453
0 0.867536 0.867536
0.0150607 0.886397 0.886397
0.270222 0.895705 0.895705
0.370214 0.888502 0.888502
0.506081 0.882719 0.882719
0.628061 0.881071 0.881086
0.756512 0.880507 0.880507
0.880064 0.880064 0.880064
1 0.880034 0.880034
0.590021 0.992126 0.872007
0.494545 1 0.890639
0 1 0.899001
0 1 0.891142
0.494881 1 0.88455
0.6121 1 0.881987
0.752682 1 0.880842
0.880568 1 0.880034
1 1 0.880034
0 0.15108 0.950927
0.0645304 0.161746 0.951492
0.145281 0 0.944305
0.246799 0.101045 0.922866
0.39794 0.151583 0.90483
0.521019 0.0678721 0.892897
0.641505 0.0746471 0.886152
0.767742 0.0719158 0.888151
0.894789 0.115892 0.894789
0.00889601 0.0787671 0.961074
0.143893 0 0.9682
0.147768 0 0.967681
0.288136 0.143236 0.957397
0.449088 0.0800183 0.954925
0.588525 0 0.959747
0.722347 0.0182803 0.967147
0.855802 0.00062562 0.976226
0.986313 0.194736 0.986297
0.158038 0.174914 0.968063
0.176364 0.0479286 0.991638
0.191409 0.174777 1
0.352193 0.134905 1
0.509544 0.178363 1
0.646876 0.236881 1
0.781994 0.240269 1
0.912978 0 1
1 0.299229 1
0 0.300832 0.966171
0.0966201 0.314275 0.994064
0.150698 0.359792 1
0.344625 0.369604 1
0.513375 0.342061 1
0.643717 0.342885 1
0.772763 0.334264 1
0.899977 0.346395 1
1 0.353292 1
0 0.473823 0.974563
0 0.500328 0.998901
0.149691 0.513252 1
0.348714 0.502358 1
0.499626 0.498238 1
0.632059 0.498177 1
0.759808 0.500923 1
0.885328 0.508217 1
1 0.496864 1
0.101793 0.611017 0.982284
0 0.632166 1
0.17377 0.642344 1
0.349172 0.636011 1
0.496803 0.631189 1
0.629236 0.630671 1
0.756664 0.630823 1
0.881361 0.630777 1
1 0.641718 1
0.123766 0.741482 0.986328
0 0.760937 1
0.159899 0.770672 1
0.344625 0.763043 1
0.499855 0.757565 1
0.631022 0.755764 1
0.756405 0.756588 1
0.88098 0.75697 1
1 0.758328 1
0.375128 0.867933 0.988296
0.356115 0.886931 1
0.311635 0.896162 1
0.357351 0.888914 1
0.506844 0.883116 1
0.632517 0.881392 1
0.756069 0.880644 1
0.879927 0.879942 1
1 0.879911 1
0 0.991958 0.991989
0.228779 1 1
0 1 1
0.245274 1 1
0.459876 1 1
0.608179 1 1
0.75555 1 1
0.879927 1 1
1 1 1
