A-tak/A-tak Neutral Low Contrast Room 1.0_1.A042_12142250_C017.cube
TITLE "Generated by Resolve"
LUT_3D_SIZE 9
0.0370947 0.0370947 0.0370947
0.165316 0.0716259 0.0716259
0.329839 0.0424811 0.0424811
0.476188 0.00794995 0.00794995
0.579217 0.00851453 0.00851453
0.679194 0.0269627 0.0269627
0.780529 0.0749828 0.0749828
0.879866 0.137713 0.137713
0.971542 0.183642 0.183642
0.0637064 0.161807 0.0637064
0.156771 0.156771 0.0540627
0.277073 0.150546 0.0439612
0.43006 0.126665 0.0187686
0.544335 0.152316 0.0315251
0.650721 0.203647 0.0809949
0.749981 0.250385 0.135973
0.838666 0.285252 0.168399
0.918608 0.314473 0.188952
0.0148775 0.301274 0.0148775
0.143191 0.284352 0.032639
0.292226 0.292226 0.0391394
0.444312 0.307225 0.0455787
0.559564 0.337682 0.0778973
0.652308 0.364508 0.101213
0.73434 0.388846 0.116945
0.811566 0.411032 0.130388
0.884199 0.431037 0.141085
0.0430457 0.47982 0.0430457
0.172488 0.458366 0.0538796
0.324788 0.456947 0.0577401
0.458518 0.458518 0.0521096
0.560616 0.468788 0.0634775
0.646036 0.482521 0.0773022
0.723537 0.497459 0.0893416
0.795895 0.512413 0.0971389
0.864622 0.526894 0.103044
0.104845 0.605341 0.104845
0.219516 0.585275 0.107179
0.361822 0.576471 0.0928511
0.479744 0.570413 0.073991
0.572717 0.572717 0.0729534
0.651545 0.578698 0.0767224
0.724086 0.58703 0.0823072
0.793439 0.596658 0.0875868
0.860441 0.60766 0.0940719
0.135866 0.70489 0.135866
0.248829 0.684428 0.135683
0.389212 0.669413 0.110216
0.498314 0.659449 0.0857404
0.585458 0.658198 0.0803082
0.660746 0.660746 0.081117
0.73022 0.665843 0.0845808
0.796811 0.672419 0.0878309
0.861204 0.680323 0.0918898
0.151034 0.789929 0.151034
0.270283 0.767987 0.149142
0.410483 0.749538 0.118502
0.516045 0.738674 0.0959945
0.599359 0.735821 0.0896468
0.671885 0.736141 0.0879225
0.73843 0.73843 0.0884108
0.802655 0.742397 0.0899977
0.864637 0.74786 0.0919966
0.161578 0.867521 0.161578
0.289403 0.843976 0.156313
0.428428 0.823194 0.122744
0.53138 0.811658 0.100847
0.611872 0.807813 0.0943923
0.68249 0.806653 0.0915999
0.74725 0.807492 0.0912184
0.809934 0.809934 0.0923018
0.870192 0.813687 0.0937972
0.168994 0.939178 0.168994
0.307958 0.913619 0.159716
0.444816 0.891646 0.124575
0.546105 0.880674 0.105867
0.624643 0.876341 0.0998093
0.693919 0.874418 0.0968948
0.757778 0.874083 0.0957809
0.818601 0.875044 0.095613
0.877256 0.877256 0.0962844
0.0651865 0.0651865 0.150256
0.167163 0.071809 0.167163
0.327321 0.0419623 0.158984
0.47277 0.00807202 0.139971
0.576059 0.00950637 0.177768
0.676387 0.0302586 0.237995
0.777417 0.0798199 0.302235
0.875059 0.138033 0.358679
0.96405 0.178592 0.402167
0.061326 0.159899 0.159899
0.154726 0.154726 0.154726
0.270054 0.15021 0.15021
0.423407 0.127687 0.127687
0.539635 0.151736 0.151736
0.646174 0.201862 0.201862
0.745953 0.247486 0.247486
0.83447 0.280842 0.280842
0.914824 0.308583 0.308583
0.0210575 0.295079 0.130602
0.149187 0.278691 0.149187
0.287205 0.287205 0.160769
0.438544 0.300603 0.168185
0.556512 0.33048 0.197299
0.650126 0.357031 0.21735
0.73254 0.38117 0.233768
0.809049 0.403662 0.249287
0.880995 0.423392 0.265583
0.0466773 0.472679 0.173587
0.173892 0.450507 0.173892
0.316243 0.44976 0.180148
0.450721 0.450721 0.176089
0.555062 0.460334 0.186481
0.641428 0.474281 0.200214
0.719112 0.489342 0.213001
0.791318 0.50428 0.223926
0.859648 0.51902 0.235508
0.105715 0.598474 0.228809
0.215915 0.57821 0.215915
0.350622 0.570565 0.208072
0.470466 0.564095 0.195895
0.565774 0.565774 0.195727
0.64538 0.571817 0.201175
0.718074 0.579904 0.208453
0.787457 0.589624 0.217136
0.8542 0.600366 0.227192
0.135348 0.697658 0.263127
0.243778 0.677806 0.243778
0.377997 0.664103 0.226947
0.489036 0.653452 0.210361
0.578241 0.651698 0.20679
0.654063 0.654063 0.208743
0.723705 0.658946 0.213382
0.790234 0.665446 0.219211
0.854505 0.673274 0.226764
0.149279 0.781994 0.289128
0.263066 0.761288 0.263066
0.399832 0.743923 0.240146
0.506447 0.732418 0.223819
0.591806 0.72929 0.219181
0.664759 0.729366 0.218631
0.731685 0.731685 0.22092
0.795758 0.735439 0.224292
0.857832 0.740932 0.23006
0.158251 0.858763 0.313313
0.28011 0.837125 0.28011
0.418006 0.817349 0.253697
0.522103 0.805188 0.236347
0.603967 0.800916 0.230365
0.675135 0.799664 0.228412
0.740108 0.800412 0.229053
0.802869 0.802853 0.231571
0.86305 0.806516 0.235767
0.163775 0.929488 0.336553
0.296437 0.906569 0.296437
0.433814 0.885283 0.266606
0.536721 0.87364 0.250019
0.61648 0.869169 0.243778
0.686366 0.86714 0.240803
0.750103 0.86688 0.240238
0.811215 0.867704 0.241062
0.869856 0.869856 0.24358
0.0662242 0.0662242 0.282689
0.166705 0.0649424 0.305455
0.331075 0.0296483 0.331075
0.472679 0.00402838 0.352026
0.575647 0.00706493 0.388632
0.677821 0.0318303 0.430167
0.780163 0.0867933 0.470039
0.876936 0.142763 0.508934
0.96437 0.180026 0.543206
0.0563973 0.15729 0.280705
0.152987 0.152987 0.264012
0.270848 0.148272 0.270848
0.42443 0.128145 0.276951
0.541329 0.155901 0.313329
0.647715 0.205051 0.360372
0.745541 0.247288 0.400763
0.832074 0.277821 0.430152
0.911818 0.304891 0.455238
0.0212863 0.296696 0.296696
0.152483 0.280995 0.280995
0.289998 0.289998 0.289998
0.440085 0.303517 0.303517
0.557336 0.33109 0.33109
0.64979 0.355581 0.355581
0.730983 0.378714 0.378714
0.806348 0.400214 0.400214
0.877394 0.419242 0.419242
0.0464637 0.471733 0.345602
0.175708 0.450126 0.315953
0.315587 0.449058 0.315587
0.44947 0.44947 0.315282
0.553719 0.458381 0.327306
0.639323 0.471321 0.343786
0.71603 0.485527 0.361532
0.78706 0.499641 0.378805
0.854459 0.513603 0.395529
0.0987411 0.594675 0.391623
0.21294 0.575433 0.357855
0.346868 0.568231 0.346868
0.466941 0.56109 0.338064
0.562249 0.562249 0.340093
0.641459 0.567681 0.348302
0.713558 0.575387 0.35993
0.782223 0.58436 0.373312
0.848371 0.594507 0.388113
0.125139 0.691829 0.421103
0.237766 0.672908 0.389227
0.372244 0.6598 0.372244
0.48394 0.649012 0.359472
0.57348 0.646922 0.357092
0.649042 0.649042 0.36054
0.718242 0.653559 0.367422
0.78436 0.659602 0.376791
0.848203 0.666911 0.387976
0.138033 0.775036 0.443793
0.254932 0.755199 0.412558
0.393378 0.738567 0.393378
0.500404 0.726848 0.379873
0.586007 0.723476 0.375418
0.658854 0.723369 0.375448
0.725521 0.725521 0.378592
0.78941 0.729137 0.384512
0.851057 0.734188 0.392004
0.1467 0.851286 0.464759
0.270985 0.830228 0.431434
0.410849 0.810925 0.410849
0.515206 0.798596 0.397513
0.597253 0.794263 0.391959
0.668406 0.79295 0.390188
0.733333 0.793591 0.391058
0.795956 0.795956 0.394141
0.856016 0.79942 0.398993
0.152163 0.921782 0.485237
0.286305 0.89926 0.448066
0.426413 0.878264 0.426429
0.529259 0.866484 0.413672
0.60914 0.861982 0.407782
0.679133 0.859937 0.404761
0.742855 0.859632 0.404105
0.803845 0.86041 0.405158
0.862409 0.862409 0.408026
0.0500191 0.0500191 0.445716
0.159289 0.0472114 0.451835
0.336583 0.0160525 0.463859
0.475685 0.00224308 0.475685
0.580621 0.00924697 0.502953
0.684688 0.0421454 0.537789
0.786892 0.102022 0.575601
0.881514 0.15108 0.610956
0.967681 0.185534 0.642435
0.0419471 0.146761 0.426871
0.142885 0.142885 0.410925
0.270573 0.138918 0.417685
0.426642 0.125429 0.426642
0.54464 0.161028 0.453025
0.651408 0.210742 0.487297
0.747341 0.249638 0.52047
0.833265 0.279332 0.548913
0.912551 0.30576 0.574731
0.0193637 0.300282 0.441367
0.150973 0.283055 0.426551
0.293507 0.293507 0.432731
0.442588 0.307103 0.442588
0.557855 0.331853 0.460578
0.649363 0.355276 0.479774
0.73048 0.378164 0.499245
0.805402 0.399115 0.517571
0.875975 0.417914 0.535134
0.0467842 0.473014 0.472999
0.175479 0.450675 0.450675
0.315358 0.449042 0.449042
0.44892 0.44892 0.44892
0.552056 0.456992 0.456992
0.637201 0.469398 0.469398
0.7131 0.482872 0.482872
0.783993 0.496681 0.496681
0.851316 0.51046 0.510475
0.0954452 0.593576 0.507317
0.209689 0.573648 0.480354
0.343877 0.565728 0.471092
0.464225 0.558175 0.464225
0.558801 0.558801 0.465446
0.637537 0.564019 0.471641
0.709545 0.571359 0.48043
0.778271 0.580468 0.491279
0.844511 0.590646 0.503304
0.119585 0.689082 0.532952
0.232761 0.669367 0.505455
0.368048 0.656214 0.490837
0.480201 0.645045 0.480201
0.569314 0.642741 0.478202
0.644785 0.644785 0.480781
0.713939 0.649134 0.486183
0.779919 0.655146 0.493614
0.843717 0.662516 0.502602
0.133013 0.77203 0.553872
0.250111 0.751492 0.526299
0.388785 0.734661 0.50808
0.496208 0.722576 0.496208
0.581323 0.718853 0.492271
0.654093 0.718761 0.492302
0.720806 0.720806 0.49485
0.784573 0.724285 0.499336
0.846464 0.729503 0.505913
0.141802 0.848005 0.571923
0.265904 0.826322 0.544121
0.406378 0.806729 0.52343
0.510582 0.794079 0.510597
0.59263 0.78967 0.50576
0.663706 0.788266 0.504097
0.728862 0.789181 0.505058
0.79118 0.79118 0.507591
0.85127 0.794659 0.511803
0.147997 0.918639 0.588159
0.281056 0.895521 0.559548
0.422202 0.87425 0.537362
0.524727 0.862165 0.524727
0.604623 0.857435 0.51931
0.674388 0.855283 0.516793
0.73814 0.854887 0.516197
0.799069 0.855634 0.517082
0.857664 0.857664 0.519463
0.0418555 0.0418555 0.553933
0.162036 0.0383917 0.552529
0.349279 0.0106813 0.552758
0.483528 0.00306706 0.561502
0.589029 0.0150607 0.589029
0.693736 0.0572671 0.625025
0.79472 0.117082 0.66212
0.887007 0.159792 0.695094
0.972061 0.191943 0.724895
0.0345159 0.143603 0.528801
0.138857 0.138842 0.515236
0.277821 0.137423 0.519295
0.433982 0.133288 0.526528
0.552453 0.174014 0.552453
0.658198 0.22063 0.584726
0.75169 0.255222 0.61387
0.836545 0.283436 0.6392
0.91519 0.309026 0.662867
0.0233158 0.31133 0.537362
0.157946 0.292607 0.529412
0.302815 0.302815 0.536767
0.448417 0.315618 0.545892
0.561425 0.336736 0.561425
0.651957 0.358801 0.577508
0.732586 0.380392 0.593484
0.806928 0.400717 0.60853
0.876722 0.41857 0.622843
0.0530098 0.477562 0.564981
0.17995 0.454459 0.549386
0.319432 0.452033 0.548455
0.451255 0.451255 0.546777
0.553643 0.45864 0.553643
0.637842 0.470222 0.563806
0.713237 0.483131 0.57467
0.783749 0.496498 0.585824
0.850797 0.509941 0.596963
0.0982681 0.595392 0.595392
0.211078 0.574899 0.574899
0.344717 0.56643 0.56643
0.464408 0.558175 0.558175
0.558434 0.558434 0.558434
0.636744 0.563272 0.563272
0.708705 0.57055 0.57055
0.777218 0.579416 0.579416
0.843534 0.589639 0.589639
0.119417 0.689219 0.617563
0.232197 0.669078 0.595666
0.367361 0.655604 0.58201
0.479286 0.644053 0.57055
0.5682 0.641581 0.5682
0.643595 0.643595 0.570397
0.712581 0.647837 0.574731
0.778531 0.653727 0.580926
0.842283 0.661036 0.588403
0.132448 0.771572 0.636378
0.24889 0.750591 0.613245
0.387472 0.733684 0.596017
0.494835 0.721325 0.58381
0.579843 0.717388 0.579843
0.652552 0.717174 0.579644
0.719036 0.719036 0.581781
0.782773 0.722606 0.585458
0.844602 0.727703 0.590906
0.140658 0.846998 0.652903
0.264363 0.825132 0.62855
0.4047 0.805432 0.608515
0.508995 0.792554 0.595636
0.591028 0.787991 0.591028
0.661952 0.786526 0.589471
0.727153 0.78735 0.59028
0.789349 0.789349 0.592325
0.849439 0.792813 0.595972
0.146715 0.917357 0.667933
0.279164 0.894133 0.642252
0.420325 0.872847 0.620371
0.522911 0.860594 0.607843
0.602777 0.855711 0.602777
0.672496 0.853483 0.600458
0.736217 0.85301 0.599893
0.797116 0.853712 0.600626
0.855711 0.855711 0.602716
0.0396582 0.0396582 0.641291
0.172366 0.0350347 0.635782
0.365026 0.00894179 0.631128
0.494118 0.00538643 0.640436
0.600153 0.02533 0.668788
0.703975 0.0749065 0.703975
0.802915 0.130556 0.739025
0.892821 0.167865 0.76994
0.976974 0.198352 0.798901
0.0343481 0.149615 0.611673
0.144472 0.144472 0.599084
0.292638 0.145113 0.602014
0.444953 0.148516 0.609537
0.562875 0.190112 0.636042
0.666209 0.231464 0.666209
0.75697 0.261921 0.69247
0.840696 0.288502 0.716213
0.918532 0.312932 0.738308
0.0307164 0.326925 0.618631
0.170275 0.307225 0.613489
0.315969 0.315969 0.621118
0.456321 0.326467 0.628794
0.566567 0.343648 0.641321
0.655863 0.363851 0.655863
0.735546 0.384192 0.670405
0.808957 0.403052 0.684031
0.878264 0.420203 0.697169
0.0605936 0.48394 0.643076
0.187366 0.460731 0.629282
0.326238 0.45716 0.627817
0.455634 0.455634 0.625254
0.556909 0.462257 0.631006
0.639918 0.472801 0.639918
0.714626 0.484688 0.649561
0.784482 0.497459 0.659586
0.851286 0.510552 0.670054
0.101518 0.598352 0.670466
0.214359 0.577859 0.651698
0.348013 0.568643 0.642832
0.466438 0.560052 0.633844
0.559777 0.559777 0.633417
0.637797 0.564218 0.637797
0.709316 0.571191 0.644373
0.777539 0.579782 0.652781
0.84361 0.589715 0.662348
0.120546 0.690486 0.690486
0.233158 0.670207 0.670207
0.368368 0.656214 0.656214
0.480064 0.644648 0.644648
0.568673 0.642069 0.642069
0.643717 0.643717 0.643717
0.712612 0.647837 0.647837
0.778332 0.653529 0.653529
0.841901 0.660639 0.660639
0.132799 0.772015 0.707866
0.249119 0.750866 0.686336
0.38764 0.733791 0.669139
0.494789 0.721279 0.656611
0.579644 0.717174 0.652628
0.652232 0.716823 0.652232
0.718639 0.718639 0.654078
0.782238 0.722042 0.657526
0.843885 0.727031 0.662623
0.140429 0.846845 0.723033
0.26392 0.824842 0.700511
0.404181 0.805051 0.680598
0.508415 0.79205 0.667597
0.590417 0.787411 0.662837
0.661616 0.786114 0.661616
0.726436 0.786648 0.662043
0.788556 0.788556 0.664027
0.8486 0.791959 0.667445
0.146288 0.916869 0.737179
0.278294 0.893553 0.713191
0.419715 0.872541 0.691829
0.522087 0.859861 0.678996
0.601892 0.854917 0.674006
0.671595 0.852613 0.671595
0.735271 0.852094 0.671107
0.796139 0.852735 0.671702
0.854658 0.854658 0.673762
0.0396124 0.0396124 0.720333
0.188876 0.0339055 0.71194
0.382956 0.00909438 0.704784
0.507774 0.0110323 0.717144
0.61323 0.0400397 0.745464
0.715389 0.0945144 0.779217
0.811475 0.142824 0.811475
0.899321 0.176196 0.840009
0.982147 0.204532 0.867475
0.0370031 0.160922 0.687755
0.156268 0.156268 0.676829
0.312444 0.158053 0.679088
0.459052 0.168475 0.687968
0.574884 0.207233 0.71313
0.674739 0.241642 0.739605
0.763149 0.268986 0.763149
0.845487 0.29395 0.785321
0.921874 0.317128 0.806088
0.0414282 0.345113 0.694453
0.183993 0.324559 0.690852
0.330968 0.330968 0.697795
0.465293 0.337881 0.702602
0.572702 0.352209 0.712871
0.660304 0.370306 0.725597
0.738857 0.388754 0.738857
0.811536 0.406409 0.751263
0.880079 0.422507 0.763317
0.0691844 0.492134 0.714702
0.195209 0.46865 0.701656
0.33492 0.464027 0.699336
0.461555 0.461555 0.695811
0.56109 0.467109 0.70042
0.643 0.476387 0.708141
0.716609 0.487404 0.716609
0.786084 0.499321 0.725795
0.852399 0.511925 0.735439
0.106203 0.60267 0.738827
0.218708 0.581933 0.720882
0.352773 0.571862 0.711131
0.469825 0.562753 0.701747
0.562249 0.562249 0.700832
0.639506 0.566155 0.704555
0.710521 0.572656 0.710521
0.778653 0.580972 0.718441
0.844221 0.590387 0.727275
0.122332 0.692638 0.756634
0.234852 0.672114 0.736797
0.370672 0.657862 0.722744
0.481895 0.646159 0.711131
0.570199 0.643427 0.708354
0.644846 0.644846 0.709575
0.713298 0.648508 0.713298
0.778851 0.654078 0.718669
0.842206 0.66096 0.725246
0.133425 0.773083 0.773083
0.250217 0.751904 0.751904
0.388891 0.734554 0.734554
0.495689 0.721935 0.721935
0.58024 0.717739 0.717739
0.652598 0.717266 0.717266
0.718807 0.718807 0.718807
0.782376 0.722179 0.722179
0.844266 0.727413 0.727413
0.140536 0.847242 0.787564
0.264302 0.825193 0.764981
0.404501 0.805295 0.745037
0.508614 0.792203 0.73196
0.590509 0.787503 0.727321
0.661646 0.78616 0.725948
0.72639 0.786603 0.72639
0.788449 0.788449 0.72813
0.848371 0.79173 0.731533
0.146136 0.916854 0.80119
0.278172 0.893492 0.777386
0.419562 0.87248 0.755749
0.521889 0.859709 0.742977
0.601663 0.854719 0.737942
0.671321 0.852369 0.735546
0.734936 0.851759 0.734936
0.795758 0.852354 0.735546
0.854231 0.854231 0.737469
0.0412757 0.0412757 0.79585
0.208667 0.0340734 0.784955
0.402914 0.0120851 0.778241
0.523507 0.0213474 0.79295
0.628641 0.0601358 0.820829
0.728389 0.114809 0.851926
0.820645 0.154253 0.880171
0.906661 0.18471 0.906661
0.988113 0.211322 0.932509
0.0446632 0.177569 0.761913
0.171801 0.171801 0.751003
0.334966 0.174533 0.753033
0.475898 0.190967 0.764141
0.588769 0.224781 0.787137
0.684459 0.252567 0.80943
0.770245 0.277317 0.830503
0.850935 0.300252 0.850935
0.925765 0.321996 0.869688
0.0549935 0.36495 0.768109
0.199283 0.344015 0.764385
0.346975 0.34696 0.769039
0.475822 0.350393 0.771298
0.579797 0.36231 0.77995
0.665675 0.377951 0.791226
0.742641 0.394369 0.803052
0.814527 0.410285 0.814527
0.882094 0.425101 0.825605
0.0782177 0.501732 0.783566
0.204349 0.478492 0.770352
0.345388 0.472343 0.766339
0.469032 0.469032 0.762234
0.566293 0.473289 0.76556
0.646723 0.481117 0.772045
0.719356 0.490898 0.779599
0.788006 0.50193 0.788006
0.854063 0.513893 0.797391
0.110201 0.607919 0.804074
0.223636 0.587167 0.786175
0.359106 0.576196 0.775525
0.474434 0.566583 0.765499
0.565652 0.565652 0.764309
0.642451 0.569055 0.767544
0.712886 0.575036 0.773114
0.780377 0.582849 0.780377
0.845411 0.59173 0.788724
0.123827 0.695537 0.819562
0.237659 0.674998 0.800015
0.374411 0.660197 0.785367
0.484733 0.648356 0.773373
0.572427 0.645548 0.77055
0.646723 0.646723 0.771649
0.714672 0.65008 0.774945
0.779812 0.6551 0.779812
0.842969 0.661753 0.786267
0.13434 0.774792 0.834592
0.251957 0.753552 0.81387
0.390921 0.735805 0.796139
0.497185 0.72314 0.783413
0.581506 0.718929 0.779095
0.653635 0.718257 0.778424
0.719661 0.719661 0.779919
0.783047 0.722866 0.783047
0.8448 0.727886 0.788113
0.140932 0.848173 0.848173
0.265141 0.825986 0.825986
0.405463 0.805936 0.80592
0.509346 0.792844 0.792844
0.591104 0.788098 0.788098
0.662089 0.786709 0.786709
0.726833 0.787015 0.787015
0.788739 0.788739 0.788739
0.848554 0.791913 0.791913
0.147082 0.917632 0.861494
0.278965 0.894102 0.837812
0.419944 0.872755 0.816266
0.522194 0.859953 0.803403
0.601862 0.854917 0.798321
0.671458 0.852491 0.79588
0.735012 0.85182 0.795224
0.795743 0.852338 0.795743
0.854139 0.854139 0.797559
0.044892 0.044892 0.868177
0.233188 0.0364385 0.855512
0.423713 0.0181277 0.850553
0.541695 0.03888 0.868437
0.646097 0.0858167 0.895064
0.742473 0.133898 0.922454
0.831296 0.166506 0.946929
0.914824 0.193515 0.970703
0.994812 0.218326 0.994812
0.0552071 0.197253 0.833936
0.19205 0.19205 0.824475
0.359365 0.195773 0.826551
0.494728 0.214359 0.838758
0.603571 0.242069 0.858488
0.695293 0.264591 0.876722
0.778393 0.286351 0.895033
0.857038 0.307118 0.913298
0.930144 0.327291 0.930144
0.0695201 0.384451 0.839109
0.213596 0.363348 0.834516
0.362203 0.362203 0.835737
0.486824 0.363684 0.836408
0.587945 0.373816 0.844236
0.671946 0.386892 0.854032
0.747295 0.401129 0.864378
0.818082 0.414969 0.874678
0.884565 0.428565 0.884565
0.0888075 0.512932 0.850538
0.214221 0.489723 0.836606
0.357595 0.482063 0.830915
0.477638 0.477638 0.825681
0.57258 0.480705 0.828244
0.651362 0.487129 0.833371
0.723003 0.495659 0.840055
0.790768 0.505501 0.847501
0.856046 0.516487 0.856046
0.114717 0.614435 0.867002
0.229526 0.593591 0.849012
0.366888 0.581445 0.837186
0.480446 0.571527 0.826963
0.570184 0.570184 0.825406
0.646113 0.572976 0.82797
0.715892 0.578271 0.83299
0.782742 0.585321 0.839506
0.847333 0.593683 0.847333
0.126299 0.699641 0.880217
0.240955 0.678828 0.860349
0.379248 0.663325 0.845182
0.488807 0.651621 0.833417
0.575601 0.648585 0.830381
0.649287 0.649287 0.831006
0.71696 0.652369 0.833967
0.781552 0.656962 0.8383
0.844327 0.663081 0.844327
0.135805 0.777386 0.893584
0.254536 0.755978 0.872786
0.393744 0.737743 0.854658
0.499657 0.725032 0.841978
0.58352 0.720806 0.837827
0.65539 0.719814 0.836835
0.721172 0.721172 0.838132
0.78439 0.724102 0.841093
0.845853 0.728893 0.845853
0.141634 0.849699 0.905974
0.26656 0.82739 0.883818
0.407202 0.80708 0.863661
0.510811 0.794034 0.850675
0.592523 0.789517 0.846189
0.663188 0.787762 0.844434
0.727749 0.787961 0.844633
0.789563 0.789563 0.846204
0.849195 0.792569 0.849195
0.147524 0.918547 0.918547
0.280003 0.894896 0.894896
0.42092 0.873426 0.873426
0.522942 0.860655 0.860655
0.602579 0.855543 0.855543
0.672053 0.853056 0.853056
0.735531 0.852338 0.852338
0.79617 0.852766 0.852766
0.854475 0.854475 0.854475
