A-tak/A-tak Teal Orange Dark Contrast_for_BMPCC.cube_1.A079_05041449_C035.cube
TITLE "Generated by Resolve"
LUT_3D_SIZE 5
0.0310063 0 0
0.0666056 0 0
0.766613 0.270665 0.142351
0.993332 0.558312 0.735744
0.948974 0.912383 0.947204
0.0676432 0.0418097 0
0.0592203 0.0287938 0
0.770459 0.300481 0.1355
0.992935 0.573877 0.725338
0.948974 0.912383 0.947204
0 0.67303 0.0997177
0 0.683986 0.108782
0.69485 0.731731 0.169924
0.948425 0.769924 0.562188
0.94876 0.920653 0.946563
0 0.982437 0.365332
0 0.982437 0.365332
0 0.9832 0.366033
0.948638 0.958541 0.383612
0.947982 0.950057 0.933639
0 0.992294 0.374365
0 0.992294 0.374365
0 0.992294 0.374365
0 0.992294 0.374365
0.9579 0.966186 0.391104
0.0380713 0 0.0125734
0.0609903 0 0.0133974
0.764294 0.267231 0.235248
0.993271 0.554803 0.7505
0.949004 0.911528 0.947204
0.0431525 0.0255436 0.00254826
0.0466773 0.0203555 0.00288396
0.761364 0.283833 0.213672
0.993027 0.57435 0.743832
0.948974 0.912383 0.947204
0 0.67425 0.100725
0 0.677897 0.103746
0.694072 0.728481 0.167895
0.947127 0.765743 0.596826
0.94876 0.920653 0.946563
0 0.982437 0.365332
0 0.982437 0.365332
0 0.9832 0.366033
0.948638 0.958541 0.383612
0.947982 0.950057 0.933639
0 0.992294 0.374365
0 0.992294 0.374365
0 0.992294 0.374365
0 0.992294 0.374365
0.9579 0.966186 0.391104
0.0240177 0 0.707424
0.114443 0 0.709621
0.741909 0.261295 0.71986
0.970001 0.486686 0.851514
0.94905 0.909361 0.947188
0.0253452 0 0.706523
0.0898604 0 0.701442
0.733486 0.253056 0.712673
0.986618 0.517968 0.865629
0.94902 0.91078 0.947188
0 0.682857 0.67808
0 0.68838 0.684443
0.689921 0.69926 0.698802
0.945693 0.741329 0.793011
0.94876 0.920562 0.947219
0 0.982437 0.365332
0 0.982437 0.365332
0 0.982437 0.365332
0.948638 0.958541 0.383612
0.947967 0.949966 0.93753
0 0.992294 0.374365
0 0.992294 0.374365
0 0.992294 0.374365
0 0.992294 0.374365
0.9579 0.966186 0.391104
0 0.282856 0.941939
0.044831 0.282094 0.939773
0.763333 0.346181 0.939361
0.953704 0.474113 0.957687
0.95108 0.796994 0.951308
0 0.283085 0.942336
0 0.282322 0.940368
0.760754 0.34493 0.939147
0.953704 0.474113 0.957687
0.951034 0.802853 0.951308
0 0.282582 0.942321
0 0.282582 0.942321
0.725307 0.327642 0.935347
0.953704 0.474113 0.957687
0.950439 0.861982 0.951431
0 0.973251 0.973495
0 0.973251 0.973495
0 0.974014 0.973495
0.938384 0.947738 0.94728
0.94789 0.94934 0.950347
0 0.992294 0.374365
0 0.992294 0.374365
0 0.992294 0.374365
0 0.992294 0.374365
0.9579 0.966186 0.391104
0.868177 0.411292 0.956924
0.870741 0.413016 0.957076
0.902464 0.435904 0.960327
0.954787 0.476463 0.965591
0.961639 0.482033 0.966293
0.866468 0.410086 0.956664
0.870741 0.413016 0.957076
0.902464 0.435904 0.960327
0.954787 0.476463 0.965591
0.961639 0.482033 0.966293
0.84419 0.395392 0.954635
0.849348 0.39855 0.955032
0.897307 0.43209 0.959716
0.954787 0.476463 0.965591
0.961639 0.482033 0.966293
0 0.289906 0.950042
0 0.289906 0.950042
0 0.289906 0.950042
0.953933 0.475776 0.965606
0.961639 0.482033 0.966293
0 0.9832 0.983444
0 0.9832 0.983444
0 0.9832 0.983444
0 0.9832 0.983444
0.947601 0.957 0.956451
