A-tak/A-tak Film Look for BMPCC.cube
TITLE "Generated by Resolve"
LUT_3D_SIZE 9
0.117754 0.12871 0.0968338
0.160174 0.126879 0.0937209
0.283925 0.107012 0.0704509
0.662867 0.0343175 0.00352483
0.998962 0 0
1 0 0
1 0 0
1 0 0
1 0 0.00350958
0.107622 0.165759 0.0855116
0.150317 0.161913 0.0794995
0.241337 0.143786 0.0588388
0.579492 0.0770886 0
0.95697 0.00335698 0
1 0 0
1 0 0
1 0.00497444 0
1 0.117144 0.0579995
0.05449 0.211734 0.033753
0.110765 0.21004 0.037644
0.198962 0.210849 0.0419928
0.542107 0.159487 0
0.944137 0.104982 0
1 0.102327 0
1 0.152926 0.0126955
1 0.269505 0.233204
1 0.394522 0.40531
0 0.37525 0
0 0.40029 0
0.0726329 0.428061 0
0.403937 0.415335 0
0.889906 0.376425 0
1 0.426764 0.0570382
1 0.503182 0.253864
1 0.586114 0.403037
1 0.654887 0.51017
0 0.673899 0
0 0.744717 0
0 0.823301 0
0.150637 0.839673 0.115267
0.735485 0.79501 0.173144
0.911101 0.818631 0.291066
1 0.833631 0.369009
1 0.839109 0.42768
1 0.840635 0.478096
0 1 0.27303
0 1 0.409689
0 1 0.480934
0 1 0.498314
0.595376 0.98613 0.3991
0.793301 0.968734 0.417197
0.940917 0.960906 0.445838
1 0.955901 0.479622
1 0.953521 0.516701
0 1 0.541238
0 1 0.562783
0 1 0.58024
0 1 0.588113
0.35378 1 0.49781
0.658274 1 0.499229
0.836011 1 0.515831
0.9897 1 0.538338
1 1 0.565011
0 1 0.606256
0 1 0.622522
0 1 0.638056
0 1 0.649088
0 1 0.640925
0.459937 1 0.57734
0.708537 1 0.582193
0.891218 1 0.595438
1 1 0.613504
0 1 0.653223
0 1 0.666957
0 1 0.680201
0 1 0.692683
0 1 0.710658
0 1 0.701381
0.535332 1 0.645594
0.776333 1 0.649485
0.959762 1 0.660044
0.116243 0.128283 0.138643
0.158648 0.126436 0.134249
0.279469 0.106905 0.109651
0.660182 0.0330968 0.0104982
0.996567 0 0
1 0 0
1 0 0
1 0 0
1 0 0.00793469
0.105226 0.165103 0.12752
0.147463 0.160037 0.121355
0.236103 0.141894 0.101289
0.577798 0.0758679 0
0.95787 0.00334173 0
1 0 0
1 0 0
1 0.0152895 0.00759899
1 0.136919 0.159121
0.0547951 0.209506 0.0823682
0.112627 0.210834 0.0864424
0.201282 0.214054 0.0914626
0.545556 0.164172 0.0242313
0.951705 0.112917 0
1 0.115328 0
1 0.173037 0.123278
1 0.294316 0.295064
1 0.416678 0.445838
0 0.381018 0
0 0.409567 0
0.0833448 0.442741 0
0.422446 0.43328 0
0.908888 0.398764 0.0106661
1 0.453925 0.160327
1 0.53135 0.311711
1 0.610697 0.442756
1 0.670832 0.536339
0 0.694865 0
0 0.769848 0
0 0.846693 0.0848707
0.134371 0.862806 0.218662
0.742229 0.813489 0.246906
0.915328 0.831296 0.333516
1 0.841474 0.397421
1 0.84387 0.448631
1 0.844297 0.49543
0 1 0.350927
0 1 0.452628
0 1 0.5084
0 1 0.520989
0.594751 0.990188 0.421302
0.793988 0.972198 0.437491
0.94226 0.964843 0.46508
1 0.959884 0.4972
1 0.957488 0.532647
0 1 0.558801
0 1 0.57792
0 1 0.595026
0 1 0.603662
0.350072 1 0.515618
0.659037 1 0.516121
0.837369 1 0.531884
0.991562 1 0.553506
1 1 0.579156
0 1 0.619501
0 1 0.635203
0 1 0.650217
0 1 0.66183
0 1 0.655985
0.460731 1 0.591516
0.710338 1 0.595911
0.893294 1 0.608652
1 1 0.626032
0 1 0.664485
0 1 0.677791
0 1 0.690715
0 1 0.703365
0 1 0.723018
0 1 0.71371
0.537194 1 0.657496
0.778744 1 0.661082
0.962478 1 0.671214
0.106081 0.123873 0.285786
0.148516 0.122408 0.273899
0.266926 0.10341 0.241672
0.644968 0.027863 0.122469
0.992599 0 0
1 0 0
1 0 0
1 0 0
1 0 0.0585336
0.0975052 0.160983 0.243458
0.139162 0.155154 0.229618
0.225803 0.138125 0.200244
0.566964 0.0725567 0.0736706
0.9579 0.00444038 0
1 0 0
1 0 0
1 0.0267491 0.0703746
1 0.160296 0.23122
0.0543221 0.206622 0.168109
0.113985 0.210666 0.170062
0.202655 0.216938 0.172824
0.550835 0.169314 0.0898451
0.957595 0.122026 0.014374
1 0.128481 0.0788739
1 0.198306 0.203449
1 0.317891 0.347051
1 0.438071 0.48954
0 0.387457 0
0 0.419547 0.00595102
0.0941482 0.456626 0.0463417
0.440726 0.450706 0.073579
0.927428 0.421012 0.115618
1 0.481804 0.240894
1 0.558831 0.368261
1 0.632441 0.48275
1 0.684367 0.564874
0 0.716823 0
0 0.794217 0
0 0.870893 0.209781
0.108507 0.887022 0.290654
0.747723 0.829923 0.30164
0.918975 0.841794 0.369284
1 0.847532 0.422766
1 0.847486 0.46833
1 0.847349 0.512596
0 1 0.409369
0 1 0.488304
0 1 0.532708
0 1 0.54313
0.593408 0.993744 0.442618
0.794736 0.975906 0.458122
0.943755 0.968399 0.484001
1 0.963424 0.514611
1 0.961105 0.548592
0 1 0.575341
0 1 0.592782
0 1 0.609918
0 1 0.619455
0.344457 1 0.533349
0.659449 1 0.532906
0.838758 1 0.547936
0.993378 1 0.568627
1 1 0.593347
0 1 0.632853
0 1 0.64799
0 1 0.662501
0 1 0.67451
0 1 0.671046
0.461524 1 0.605753
0.711574 1 0.609689
0.895094 1 0.621881
1 1 0.638682
0 1 0.675654
0 1 0.688685
0 1 0.701442
0 1 0.714275
0 1 0.735515
0 1 0.726116
0.539147 1 0.669535
0.781064 1 0.672755
0.964874 1 0.682521
0.0599374 0.131197 0.694026
0.104768 0.126238 0.679545
0.21828 0.105959 0.650446
0.60119 0.0175479 0.566445
0.954314 0 0.438605
1 0 0.390402
1 0 0.353399
1 0 0.345907
1 0 0.382391
0.0501717 0.160632 0.641321
0.0963912 0.152331 0.623911
0.177462 0.135988 0.595651
0.522469 0.0629587 0.488716
0.926894 0 0.383703
1 0 0.3664
1 0 0.375463
1 0.00534066 0.419089
1 0.143877 0.450996
0.0171054 0.197467 0.561624
0.0879835 0.200137 0.557061
0.17174 0.209094 0.559762
0.521401 0.165255 0.487602
0.938231 0.111208 0.41294
1 0.120974 0.455482
1 0.196063 0.523842
1 0.319554 0.622629
1 0.437995 0.74377
0 0.371435 0.324941
0 0.407187 0.361349
0.0955062 0.449332 0.408515
0.441169 0.452262 0.418784
0.934722 0.427848 0.41622
1 0.489754 0.505104
1 0.563882 0.607279
1 0.629221 0.699382
1 0.673411 0.761105
0 0.722393 0.104051
0 0.800107 0.259922
0 0.880888 0.399252
0.0611734 0.902251 0.453269
0.746914 0.835386 0.412741
0.917662 0.841505 0.459785
1 0.843824 0.497108
1 0.842634 0.529229
1 0.843229 0.563409
0 1 0.518517
0 1 0.592782
0 1 0.635309
0 1 0.630915
0.586679 0.990982 0.498039
0.792432 0.973953 0.505135
0.942321 0.966522 0.52488
1 0.961959 0.550088
1 0.959991 0.579293
0 1 0.637583
0 1 0.654047
0 1 0.671153
0 1 0.674174
0.327947 1 0.569955
0.65716 1 0.563241
0.837583 1 0.575082
0.992935 1 0.593011
1 1 0.615244
0 1 0.671031
0 1 0.685924
0 1 0.700496
0 1 0.709651
0 1 0.696513
0.458351 1 0.627176
0.710445 1 0.629664
0.894942 1 0.640925
1 1 0.656901
0 1 0.701106
0 1 0.71339
0 1 0.725811
0 1 0.737423
0 1 0.753979
0 1 0.744289
0.537789 1 0.687114
0.780316 1 0.689906
0.964553 1 0.699214
0 0.160906 1
0.0545663 0.149828 1
0.15317 0.130541 1
0.544305 0.0325322 0.958419
0.914611 0 0.890867
1 0 0.864347
1 0 0.843839
1 0 0.835615
1 0 0.841199
0 0.188022 1
0.0372015 0.175402 0.994141
0.109422 0.160128 0.972244
0.46273 0.0805066 0.902464
0.890364 0 0.866224
1 0 0.865095
1 0 0.877058
1 0 0.904143
1 0.110857 0.911284
0 0.215152 0.965164
0.0423285 0.213794 0.962493
0.123949 0.220066 0.968063
0.477378 0.178988 0.926131
0.914397 0.101213 0.899031
1 0.109957 0.939864
1 0.190738 0.987854
1 0.318105 1
1 0.430182 1
0 0.356512 0.822477
0 0.394888 0.859358
0.0883192 0.436301 0.901564
0.429023 0.443595 0.922545
0.922637 0.417777 0.928283
1 0.47837 0.993988
1 0.54992 1
1 0.607233 1
1 0.645274 1
0 0.703319 0.695155
0 0.78587 0.795346
0 0.867582 0.899168
0 0.903395 0.951705
0.715755 0.81059 0.864393
0.890776 0.811063 0.879438
1 0.81059 0.891203
1 0.808545 0.899611
1 0.81033 0.911284
0 1 0.939864
0 1 0.997421
0 1 1
0 1 1
0.541894 0.961395 0.867857
0.763424 0.943542 0.851164
0.916899 0.93611 0.851972
1 0.93196 0.855879
1 0.930602 0.862638
0 1 0.984955
0 1 1
0 1 1
0 1 1
0.221958 1 0.884077
0.625162 1 0.846586
0.812528 1 0.839765
0.970962 1 0.839216
1 1 0.842313
0 1 0.969162
0 1 0.985824
0 1 1
0 1 1
0 1 0.944259
0.415885 1 0.850126
0.68452 1 0.834684
0.874022 1 0.829282
1 1 0.829236
0 1 0.949248
0 1 0.963928
0 1 0.976974
0 1 0.97525
0 1 0.941588
0 1 0.914397
0.50663 1 0.839612
0.759991 1 0.828336
0.948165 1 0.825177
0 0.1617 1
0.0295567 0.153582 1
0.129747 0.133516 1
0.524834 0.0355993 1
0.901152 0 1
1 0 1
1 0 1
1 0 1
1 0 1
0 0.190295 1
0.00679026 0.181399 1
0.0886397 0.165042 1
0.444266 0.0883955 1
0.882246 0 1
1 0 1
1 0 1
1 0 1
1 0.132021 1
0 0.221408 1
0.0230411 0.222461 1
0.116762 0.225452 1
0.475349 0.185092 1
0.919081 0.104997 1
1 0.122255 1
1 0.214771 1
1 0.335866 1
1 0.440009 1
0 0.362997 1
0 0.403128 1
0.0993362 0.446647 1
0.445365 0.45745 1
0.925566 0.435187 1
1 0.494713 1
1 0.560067 1
1 0.608164 1
1 0.639811 1
0 0.718196 0.908888
0 0.801953 1
0 0.882414 1
0 0.914656 1
0.697871 0.809201 1
0.875547 0.804944 1
1 0.801587 1
1 0.798749 1
1 0.800885 1
0 1 1
0 1 1
0 1 1
0 1 1
0.510567 0.953353 1
0.744091 0.934234 1
0.902358 0.926223 1
1 0.921767 1
1 0.920119 1
0 1 1
0 1 1
0 1 1
0 1 1
0.0655528 1 1
0.598489 1 1
0.794339 1 1
0.95613 1 1
1 1 1
0 1 1
0 1 1
0 1 1
0 1 1
0 1 1
0.367346 1 1
0.660197 1 1
0.855894 1 1
1 1 1
0 1 1
0 1 1
0 1 1
0 1 1
0 1 1
0 1 1
0.468177 1 1
0.737514 1 1
0.930419 1 1
0 0.149096 1
0.0200351 0.143084 1
0.120165 0.123583 1
0.5131 0.0288396 1
0.890318 0 1
1 0 1
1 0 1
1 0 1
1 0 1
0 0.180209 1
0 0.172549 1
0.0790265 0.157992 1
0.435004 0.0865644 1
0.878584 0 1
1 0 1
1 0 1
1 0.002533 1
1 0.15848 1
0 0.218357 1
0.0208133 0.221073 1
0.120134 0.223636 1
0.481682 0.184375 1
0.92755 0.109422 1
1 0.138674 1
1 0.240253 1
1 0.353597 1
1 0.450355 1
0 0.368826 1
0 0.411841 1
0.11397 0.460044 1
0.460304 0.473381 1
0.926299 0.453559 1
1 0.51223 1
1 0.569406 1
1 0.608927 1
1 0.635142 1
0 0.736873 1
0 0.820356 1
0 0.897261 1
0 0.923766 1
0.677623 0.808728 1
0.857664 0.800702 1
0.997284 0.795254 1
1 0.79205 1
1 0.794247 1
0 1 1
0 1 1
0 1 1
0 1 1
0.480125 0.948425 1
0.724361 0.928237 1
0.887068 0.919905 1
1 0.915206 1
1 0.913527 1
0 1 1
0 1 1
0 1 1
0 1 1
0 1 1
0.573434 1 1
0.777188 1 1
0.944335 1 1
1 1 1
0 1 1
0 1 1
0 1 1
0 1 1
0 1 1
0.31545 1 1
0.637919 1 1
0.841794 1 1
1 1 1
0 1 1
0 1 1
0 1 1
0 1 1
0 1 1
0 1 1
0.434119 1 1
0.720272 1 1
0.918441 1 1
0 0.12697 1
0.0219883 0.121859 1
0.120195 0.103563 1
0.504112 0.01355 1
0.880156 0 1
1 0 1
1 0 1
1 0 1
1 0 1
0 0.15996 1
0 0.153384 1
0.0770886 0.142 1
0.434028 0.0743267 1
0.87657 0 1
1 0 1
1 0 1
1 0.0206455 1
1 0.184222 1
0 0.206897 1
0.0273594 0.211505 1
0.128939 0.216388 1
0.492256 0.179583 1
0.93402 0.113664 1
1 0.156588 1
1 0.263172 1
1 0.368185 1
1 0.458961 1
0 0.373342 1
0 0.420279 1
0.108202 0.475715 1
0.46186 0.489219 1
0.920104 0.470787 1
1 0.527138 1
1 0.575479 1
1 0.607416 1
1 0.629267 1
0 0.756161 1
0 0.838102 1
0 0.907698 1
0 0.928695 1
0.650675 0.806836 1
0.836622 0.795789 1
0.979446 0.789014 1
1 0.786496 1
1 0.787594 1
0 1 1
0 1 1
0 1 1
0 1 1
0.436271 0.943969 1
0.700481 0.922652 1
0.867979 0.914092 1
1 0.909072 1
1 0.907118 1
0 1 1
0 1 1
0 1 1
0 1 1
0 1 1
0.543282 1 1
0.756466 1 1
0.928527 1 1
1 1 1
0 1 1
0 1 1
0 1 1
0 1 1
0 1 1
0.234348 1 1
0.611704 1 1
0.824552 1 1
0.997803 1 1
0 1 1
0 1 1
0 1 1
0 1 1
0 1 1
0 1 1
0.388876 1 1
0.698573 1 1
0.904448 1 1
0 0.0999466 1
0.0319677 0.0950637 1
0.130236 0.0759594 1
0.494972 0 1
0.870451 0 1
1 0 1
1 0 1
1 0 1
1 0 1
0 0.135348 1
0.000106813 0.130037 1
0.0819257 0.121218 1
0.44651 0.0528725 1
0.875334 0 1
1 0 1
1 0 1
1 0.0399939 1
1 0.20911 1
0 0.189776 1
0.0376135 0.198016 1
0.137819 0.206653 1
0.502327 0.171618 1
0.936217 0.117571 1
1 0.175799 1
1 0.280644 1
1 0.378744 1
1 0.464775 1
0 0.377676 1
0 0.431495 1
0.00509651 0.504051 1
0.442588 0.504662 1
0.905364 0.487343 1
1 0.538231 1
1 0.578225 1
1 0.603754 1
1 0.621942 1
0 0.774227 1
0 0.852399 1
0 0.91252 1
0 0.92903 1
0.615228 0.803647 1
0.811444 0.790127 1
0.958816 0.78265 1
1 0.780194 1
1 0.780972 1
0 1 1
0 1 1
0 1 1
0 1 1
0.372229 0.940749 1
0.671107 0.917128 1
0.845441 0.90837 1
0.997894 0.903029 1
1 0.900755 1
0 1 1
0 1 1
0 1 1
0 1 1
0 1 1
0.503685 1 1
0.73164 1 1
0.908843 1 1
1 1 1
0 1 1
0 1 1
0 1 1
0 1 1
0 1 1
0.0479744 1 1
0.581872 1 1
0.804059 1 1
0.982193 1 1
0 1 1
0 1 1
0 1 1
0 1 1
0 1 1
0 1 1
0.32639 1 1
0.673808 1 1
0.887892 1 1
