A-tak/A-tak Teal Orange CT125.cube
TITLE "Generated by Resolve"
LUT_3D_SIZE 9
0.0993362 0 0
0.213062 0 0
0.31957 0 0
0.41854 0 0
0.935912 0 0
1 0 0
1 0 0
1 0 0
1 0 0
0.0505531 0 0
0.163928 0 0
0.269688 0 0
0.365698 0 0
0.855451 0 0
1 0 0
1 0 0
1 0 0
1 0 0
0.00683604 0.0715953 0
0.119677 0.0641642 0
0.22443 0.0580453 0
0.318227 0.0538949 0
0.772137 0 0
1 0 0
1 0 0
1 0 0
1 0 0
0 0.168353 0
0.082063 0.157 0
0.185153 0.144732 0
0.276463 0.138949 0
0.713542 0.045594 0
1 0 0
1 0 0
1 0.0580301 0
1 0.163287 0
0 0.354726 0
0 0.343343 0
0 0.352361 0
0.0374456 0.406989 0
0.465629 0.428763 0
0.933425 0.4813 0
1 0.62211 0
1 0.699794 0
1 0.732845 0
0 0.658885 0
0 0.774014 0
0 0.922301 0
0 1 0
0.415229 1 0
0.803662 0.974456 0
0.958633 0.975677 0
1 0.973739 0
1 0.97026 0
0 1 0
0 1 0
0 1 0
0 1 0
0.400961 1 0
0.770703 1 0
0.919493 1 0
1 1 0
1 1 0
0 1 0
0 1 0
0 1 0
0 1 0
0.327825 1 0
0.711864 1 0
0.861021 1 0
0.988403 1 0
1 1 0
0 1 0
0 1 0
0 1 0
0 1 0
0.242283 1 0
0.647578 1 0
0.800458 1 0
0.932723 1 0
1 1 0
0.0898604 0 0
0.203571 0 0
0.310002 0 0
0.408621 0 0
0.92401 0 0
1 0 0
1 0 0
1 0 0
1 0 0
0.0408942 0 0
0.154269 0 0
0.260075 0 0
0.355673 0 0
0.840314 0 0
1 0 0
1 0 0
1 0 0
1 0 0
0 0.0614176 0
0.109697 0.0538033 0
0.214435 0.0474403 0
0.307469 0.043122 0
0.749096 0 0
1 0 0
1 0 0
1 0 0
1 0 0
0 0.156802 0
0.0720378 0.144961 0
0.174945 0.13312 0
0.266026 0.127962 0
0.697856 0.0382391 0
1 0 0
1 0.00202945 0
1 0.0844129 0
1 0.202029 0
0 0.341741 0
0 0.334279 0
0 0.352255 0
0.0345922 0.426703 0
0.480934 0.460594 0
0.943648 0.527642 0
1 0.649195 0
1 0.708995 0
1 0.732128 0
0 0.68545 0
0 0.81059 0
0 0.961547 0
0 1 0
0.420356 1 0
0.798764 0.971145 0
0.951644 0.968597 0
1 0.965881 0
1 0.962066 0
0 1 0
0 1 0
0 1 0
0 1 0
0.392935 1 0
0.761349 1 0
0.910597 1 0
1 1 0
1 1 0
0 1 0
0 1 0
0 1 0
0 1 0
0.319722 1 0
0.701457 1 0
0.851286 1 0
0.980209 1 0
1 1 0
0 1 0
0 1 0
0 1 0
0 1 0
0.235447 1 0
0.63772 1 0
0.790967 1 0
0.924208 1 0
1 1 0
0.0814984 0 0.0167086
0.19498 0 0.0103761
0.30135 0 0.00595102
0.399954 0 0.00410468
0.915572 0 0
1 0 0
1 0 0
1 0 0
1 0 0
0.032517 0 0
0.145663 0 0
0.25098 0 0
0.346807 0 0
0.829313 0 0
1 0 0
1 0 0
1 0 0
1 0 0
0 0.05243 0
0.100893 0.0445716 0
0.205402 0.037995 0
0.298039 0.0334173 0
0.728817 0 0
1 0 0
1 0 0
1 0 0
1 0 0
0 0.146654 0
0.062623 0.133303 0
0.165621 0.122988 0
0.256886 0.118593 0
0.689738 0.0319677 0
1 0 0
1 0.0187686 0
1 0.115099 0
1 0.245533 0.0134737
0 0.332174 0
0 0.32987 0
0 0.359411 0
0.0307774 0.45687 0
0.499336 0.497246 0
0.950744 0.57319 0
1 0.67097 0
1 0.716365 0
1 0.731258 0
0 0.718334 0
0 0.854566 0
0 0.993133 0
0 1 0
0.426551 1 0
0.794018 0.967865 0
0.945373 0.962341 0
1 0.959182 0
1 0.955062 0
0 1 0
0 1 0
0 1 0
0 1 0
0.390356 1 0
0.753124 1 0
0.902663 1 0
1 1 0
1 1 0
0 1 0
0 1 0
0 1 0
0 1 0
0.316274 1 0
0.692348 1 0
0.842725 1 0
0.972656 1 0
1 1 0
0 1 0
0 1 0
0 1 0
0 1 0
0.233738 1 0
0.628992 1 0
0.782666 1 0
0.916686 1 0
1 1 0
0.074815 0 0.174945
0.188144 0 0.168795
0.294301 0 0.165393
0.39324 0 0.166873
0.914366 0 0.0222477
1 0 0
1 0 0
1 0 0
1 0 0
0.0257725 0 0.120287
0.138827 0 0.112123
0.243931 0 0.106813
0.339834 0 0.106126
0.826322 0 0
1 0 0
1 0 0
1 0 0
1 0 0
0 0.0453346 0.0731212
0.0939956 0.0374609 0.0624247
0.198123 0.0306859 0.0539712
0.290455 0.0256809 0.0490425
0.711025 0 0
1 0 0
1 0 0
1 0 0
1 0 0
0 0.138186 0.0357671
0.0548714 0.124132 0.0175174
0.158206 0.115328 0.00656138
0.250187 0.112352 0.00387579
0.694209 0.0273594 0
1 0 0
1 0.0443275 0
1 0.150652 0.0754253
1 0.287053 0.252811
0 0.328206 0
0 0.332769 0
0 0.378271 0
0.0244602 0.497978 0
0.523751 0.54316 0
0.951614 0.61529 0
1 0.690593 0
1 0.724453 0
1 0.732372 0
0 0.756344 0
0 0.902892 0
0 1 0
0 1 0
0.438148 1 0
0.790494 0.965621 0
0.940703 0.957992 0
1 0.955871 0
1 0.950484 0
0 1 0
0 1 0
0 1 0
0 1 0
0.395804 1 0
0.747173 1 0
0.896712 1 0
1 1 0
1 1 0
0 1 0
0 1 0
0 1 0
0 1 0
0.322438 1 0
0.685542 1 0
0.836439 1 0
0.967041 1 0
1 1 0
0 1 0
0 1 0
0 1 0
0 1 0
0.241398 1 0
0.622904 1 0
0.776669 1 0
0.911101 1 0
1 1 0
0.0131075 0 1
0.126085 0 1
0.230243 0 1
0.324331 0 1
0.833875 0 0.9234
1 0 0.809705
1 0 0.755444
1 0 0.688624
1 0 0.604105
0 0 0.998001
0.0790417 0 0.980972
0.183185 0 0.979751
0.274754 0 1
0.746914 0 0.798093
1 0 0.633265
1 0 0.543984
1 0 0.428428
1 0 0.316442
0 0 0.948714
0.0362097 0 0.910689
0.1411 0 0.882643
0.230869 0 0.881254
0.630106 0 0.61416
1 0 0.399664
1 0 0.330617
1 0 0.291157
1 0 0.295903
0 0.0635233 0.936736
0 0.0570382 0.837583
0.104601 0.0518654 0.792676
0.194278 0.0489815 0.819242
0.632593 0 0.655161
1 0 0.602106
1 0.0167086 0.790982
1 0.128832 1
1 0.261204 1
0 0.282597 0.232425
0 0.296117 0.252186
0 0.356603 0.337224
0 0.47985 0.514061
0.502632 0.530312 0.589731
0.913909 0.580255 0.667185
1 0.635447 0.744411
1 0.660594 0.777783
1 0.664546 0.78201
0 0.757229 0.0378424
0 0.901137 0.238148
0 0.986206 0.444419
0 1 0.612345
0.378714 0.961318 0.49688
0.735836 0.908904 0.392248
0.891508 0.899504 0.374319
1 0.897124 0.357
1 0.893553 0.329702
0 1 0.452888
0 1 0.482963
0 1 0.513832
0 1 0.5832
0.333562 1 0.439384
0.689815 1 0.320012
0.843229 1 0.306691
0.976287 1 0.291478
1 1 0.270863
0 1 0.3691
0 1 0.376623
0 1 0.408759
0 1 0.487449
0.263172 1 0.348928
0.630747 1 0.227405
0.784146 1 0.219898
0.921645 1 0.210315
1 1 0.197406
0 1 0.238666
0 1 0.250278
0 1 0.287404
0 1 0.37525
0.18735 1 0.25124
0.571435 1 0.130755
0.725353 1 0.12929
0.867185 1 0.123629
0.994904 1 0.115282
0 0 1
0.0946212 0 1
0.199603 0 1
0.295964 0 1
0.790707 0 1
1 0 1
1 0 1
1 0 1
1 0 1
0 0 1
0.0446632 0 1
0.14931 0 1
0.242267 0 1
0.690791 0 1
1 0 1
1 0 1
1 0 1
1 0 1
0 0 1
0.000137331 0 1
0.103243 0 1
0.191653 0 1
0.553307 0 1
0.962386 0 1
1 0 1
1 0 1
1 0 1
0 0.025391 1
0 0.0129397 1
0.0646067 0.00540169 1
0.156924 0.00802625 1
0.583093 0 1
1 0 1
1 0.0107729 1
1 0.138781 1
1 0.253864 1
0 0.225193 0.996246
0 0.247639 1
0 0.329503 1
0 0.474525 1
0.492836 0.532509 1
0.893965 0.56495 1
1 0.608835 1
1 0.626017 1
1 0.624857 1
0 0.743038 0.895613
0 0.878508 1
0 0.954955 1
0 0.996414 1
0.337316 0.923659 1
0.694423 0.863233 1
0.851423 0.852445 1
0.988739 0.84744 1
1 0.841978 0.999374
0 1 1
0 1 1
0 1 1
0 1 1
0.28452 1 1
0.63949 0.998795 0.972061
0.794171 0.984222 0.956985
0.932326 0.973312 0.94548
1 0.965408 0.936889
0 1 1
0 1 1
0 1 1
0 1 1
0.211276 1 0.997284
0.578531 1 0.911147
0.733516 1 0.896452
0.877195 1 0.885176
1 1 0.878065
0 1 1
0 1 1
0 1 1
0 1 1
0.133532 1 0.939116
0.516808 1 0.848127
0.671931 1 0.834272
0.820294 1 0.822141
0.948272 1 0.815656
0 0 1
0.0836652 0 1
0.18851 0 1
0.284138 0 1
0.771969 0 1
1 0 1
1 0 1
1 0 1
1 0 1
0 0 1
0.0336767 0 1
0.138125 0 1
0.230365 0 1
0.667781 0 1
1 0 1
1 0 1
1 0 1
1 0 1
0 0 1
0 0 1
0.0915389 0 1
0.178317 0 1
0.526772 0 1
0.948867 0 1
1 0 1
1 0 1
1 0 1
0 0.0109102 1
0 0 1
0.0538949 0 1
0.148165 0.000381476 1
0.581872 0 1
1 0 1
1 0.0408026 1
1 0.176165 1
1 0.271595 1
0 0.214878 1
0 0.254078 1
0 0.359182 1
0 0.517067 1
0.50695 0.562158 1
0.894255 0.575753 1
1 0.608515 1
1 0.618921 1
1 0.614679 1
0 0.783185 1
0 0.899947 1
0 0.960616 1
0 0.993362 1
0.328908 0.915908 1
0.68513 0.853559 1
0.842802 0.843824 1
0.980453 0.83711 1
1 0.831296 1
0 1 1
0 1 1
0 1 1
0 1 1
0.273365 1 1
0.628031 0.98883 1
0.782528 0.973983 1
0.921996 0.962615 1
1 0.954849 1
0 1 1
0 1 1
0 1 1
0 1 1
0.200412 1 1
0.566888 1 1
0.722148 1 1
0.867292 1 1
0.995071 1 1
0 1 1
0 1 1
0 1 1
0 1 1
0.124071 1 1
0.505531 1 1
0.66067 1 1
0.810162 1 1
0.938506 1 1
0 0 1
0.0722362 0 1
0.176959 0 1
0.271885 0 1
0.751705 0 1
1 0 1
1 0 1
1 0 1
1 0 1
0 0 1
0.0221714 0 1
0.126452 0 1
0.217823 0 1
0.641993 0 1
0.994125 0 1
1 0 1
1 0 1
1 0 1
0 0 1
0 0 1
0.0792401 0 1
0.164843 0 1
0.500206 0 1
0.935195 0 1
1 0 1
1 0 1
1 0 1
0 0 1
0 0 1
0.0433204 0 1
0.140536 0 1
0.585412 0 1
1 0 1
1 0.0764477 1
1 0.206531 1
1 0.283284 1
0 0.211704 1
0 0.26981 1
0 0.390967 1
0 0.560067 1
0.515694 0.58291 1
0.894575 0.581094 1
1 0.604395 1
1 0.609384 1
1 0.603052 1
0 0.819883 1
0 0.913924 1
0 0.962386 1
0 0.987564 1
0.317052 0.907271 1
0.67538 0.843351 1
0.832639 0.833494 1
0.971359 0.82591 1
1 0.81973 1
0 1 1
0 1 1
0 1 1
0 1 1
0.260517 1 1
0.6159 0.97792 1
0.76997 0.96289 1
0.910704 0.951125 1
1 0.943526 1
0 1 1
0 1 1
0 1 1
0 1 1
0.18793 1 1
0.55523 1 1
0.710094 1 1
0.856535 1 1
0.984649 1 1
0 1 1
0 1 1
0 1 1
0 1 1
0.112932 1 1
0.493538 1 1
0.6486 1 1
0.798993 1 1
0.927474 1 1
0 0 1
0.0603799 0 1
0.165011 0 1
0.259068 0 1
0.72932 0 1
1 0 1
1 0 1
1 0 1
1 0 1
0 0 1
0.0102083 0 1
0.114351 0 1
0.204898 0 1
0.613733 0 1
0.97911 0 1
1 0 1
1 0 1
1 0 1
0 0 1
0 0 1
0.066392 0 1
0.151797 0 1
0.473945 0 1
0.922057 0 1
1 0 1
1 0 1
1 0 1
0 0 1
0 0 1
0.0330053 0 1
0.134264 0 1
0.595117 0 1
1 0 1
1 0.114336 1
1 0.22884 1
1 0.29015 1
0 0.212345 1
0 0.291722 1
0 0.425238 1
0 0.597482 1
0.520165 0.596506 1
0.894072 0.581933 1
1 0.597162 1
1 0.598169 1
1 0.590784 1
0 0.848035 1
0 0.922652 1
0 0.960571 1
0 0.980011 1
0.30312 0.898054 1
0.665324 0.832761 1
0.822171 0.822477 1
0.961624 0.814145 1
1 0.807553 1
0 1 1
0 1 1
0 1 1
0 1 1
0.246052 1 1
0.603082 0.966552 1
0.756954 0.951385 1
0.898833 0.939315 1
1 0.932387 1
0 1 1
0 1 1
0 1 1
0 1 1
0.174136 1 1
0.54287 1 1
0.697887 1 1
0.845319 1 1
0.973602 1 1
0 1 1
0 1 1
0 1 1
0 1 1
0.100542 1 1
0.481193 1 1
0.636286 1 1
0.78764 1 1
0.91664 1 1
