A-tak/A-tak Teal Orange Dark Contrast_for_BMPCC.cube_1.A079_05041449_C035.cube
TITLE "Generated by Resolve"
LUT_3D_SIZE 33
0.0310063 0 0
0.0310063 0 0
0.0312657 0 0
0.0336309 0 0
0.0341192 0 0
0.0359808 0 0
0.0408484 0 0
0.0494698 0 0
0.0666056 0 0
0.0913252 0 0
0.127398 0 0
0.365927 0 0
0.507424 0 0
0.586618 0.0872511 0.00646983
0.649592 0.156786 0.0577401
0.708598 0.213489 0.0927901
0.766613 0.270665 0.142351
0.82414 0.326925 0.205173
0.869108 0.371283 0.26424
0.903685 0.407019 0.323064
0.929351 0.435233 0.391302
0.948837 0.459174 0.46714
0.963989 0.482994 0.555673
0.981521 0.517906 0.659159
0.993332 0.558312 0.735744
0.982269 0.591852 0.780331
0.955505 0.640711 0.808438
0.950805 0.69395 0.852598
0.949294 0.746395 0.887205
0.949737 0.798978 0.914
0.949935 0.848493 0.930938
0.950118 0.885878 0.941604
0.948974 0.912383 0.947204
0.0310063 0 0
0.0310063 0 0
0.0310063 0 0
0.0327916 0 0
0.0339818 0 0
0.0353246 0 0
0.0394751 0 0
0.0484627 0 0
0.0653239 0 0
0.0901045 0 0
0.128008 0 0
0.374258 0 0
0.506233 0 0
0.585626 0.0856641 0
0.648722 0.156024 0.0477302
0.70808 0.214389 0.0912337
0.766781 0.272343 0.141039
0.824796 0.328008 0.203723
0.869825 0.372824 0.262821
0.904341 0.408301 0.321691
0.930053 0.436713 0.38999
0.94963 0.46096 0.46598
0.965057 0.48539 0.553628
0.982238 0.519753 0.658778
0.993393 0.559625 0.735073
0.981216 0.592966 0.778531
0.9552 0.642145 0.807279
0.950759 0.694652 0.852567
0.949294 0.746395 0.887205
0.949722 0.799619 0.913344
0.949935 0.848493 0.930938
0.950118 0.885878 0.941604
0.948974 0.912383 0.947204
0.0310063 0 0
0.0310063 0 0
0.0310063 0 0
0.0320287 0 0
0.0338445 0 0
0.0346532 0 0
0.0382544 0 0
0.0472114 0 0
0.0636149 0 0
0.0885786 0 0
0.128893 0 0
0.378912 0 0
0.502647 6.10361e-05 0
0.584741 0.089601 0
0.648997 0.161212 0.0338445
0.708858 0.218814 0.0915694
0.767575 0.274022 0.139696
0.824552 0.328313 0.201266
0.870542 0.374502 0.261616
0.905043 0.409903 0.320027
0.930739 0.438178 0.38793
0.950393 0.462745 0.464012
0.965972 0.487434 0.552987
0.983124 0.522057 0.658701
0.993408 0.561395 0.735088
0.979629 0.594659 0.776989
0.955062 0.642786 0.807141
0.950729 0.695354 0.851774
0.949279 0.747112 0.887205
0.949722 0.799619 0.913344
0.949935 0.849149 0.930938
0.950118 0.885878 0.941604
0.948974 0.912383 0.947204
0.0328374 0 0
0.032639 0 0
0.0325475 0 0
0.032578 0 0
0.0346685 0 0
0.0348974 0 0
0.0376593 0 0
0.0462959 0 0
0.0621347 0 0
0.0873579 0 0
0.130144 0 0
0.385702 0 0
0.499229 0 0
0.583047 0.103182 0
0.648707 0.16939 0.0287938
0.709422 0.221256 0.0916609
0.768032 0.274952 0.137728
0.825193 0.329824 0.199832
0.871153 0.376104 0.260029
0.905684 0.411414 0.318425
0.931395 0.439658 0.38584
0.951064 0.464286 0.462928
0.966873 0.489433 0.550958
0.983978 0.52433 0.657282
0.993362 0.562676 0.734005
0.978576 0.595773 0.775204
0.954711 0.644419 0.806806
0.950683 0.696056 0.851728
0.949279 0.747845 0.887205
0.949722 0.800351 0.913344
0.949935 0.849149 0.930938
0.950118 0.885878 0.941604
0.948974 0.912383 0.947204
0.0352026 0 0
0.0350958 0 0
0.0348669 0 0
0.0347601 0 0
0.0359045 0 0
0.0364538 0 0
0.038117 0 0
0.0457618 0 0
0.0610971 0 0
0.0862287 0 0
0.13167 0 0
0.392752 0 0
0.495933 0 0
0.581216 0.101884 0
0.647395 0.16936 0.0238804
0.709163 0.221515 0.0913252
0.768536 0.276234 0.136309
0.825818 0.331289 0.198611
0.871733 0.377569 0.258671
0.906325 0.413001 0.317098
0.932113 0.441337 0.383825
0.951827 0.466026 0.461067
0.967803 0.491508 0.548943
0.984665 0.526192 0.65687
0.993317 0.563912 0.733043
0.977523 0.596887 0.774182
0.954574 0.645029 0.805997
0.950652 0.696757 0.851698
0.949279 0.748562 0.887205
0.949722 0.800351 0.913344
0.949935 0.849149 0.930938
0.950088 0.88661 0.941573
0.948974 0.912383 0.947204
0.0382391 0.000518807 0
0.0381018 0.000381476 0
0.0378119 0.000122072 0
0.0376593 0 0
0.0379797 0 0
0.0387274 0 0
0.0393378 0 0
0.0455024 0 0
0.0602121 0 0
0.0846265 0 0
0.133043 0 0
0.388327 0 0
0.492683 0 0
0.578485 0.100465 4.57771e-05
0.647059 0.170626 0.0236973
0.709102 0.222995 0.088838
0.768566 0.277836 0.135698
0.826474 0.333272 0.196704
0.872435 0.379294 0.25713
0.906996 0.414816 0.315267
0.93283 0.443015 0.381842
0.952621 0.467857 0.459236
0.968719 0.493629 0.546914
0.985458 0.528634 0.656687
0.993255 0.565087 0.731884
0.976471 0.598016 0.772381
0.954269 0.646479 0.805692
0.950622 0.697368 0.851667
0.949279 0.748562 0.887205
0.949722 0.800992 0.913344
0.949935 0.849149 0.930938
0.950088 0.88661 0.941573
0.948974 0.912383 0.947204
0.0438087 0.00631724 0
0.0434424 0.00578317 0
0.0432593 0.00550851 0
0.0432593 0.00550851 0
0.0430762 0.00523384 0
0.0431067 0.00399786 0
0.0419471 0.00250248 0
0.0458686 0.000671397 0
0.0593881 0 0
0.0830091 0 0
0.136446 0 0
0.377844 0 0
0.488304 0 0
0.575738 0.103212 0
0.646052 0.17438 0.0260319
0.708354 0.226551 0.0850538
0.768917 0.281498 0.13547
0.827558 0.33666 0.195697
0.87335 0.381567 0.25452
0.907897 0.417182 0.312779
0.933883 0.445533 0.379126
0.953002 0.470008 0.45687
0.97026 0.497368 0.545373
0.986526 0.532021 0.655482
0.993179 0.567224 0.730678
0.974365 0.600244 0.769558
0.953948 0.647913 0.804532
0.95053 0.698955 0.850919
0.949279 0.749996 0.887221
0.949706 0.801816 0.913344
0.94992 0.849989 0.930938
0.950088 0.88661 0.941573
0.948974 0.912383 0.947204
0.0522164 0.0186465 0
0.0524605 0.0189822 0
0.0526894 0.0193332 0
0.0526894 0.0193332 0
0.0519875 0.0183108 0
0.0511177 0.0171359 0
0.0485847 0.0151522 0
0.0480659 0.0124819 0
0.0584878 0.00895705 0
0.0807813 0.00460822 0
0.144289 0.00796521 0
0.365377 0.0221103 0
0.480568 0.0133974 0
0.571664 0.114839 0
0.643687 0.182773 0.0289311
0.708019 0.234302 0.0818952
0.769802 0.288609 0.136065
0.828656 0.342321 0.196262
0.874815 0.385901 0.252338
0.909422 0.421088 0.309636
0.935393 0.449378 0.375479
0.954665 0.474113 0.45333
0.972488 0.502785 0.541924
0.987945 0.536446 0.653666
0.993072 0.570062 0.728603
0.972259 0.602487 0.766751
0.953323 0.650797 0.803265
0.950439 0.700282 0.850843
0.949279 0.750713 0.886458
0.949706 0.802548 0.913344
0.949905 0.850828 0.930953
0.950088 0.88661 0.941573
0.948974 0.912383 0.947204
0.0676432 0.0418097 0
0.0683604 0.043061 0
0.0679942 0.0424353 0
0.0665751 0.0399176 0
0.0655222 0.0380255 0
0.0645151 0.0363622 0
0.0620432 0.034638 0
0.0552071 0.0318914 0
0.0592203 0.0287938 0
0.0814527 0.0271 0
0.160586 0.0418402 0
0.348653 0.0840467 0
0.470665 0.0872053 0
0.564309 0.143633 0
0.641718 0.200916 0.033341
0.707408 0.248951 0.0816968
0.770459 0.300481 0.1355
0.830488 0.352148 0.19704
0.876921 0.39408 0.254383
0.911421 0.426657 0.305379
0.937606 0.455406 0.369848
0.957244 0.48072 0.448371
0.975448 0.510292 0.538094
0.989578 0.542275 0.651087
0.992935 0.573877 0.725338
0.968582 0.606409 0.761639
0.952895 0.653666 0.801999
0.950317 0.70248 0.849867
0.949264 0.75288 0.886458
0.949691 0.80412 0.913344
0.949905 0.850828 0.930953
0.950057 0.887251 0.941573
0.948974 0.912383 0.947204
0.0960861 0.120897 0
0.0945754 0.114931 0
0.0925612 0.106981 0
0.0910658 0.101015 0
0.0891432 0.0938582 0
0.0878767 0.0902876 0
0.0857862 0.0843214 0
0.0793622 0.07776 0
0.07187 0.0723278 0
0.0902571 0.0676432 0
0.173205 0.0983749 0
0.33254 0.151064 0
0.456596 0.166674 0
0.556161 0.192584 3.0518e-05
0.638621 0.233417 0.0394293
0.70692 0.274525 0.0859693
0.771191 0.320027 0.134951
0.832685 0.368597 0.198245
0.880339 0.408545 0.257298
0.915862 0.439887 0.308858
0.940658 0.464149 0.362814
0.961013 0.490791 0.442435
0.979492 0.520851 0.532082
0.990448 0.550591 0.647242
0.989639 0.57879 0.718532
0.965118 0.612512 0.756756
0.952468 0.658671 0.800076
0.950103 0.705928 0.848905
0.949264 0.755047 0.88571
0.949676 0.805493 0.913344
0.949889 0.852216 0.930953
0.950057 0.887251 0.941573
0.948959 0.91313 0.947204
0.125093 0.298726 0
0.124575 0.290639 0
0.124041 0.282567 0
0.123659 0.276493 0
0.12314 0.268406 0
0.122744 0.262348 0
0.122087 0.252247 0
0.121172 0.238102 0
0.118837 0.218997 0
0.123217 0.166598 0
0.191638 0.18352 0
0.321569 0.228901 0
0.438224 0.245289 0
0.541939 0.256153 0
0.633204 0.283162 0.0452125
0.704753 0.316136 0.0885939
0.771542 0.354009 0.134234
0.835264 0.395483 0.198459
0.885054 0.432044 0.260578
0.92137 0.461631 0.313558
0.947524 0.485069 0.365499
0.966445 0.506157 0.432212
0.984375 0.535149 0.522667
0.991135 0.561196 0.637339
0.985 0.585779 0.709682
0.960494 0.62063 0.749172
0.951934 0.66511 0.798047
0.949783 0.710964 0.847868
0.949248 0.757931 0.88571
0.949676 0.807691 0.91249
0.949874 0.853712 0.930953
0.950027 0.887984 0.941558
0.948959 0.91313 0.946532
0 0.454215 0
0 0.455406 0
0 0.456596 0
0 0.457786 0
0 0.459007 0
0 0.447074 0
0 0.423255 0
0.0487984 0.390188 0
0.106538 0.345876 0
0.138201 0.267567 0
0.204654 0.294362 0
0.298497 0.314717 0
0.408865 0.326711 0
0.520653 0.335042 0.00204471
0.624857 0.351476 0.0488136
0.701732 0.376242 0.0907912
0.771435 0.405097 0.136767
0.837537 0.437736 0.19086
0.891356 0.470344 0.264759
0.929931 0.496605 0.321141
0.957168 0.518212 0.372793
0.97583 0.535851 0.432731
0.987732 0.553429 0.507424
0.989837 0.574411 0.618814
0.974929 0.59736 0.692546
0.955322 0.632441 0.739467
0.951232 0.673701 0.794339
0.949401 0.71725 0.845991
0.949233 0.762966 0.884962
0.949645 0.811368 0.912505
0.949859 0.855283 0.930953
0.949966 0.889448 0.941527
0.948943 0.913878 0.946532
0 0.575662 0
0 0.571923 0
0 0.559487 0
0 0.544564 0
0 0.529732 0
0 0.512581 0
0 0.489357 0
0 0.455406 0
0.0214694 0.406714 0
0.0852064 0.363333 0
0.126055 0.37557 0
0.234195 0.389822 0
0.360662 0.403098 0
0.488365 0.415717 0.0110475
0.609293 0.42562 0.0505226
0.694591 0.447196 0.0916915
0.771145 0.47039 0.144015
0.842969 0.496925 0.205158
0.899016 0.521782 0.26598
0.939116 0.543023 0.326863
0.965347 0.559106 0.374105
0.979339 0.571786 0.425467
0.985412 0.581491 0.491234
0.980835 0.590814 0.582528
0.962371 0.615228 0.669627
0.952056 0.647684 0.730083
0.950591 0.685634 0.789197
0.949081 0.725841 0.843534
0.949218 0.769482 0.883467
0.949615 0.815778 0.911742
0.949828 0.858167 0.930114
0.949889 0.891112 0.941482
0.948913 0.914733 0.946532
0 0.64831 0.0775769
0 0.634302 0.0633249
0 0.619028 0.0477913
0 0.603723 0.0310674
0 0.587137 0.0127108
0 0.569436 0
0 0.544564 0
0 0.506447 0
0 0.449454 0
0 0.439933 0
0 0.449454 0
0.0100862 0.464607 0.000579843
0.268727 0.47982 0.0089723
0.437278 0.491447 0.0287633
0.582925 0.505119 0.0534981
0.683299 0.525612 0.0964828
0.765209 0.545754 0.150835
0.836545 0.565621 0.20502
0.88983 0.58172 0.246586
0.925246 0.594751 0.290288
0.94696 0.604685 0.333761
0.958907 0.613565 0.381445
0.962203 0.620417 0.452262
0.959152 0.626612 0.540673
0.953292 0.638651 0.643839
0.950042 0.668025 0.718044
0.949813 0.700587 0.782452
0.948821 0.737301 0.839445
0.949203 0.778225 0.881987
0.949538 0.822538 0.910994
0.949783 0.861143 0.930114
0.949828 0.892485 0.941451
0.948898 0.915389 0.946548
0 0.6925 0.115816
0 0.677897 0.103746
0 0.662089 0.0906691
0 0.645762 0.0749828
0 0.627939 0.0568551
0 0.607553 0.0353094
0 0.576944 0.00141909
0 0.529732 0
0 0.511345 0
0 0.521157 0
0 0.529732 0
0 0.539712 0
0 0.556405 0.00929274
0.351659 0.574823 0.0437018
0.535058 0.591028 0.0697185
0.659953 0.607477 0.104906
0.74432 0.621302 0.145708
0.814939 0.63328 0.189136
0.87042 0.64242 0.228855
0.90724 0.650523 0.257404
0.93019 0.657145 0.292836
0.944564 0.663508 0.339788
0.951308 0.668315 0.414237
0.952087 0.673045 0.512627
0.949279 0.677699 0.621866
0.948913 0.691768 0.70016
0.948653 0.719753 0.771649
0.948653 0.75256 0.834134
0.949157 0.7906 0.879759
0.949462 0.830488 0.910353
0.949706 0.866377 0.929473
0.949706 0.895415 0.940734
0.948852 0.916991 0.946548
0 0.70837 0.130999
0 0.690059 0.113802
0 0.670604 0.0977035
0 0.649577 0.0788739
0 0.625391 0.0542611
0 0.597345 0.0240177
0 0.5897 0.0155337
0 0.592248 0.0183566
0 0.596078 0.0225986
0 0.602441 0.0296635
0 0.61265 0.0409552
0 0.621576 0.05037
0 0.633127 0.0639963
0.0180972 0.654322 0.0912947
0.465873 0.668513 0.110643
0.630503 0.669963 0.122789
0.72462 0.680415 0.155001
0.800198 0.688533 0.192508
0.861082 0.696086 0.230777
0.901625 0.702571 0.260426
0.927962 0.708278 0.281117
0.942428 0.713939 0.314794
0.950393 0.717922 0.377203
0.951675 0.721111 0.479591
0.947814 0.722133 0.600244
0.947112 0.729061 0.684215
0.948013 0.744274 0.756039
0.948592 0.772854 0.825116
0.94905 0.806043 0.875242
0.949371 0.840955 0.908003
0.949615 0.872358 0.928634
0.949569 0.898344 0.940673
0.948821 0.918395 0.946548
0 0.67303 0.0997177
0 0.67425 0.100725
0 0.67425 0.100725
0 0.675471 0.101732
0 0.676677 0.102739
0 0.676677 0.102739
0 0.679118 0.104753
0 0.680339 0.10576
0 0.683986 0.108782
0 0.687633 0.111788
0 0.693721 0.116823
0 0.702815 0.125475
0 0.709484 0.132097
0 0.719905 0.144396
0.210666 0.732799 0.162783
0.569436 0.727184 0.150179
0.69485 0.731731 0.169924
0.781598 0.74049 0.202167
0.851347 0.747738 0.238697
0.896223 0.753567 0.267536
0.924666 0.759152 0.288075
0.940719 0.763455 0.300389
0.949554 0.767224 0.338537
0.951858 0.769528 0.431281
0.948425 0.769924 0.562188
0.946715 0.773465 0.668147
0.947906 0.781415 0.741833
0.948516 0.796979 0.810712
0.948898 0.825238 0.869215
0.949218 0.853697 0.904997
0.949493 0.880583 0.927977
0.949386 0.902663 0.939727
0.94876 0.920653 0.946563
0 0.753414 0.174319
0 0.753414 0.174319
0 0.754406 0.175235
0 0.754406 0.175235
0 0.755398 0.17615
0 0.755398 0.17615
0 0.756374 0.177066
0 0.757366 0.177981
0 0.759335 0.179797
0 0.761318 0.181628
0 0.765072 0.184985
0 0.769528 0.1888
0 0.775753 0.194141
0 0.781994 0.199481
0 0.789532 0.206348
0.343297 0.790951 0.202197
0.647807 0.782803 0.194827
0.753765 0.789014 0.218402
0.835798 0.796536 0.250034
0.888533 0.802563 0.27808
0.92105 0.807874 0.299001
0.938842 0.812802 0.31165
0.948852 0.816938 0.319371
0.952193 0.820279 0.369009
0.951171 0.820813 0.49984
0.946624 0.820874 0.641825
0.947601 0.825727 0.726665
0.948211 0.833219 0.797238
0.948699 0.846754 0.858656
0.94902 0.868528 0.901335
0.949264 0.889586 0.925551
0.949172 0.907881 0.938857
0.948684 0.923674 0.946563
0 0.817014 0.227665
0 0.817853 0.228321
0 0.817853 0.228321
0 0.817853 0.228321
0 0.818692 0.228977
0 0.818692 0.228977
0 0.818692 0.228977
0 0.819501 0.229603
0 0.82031 0.230228
0 0.821927 0.231479
0 0.823545 0.232715
0 0.82678 0.235218
0 0.830823 0.238331
0 0.837308 0.24332
0 0.842161 0.247059
0 0.848402 0.25182
0.49337 0.837812 0.232822
0.709239 0.836164 0.241566
0.809033 0.842603 0.266361
0.876875 0.848539 0.293309
0.915053 0.853605 0.313268
0.936751 0.857755 0.326345
0.947555 0.861723 0.334005
0.952178 0.864073 0.337423
0.953429 0.866056 0.412863
0.94757 0.862547 0.586175
0.94725 0.864591 0.701946
0.947768 0.869154 0.782345
0.948348 0.874388 0.847395
0.948821 0.88423 0.892943
0.948837 0.899672 0.922301
0.948974 0.914519 0.938079
0.948592 0.927428 0.945724
0 0.872511 0.271138
0 0.872511 0.271138
0 0.87332 0.271778
0 0.87332 0.271778
0 0.87332 0.271778
0 0.87332 0.271778
0 0.87332 0.271778
0 0.874113 0.272435
0 0.874922 0.273091
0 0.875715 0.273747
0 0.876524 0.274403
0 0.878126 0.275715
0 0.880522 0.277668
0 0.883726 0.280293
0 0.888533 0.284215
0 0.892531 0.287495
0 0.896269 0.29041
0.602625 0.876265 0.265614
0.76733 0.879652 0.283024
0.857572 0.884001 0.306889
0.906447 0.888914 0.326818
0.933013 0.892332 0.339956
0.946212 0.895521 0.347875
0.951568 0.897826 0.351659
0.953033 0.899962 0.353384
0.952148 0.899947 0.468666
0.946777 0.895338 0.658518
0.947051 0.897353 0.758312
0.947585 0.900359 0.835126
0.948058 0.904097 0.885039
0.948409 0.910811 0.916899
0.948791 0.92224 0.936584
0.94847 0.931945 0.944976
0 0.914763 0.30634
0 0.914763 0.30634
0 0.914763 0.30634
0 0.914763 0.30634
0 0.914763 0.30634
0 0.915557 0.307012
0 0.915557 0.307012
0 0.915557 0.307012
0 0.915557 0.307012
0 0.91635 0.307683
0 0.91635 0.307683
0 0.917144 0.308354
0 0.91873 0.309712
0 0.920317 0.31107
0 0.922652 0.313069
0 0.925734 0.31574
0 0.928832 0.31841
0 0.930709 0.319768
0.674983 0.907393 0.296178
0.823713 0.911238 0.317082
0.892989 0.913909 0.336934
0.926513 0.917632 0.350561
0.942748 0.91986 0.358373
0.949752 0.921447 0.362264
0.952071 0.922988 0.364096
0.953597 0.924514 0.365606
0.950072 0.921019 0.536156
0.946395 0.918212 0.716625
0.946975 0.919722 0.813138
0.947509 0.922042 0.875883
0.948074 0.925109 0.911528
0.948623 0.929656 0.932799
0.948348 0.936477 0.944228
0 0.944259 0.331746
0 0.944259 0.331746
0 0.944259 0.331746
0 0.944259 0.331746
0 0.944259 0.331746
0 0.944259 0.331746
0 0.944259 0.331746
0 0.944259 0.331746
0 0.945022 0.332403
0 0.945022 0.332403
0 0.945022 0.332403
0 0.9458 0.333074
0 0.9458 0.333074
0 0.946548 0.333715
0 0.948028 0.334997
0 0.949508 0.336263
0 0.951736 0.338186
0 0.953231 0.339467
0 0.953124 0.338506
0.741268 0.930083 0.320836
0.868467 0.932418 0.342626
0.917159 0.934066 0.357534
0.939895 0.936492 0.366964
0.948501 0.938079 0.371252
0.951614 0.93962 0.373327
0.95317 0.940398 0.374365
0.953933 0.941054 0.375036
0.946868 0.934127 0.619821
0.946624 0.934005 0.771908
0.947219 0.934737 0.860029
0.947784 0.9364 0.905486
0.948394 0.937957 0.929793
0.948211 0.9411 0.942718
0 0.963623 0.348409
0 0.963623 0.348409
0 0.963623 0.348409
0 0.963623 0.348409
0 0.963623 0.348409
0 0.963623 0.348409
0 0.963623 0.348409
0 0.963623 0.348409
0 0.963623 0.348409
0 0.963623 0.348409
0 0.963623 0.348409
0 0.964355 0.34905
0 0.964355 0.34905
0 0.964355 0.34905
0 0.965103 0.349691
0 0.96585 0.350332
0 0.966583 0.350958
0 0.968078 0.352239
0 0.969558 0.353521
0 0.965362 0.348379
0.802915 0.944671 0.340093
0.900557 0.945968 0.360388
0.933989 0.947799 0.371756
0.946593 0.948669 0.376852
0.950515 0.949462 0.378759
0.952865 0.95024 0.380056
0.953628 0.951003 0.380774
0.955184 0.951766 0.381781
0.946639 0.942504 0.681788
0.947021 0.94313 0.825467
0.947585 0.943938 0.89424
0.948196 0.944747 0.926024
0.948089 0.945541 0.940551
0 0.975616 0.359075
0 0.975616 0.359075
0 0.975616 0.359075
0 0.975616 0.359075
0 0.975616 0.359075
0 0.975616 0.359075
0 0.975616 0.359075
0 0.975616 0.359075
0 0.975616 0.359075
0 0.975616 0.359075
0 0.975616 0.359075
0 0.975616 0.359075
0 0.975616 0.359075
0 0.976379 0.359777
0 0.976379 0.359777
0 0.976379 0.359777
0 0.977142 0.360464
0 0.977142 0.360464
0 0.978653 0.361852
0 0.978653 0.361852
0 0.968978 0.350164
0.853742 0.95259 0.354498
0.923369 0.953796 0.372457
0.943221 0.954711 0.379431
0.950317 0.95552 0.382345
0.951873 0.956191 0.383276
0.95346 0.956207 0.38381
0.955016 0.957076 0.384863
0.95581 0.957076 0.385122
0.94699 0.947707 0.739284
0.947555 0.947707 0.8692
0.948119 0.948516 0.917678
0.947997 0.948562 0.938186
0 0.982437 0.365332
0 0.982437 0.365332
0 0.982437 0.365332
0 0.982437 0.365332
0 0.982437 0.365332
0 0.982437 0.365332
0 0.982437 0.365332
0 0.982437 0.365332
0 0.982437 0.365332
0 0.982437 0.365332
0 0.982437 0.365332
0 0.982437 0.365332
0 0.982437 0.365332
0 0.982437 0.365332
0 0.982437 0.365332
0 0.982437 0.365332
0 0.9832 0.366033
0 0.9832 0.366033
0 0.9832 0.366033
0 0.983948 0.36672
0 0.983948 0.36672
0.045304 0.963363 0.342916
0.891035 0.957412 0.366018
0.93756 0.957687 0.379431
0.948638 0.958541 0.383612
0.951797 0.958556 0.384665
0.953384 0.958572 0.385199
0.954177 0.95848 0.385412
0.955734 0.95935 0.386435
0.956527 0.959258 0.386633
0.947662 0.94992 0.793194
0.948165 0.949905 0.900252
0.947982 0.950057 0.933639
0 0.985473 0.368109
0 0.985473 0.368109
0 0.985473 0.368109
0 0.985473 0.368109
0 0.985473 0.368109
0 0.985473 0.368109
0 0.985473 0.368109
0 0.985473 0.368109
0 0.985473 0.368109
0 0.985473 0.368109
0 0.985473 0.368109
0 0.985473 0.368109
0 0.985473 0.368109
0 0.985473 0.368109
0 0.985473 0.368109
0 0.985473 0.368109
0 0.985473 0.368109
0 0.985473 0.368109
0 0.985473 0.368109
0 0.985473 0.368109
0 0.986221 0.368811
0 0.986221 0.368811
0.554086 0.95964 0.340139
0.916747 0.958984 0.373953
0.945403 0.960037 0.383474
0.950957 0.959976 0.385245
0.952544 0.960082 0.385824
0.954131 0.960006 0.386282
0.954925 0.960098 0.386603
0.956512 0.960113 0.387121
0.957275 0.960876 0.387823
0.948287 0.951476 0.844297
0.947997 0.951553 0.922347
0 0.986984 0.369497
0 0.986984 0.369497
0 0.986984 0.369497
0 0.986984 0.369497
0 0.986984 0.369497
0 0.986984 0.369497
0 0.986984 0.369497
0 0.986984 0.369497
0 0.986984 0.369497
0 0.986984 0.369497
0 0.986984 0.369497
0 0.986984 0.369497
0 0.986984 0.369497
0 0.986984 0.369497
0 0.986984 0.369497
0 0.986984 0.369497
0 0.986984 0.369497
0 0.986984 0.369497
0 0.986984 0.369497
0 0.986984 0.369497
0 0.986984 0.369497
0 0.986984 0.369497
0 0.987747 0.370199
0.670115 0.960327 0.343572
0.933486 0.960693 0.380041
0.94934 0.960815 0.385229
0.952514 0.960845 0.386267
0.954086 0.961517 0.387167
0.954879 0.961624 0.387488
0.956466 0.961624 0.388006
0.957259 0.961547 0.388205
0.958053 0.961639 0.38851
0.948165 0.952255 0.882933
0 0.987747 0.370199
0 0.987747 0.370199
0 0.987747 0.370199
0 0.987747 0.370199
0 0.987747 0.370199
0 0.987747 0.370199
0 0.987747 0.370199
0 0.987747 0.370199
0 0.987747 0.370199
