A-tak/A-tak Teal Orange Dark Contrast_for_BMPCC.cube_1.A079_05041449_C035.cube
TITLE "Generated by Resolve"
LUT_3D_SIZE 9
0.0310063 0 0
0.0341192 0 0
0.0666056 0 0
0.507424 0 0
0.766613 0.270665 0.142351
0.929351 0.435233 0.391302
0.993332 0.558312 0.735744
0.949294 0.746395 0.887205
0.948974 0.912383 0.947204
0.0352026 0 0
0.0359045 0 0
0.0610971 0 0
0.495933 0 0
0.768536 0.276234 0.136309
0.932113 0.441337 0.383825
0.993317 0.563912 0.733043
0.949279 0.748562 0.887205
0.948974 0.912383 0.947204
0.0676432 0.0418097 0
0.0655222 0.0380255 0
0.0592203 0.0287938 0
0.470665 0.0872053 0
0.770459 0.300481 0.1355
0.937606 0.455406 0.369848
0.992935 0.573877 0.725338
0.949264 0.75288 0.886458
0.948974 0.912383 0.947204
0 0.575662 0
0 0.529732 0
0.0214694 0.406714 0
0.360662 0.403098 0
0.771145 0.47039 0.144015
0.965347 0.559106 0.374105
0.962371 0.615228 0.669627
0.949218 0.769482 0.883467
0.948913 0.914733 0.946532
0 0.67303 0.0997177
0 0.676677 0.102739
0 0.683986 0.108782
0 0.709484 0.132097
0.69485 0.731731 0.169924
0.924666 0.759152 0.288075
0.948425 0.769924 0.562188
0.948898 0.825238 0.869215
0.94876 0.920653 0.946563
0 0.914763 0.30634
0 0.914763 0.30634
0 0.915557 0.307012
0 0.91873 0.309712
0 0.928832 0.31841
0.892989 0.913909 0.336934
0.952071 0.922988 0.364096
0.946975 0.919722 0.813138
0.948348 0.936477 0.944228
0 0.982437 0.365332
0 0.982437 0.365332
0 0.982437 0.365332
0 0.982437 0.365332
0 0.9832 0.366033
0 0.983948 0.36672
0.948638 0.958541 0.383612
0.955734 0.95935 0.386435
0.947982 0.950057 0.933639
0 0.989258 0.371588
0 0.989258 0.371588
0 0.989258 0.371588
0 0.989258 0.371588
0 0.989258 0.371588
0 0.989258 0.371588
0 0.989258 0.371588
0.95404 0.963027 0.388052
0.958007 0.963149 0.38938
0 0.992294 0.374365
0 0.992294 0.374365
0 0.992294 0.374365
0 0.992294 0.374365
0 0.992294 0.374365
0 0.992294 0.374365
0 0.992294 0.374365
0 0.993042 0.375051
0.9579 0.966186 0.391104
0.0317693 0 0
0.0324559 0 0
0.0644541 0 0
0.502602 0 0
0.76556 0.268788 0.168643
0.928862 0.434012 0.412161
0.993317 0.557137 0.740658
0.949294 0.745678 0.887968
0.948974 0.912383 0.947204
0.0325628 0 0
0.033051 0 0
0.0590524 0 0
0.483772 0 0
0.765667 0.273228 0.164034
0.932342 0.441642 0.408896
0.993362 0.564111 0.738872
0.949279 0.748562 0.887968
0.948974 0.912383 0.947204
0.0648051 0.0367742 0
0.0585489 0.0278477 0
0.0566415 0.0229343 0
0.461585 0.0526131 0
0.768139 0.2934 0.153567
0.937987 0.455711 0.394888
0.992966 0.574029 0.732113
0.949264 0.75288 0.887221
0.948974 0.912383 0.947204
0 0.547051 0
0 0.445884 0
0.100847 0.35053 0
0.359518 0.397086 0
0.76846 0.463218 0.140627
0.965331 0.55613 0.387472
0.962295 0.615305 0.677378
0.949218 0.769482 0.88423
0.948913 0.914733 0.946532
0 0.67303 0.0997177
0 0.67425 0.100725
0 0.681544 0.106767
0 0.709484 0.132097
0.694026 0.730098 0.168795
0.924681 0.757687 0.287724
0.947951 0.768719 0.574182
0.948898 0.825238 0.869978
0.94876 0.920653 0.946563
0 0.914763 0.30634
0 0.914763 0.30634
0 0.915557 0.307012
0 0.91873 0.309712
0 0.928832 0.31841
0.892989 0.913909 0.336934
0.952071 0.922988 0.364096
0.94696 0.919722 0.814649
0.948348 0.936477 0.944228
0 0.982437 0.365332
0 0.982437 0.365332
0 0.982437 0.365332
0 0.982437 0.365332
0 0.9832 0.366033
0 0.983948 0.36672
0.948638 0.958541 0.383612
0.955734 0.95935 0.386435
0.947982 0.950057 0.933639
0 0.989258 0.371588
0 0.989258 0.371588
0 0.989258 0.371588
0 0.989258 0.371588
0 0.989258 0.371588
0 0.989258 0.371588
0 0.989258 0.371588
0.95404 0.963027 0.388052
0.958007 0.963149 0.38938
0 0.992294 0.374365
0 0.992294 0.374365
0 0.992294 0.374365
0 0.992294 0.374365
0 0.992294 0.374365
0 0.992294 0.374365
0 0.992294 0.374365
0 0.993042 0.375051
0.9579 0.966186 0.391104
0.0380713 0 0.0125734
0.0370489 0 0.0104829
0.0609903 0 0.0133974
0.493843 0 0.0891432
0.764294 0.267231 0.235248
0.927626 0.431678 0.451072
0.993271 0.554803 0.7505
0.949294 0.744244 0.889479
0.949004 0.911528 0.947204
0.0375219 0 0.00885023
0.0369726 0 0.00399786
0.0534981 0 0.0075227
0.476204 0 0.049546
0.763531 0.269566 0.22739
0.931273 0.439231 0.448432
0.993545 0.561898 0.749477
0.949279 0.747127 0.888731
0.948974 0.912383 0.947204
0.0431525 0.0255436 0.00254826
0.041474 0.0210422 0.00164797
0.0466773 0.0203555 0.00288396
0.42948 0.0168765 0.0114595
0.761364 0.283833 0.213672
0.937713 0.455772 0.442374
0.993027 0.57435 0.743832
0.949264 0.752895 0.888747
0.948974 0.912383 0.947204
0 0.459007 0
0.0880446 0.360998 0
0.111894 0.334325 0.000198367
0.361364 0.390463 0.0059968
0.764157 0.450843 0.19646
0.964294 0.549401 0.416403
0.96231 0.615381 0.690501
0.949218 0.769497 0.885756
0.948913 0.914641 0.947204
0 0.67425 0.100725
0 0.675471 0.101732
0 0.677897 0.103746
0 0.70837 0.130999
0.694072 0.728481 0.167895
0.923934 0.7561 0.286809
0.947127 0.765743 0.596826
0.948882 0.825238 0.872251
0.94876 0.920653 0.946563
0 0.914763 0.30634
0 0.914763 0.30634
0 0.915557 0.307012
0 0.917937 0.309041
0 0.928832 0.31841
0.892989 0.913909 0.336934
0.952071 0.922988 0.364096
0.94696 0.919722 0.818418
0.948348 0.936477 0.944228
0 0.982437 0.365332
0 0.982437 0.365332
0 0.982437 0.365332
0 0.982437 0.365332
0 0.9832 0.366033
0 0.983948 0.36672
0.948638 0.958541 0.383612
0.955734 0.95935 0.386435
0.947982 0.950057 0.933639
0 0.989258 0.371588
0 0.989258 0.371588
0 0.989258 0.371588
0 0.989258 0.371588
0 0.989258 0.371588
0 0.989258 0.371588
0 0.989258 0.371588
0.95404 0.963027 0.388052
0.958007 0.963149 0.38938
0 0.992294 0.374365
0 0.992294 0.374365
0 0.992294 0.374365
0 0.992294 0.374365
0 0.992294 0.374365
0 0.992294 0.374365
0 0.992294 0.374365
0 0.993042 0.375051
0.9579 0.966186 0.391104
0.100114 0 0.202747
0.0912337 0 0.206867
0.0912947 0 0.212451
0.470802 0 0.403189
0.757107 0.260868 0.466728
0.9187 0.419211 0.585901
0.992844 0.543755 0.784894
0.949355 0.739956 0.894102
0.949004 0.911528 0.947204
0.0978561 0 0.199603
0.088716 0 0.193362
0.0822003 0 0.198871
0.455116 0 0.387152
0.754009 0.257816 0.457389
0.923598 0.426459 0.586496
0.993439 0.552163 0.785031
0.949294 0.74284 0.894072
0.949004 0.911528 0.947204
0.0884718 0 0.181979
0.0914168 0 0.185916
0.0737621 0 0.174792
0.427787 0 0.360159
0.75259 0.264012 0.44596
0.931472 0.442176 0.581674
0.993667 0.566476 0.782864
0.949264 0.748608 0.893294
0.948974 0.912383 0.947204
0.128908 0.310918 0.281498
0.12462 0.321736 0.294865
0.116381 0.343618 0.321035
0.370916 0.366201 0.35761
0.744686 0.396551 0.395911
0.962158 0.536583 0.558129
0.961944 0.616312 0.737118
0.949187 0.77026 0.891844
0.948913 0.914641 0.947204
0 0.676081 0.120882
0 0.67892 0.14493
0 0.681956 0.190723
0 0.703334 0.340383
0.69485 0.725109 0.289982
0.922118 0.745983 0.395621
0.945998 0.756634 0.658869
0.948867 0.825254 0.87985
0.94876 0.920653 0.946563
0 0.914763 0.30634
0 0.915557 0.307012
0 0.915557 0.307012
0 0.91635 0.307683
0 0.928054 0.317739
0.892226 0.913146 0.336233
0.952087 0.922148 0.363622
0.946944 0.91899 0.83125
0.948348 0.936477 0.944991
0 0.982437 0.365332
0 0.982437 0.365332
0 0.982437 0.365332
0 0.982437 0.365332
0 0.9832 0.366033
0 0.983948 0.36672
0.948638 0.958541 0.383612
0.955734 0.95935 0.386435
0.947982 0.950057 0.934493
0 0.989258 0.371588
0 0.989258 0.371588
0 0.989258 0.371588
0 0.989258 0.371588
0 0.989258 0.371588
0 0.989258 0.371588
0 0.989258 0.371588
0.95404 0.963027 0.388052
0.958007 0.963149 0.38938
0 0.992294 0.374365
0 0.992294 0.374365
0 0.992294 0.374365
0 0.992294 0.374365
0 0.992294 0.374365
0 0.992294 0.374365
0 0.992294 0.374365
0 0.993042 0.375051
0.9579 0.966186 0.391104
0.0240177 0 0.707424
0.0231479 0 0.7084
0.114443 0 0.709621
0.457343 0.0569772 0.712245
0.741909 0.261295 0.71986
0.918517 0.423117 0.766659
0.970001 0.486686 0.851514
0.949676 0.720577 0.910369
0.94905 0.909361 0.947188
0.0253452 0 0.706523
0.0263981 0 0.705669
0.104311 0 0.706996
0.449271 0.0476539 0.710185
0.739391 0.258869 0.717952
0.918486 0.423072 0.765881
0.975372 0.496208 0.855985
0.949599 0.723445 0.909529
0.949035 0.910124 0.947188
0.0253452 0 0.706523
0.0280156 0 0.704723
0.0898604 0 0.701442
0.436698 0.0318608 0.705562
0.733486 0.253056 0.712673
0.917571 0.42211 0.763439
0.986618 0.517968 0.865629
0.949477 0.729946 0.909453
0.94902 0.91078 0.947188
0.00395209 0.112932 0.696239
0.0027924 0.124071 0.697261
0.000854505 0.143923 0.69839
0.387869 0.253025 0.699886
0.73463 0.323491 0.717128
0.947707 0.482475 0.784649
0.991073 0.582071 0.866377
0.949187 0.754482 0.908522
0.948959 0.91313 0.947204
0 0.682857 0.67808
0 0.685054 0.680293
0 0.68838 0.684443
0 0.705577 0.70251
0.689921 0.69926 0.698802
0.909895 0.699626 0.70959
0.945693 0.741329 0.793011
0.94876 0.826825 0.90341
0.94876 0.920562 0.947219
0 0.915282 0.363088
0 0.916014 0.370642
0 0.915923 0.385977
0 0.916136 0.461524
0 0.912627 0.671504
0.885176 0.90367 0.592874
0.943008 0.909361 0.683299
0.946929 0.916014 0.869062
0.948333 0.936477 0.945739
0 0.982437 0.365332
0 0.982437 0.365332
0 0.982437 0.365332
0 0.982437 0.365332
0 0.982437 0.365332
0 0.983948 0.36672
0.948638 0.958541 0.383612
0.955764 0.958602 0.385992
0.947967 0.949966 0.93753
0 0.989258 0.371588
0 0.989258 0.371588
0 0.989258 0.371588
0 0.989258 0.371588
0 0.989258 0.371588
0 0.989258 0.371588
0 0.989258 0.371588
0.95404 0.963027 0.388052
0.958007 0.963149 0.38938
0 0.992294 0.374365
0 0.992294 0.374365
0 0.992294 0.374365
0 0.992294 0.374365
0 0.992294 0.374365
0 0.992294 0.374365
0 0.992294 0.374365
0 0.993042 0.375051
0.9579 0.966186 0.391104
0 0.24036 0.896956
0 0.240558 0.896971
0 0.241047 0.897002
0.442145 0.240772 0.890028
0.748775 0.316167 0.894041
0.919097 0.438056 0.913008
0.953658 0.469245 0.929183
0.988525 0.598016 0.975586
0.949432 0.900572 0.948898
0 0.240558 0.897047
0 0.240513 0.896971
0 0.240986 0.897032
0.434501 0.240894 0.890394
0.747921 0.315694 0.894072
0.918242 0.437369 0.913024
0.953628 0.469123 0.928389
0.981933 0.603769 0.969009
0.949432 0.900572 0.948898
0 0.240604 0.896986
0 0.240452 0.896956
0 0.240101 0.896223
0.41767 0.240482 0.890471
0.744533 0.313664 0.893782
0.918242 0.437369 0.913024
0.953628 0.469123 0.928389
0.970871 0.614298 0.957992
0.949386 0.901305 0.948882
0 0.240604 0.896986
0 0.239887 0.896223
0 0.239887 0.896223
0.34522 0.238727 0.890303
0.734279 0.307057 0.890471
0.915602 0.434745 0.910384
0.953597 0.468986 0.927596
0.953826 0.661906 0.94107
0.949233 0.904875 0.948806
0 0.475303 0.897261
0 0.477409 0.897231
0 0.481788 0.897017
0 0.499672 0.896712
0.714122 0.613581 0.903105
0.916045 0.624079 0.911727
0.949386 0.659419 0.921431
0.948943 0.777844 0.935241
0.948882 0.915389 0.94873
0 0.907225 0.904418
0 0.907225 0.90518
0 0.907988 0.90518
0 0.909514 0.907469
0 0.914748 0.91281
0.884688 0.894041 0.893584
0.94313 0.890105 0.897536
0.946822 0.910109 0.928237
0.948318 0.936477 0.948791
0 0.976135 0.577035
0 0.975769 0.584649
0 0.975204 0.59826
0 0.97377 0.646571
0 0.973083 0.748699
0.537484 0.947951 0.864775
0.938903 0.948363 0.827634
0.945861 0.949218 0.883574
0.947906 0.950179 0.944274
0 0.989258 0.371588
0 0.989258 0.371588
0 0.989258 0.371588
0 0.989258 0.371588
0 0.989258 0.371588
0 0.989258 0.371588
0 0.989258 0.371588
0.95404 0.963027 0.388052
0.958007 0.963149 0.38938
0 0.992294 0.374365
0 0.992294 0.374365
0 0.992294 0.374365
0 0.992294 0.374365
0 0.992294 0.374365
0 0.992294 0.374365
0 0.992294 0.374365
0 0.993042 0.375051
0.9579 0.966186 0.391104
0 0.282856 0.941939
0 0.282856 0.941329
0.044831 0.282094 0.939773
0.5355 0.280049 0.92903
0.763333 0.346181 0.939361
0.921126 0.448035 0.954238
0.953704 0.474113 0.957687
0.958862 0.478477 0.958907
0.95108 0.796994 0.951308
0 0.282765 0.942138
0 0.282887 0.941482
0.0180819 0.282063 0.939925
0.532326 0.280003 0.929244
0.762478 0.345769 0.939284
0.921126 0.448035 0.954238
0.953704 0.474113 0.957687
0.958862 0.478477 0.958907
0.951064 0.799191 0.951308
0 0.283085 0.942336
0 0.282841 0.941955
0 0.282322 0.940368
0.522896 0.279515 0.929534
0.760754 0.34493 0.939147
0.921126 0.448035 0.954238
0.953704 0.474113 0.957687
0.958862 0.478477 0.958907
0.951034 0.802853 0.951308
0 0.282368 0.942351
0 0.282673 0.942397
0 0.283131 0.942412
0.479728 0.279133 0.931701
0.753872 0.341573 0.938552
0.920272 0.447364 0.954162
0.953704 0.474113 0.957687
0.958862 0.478477 0.958907
0.950912 0.81828 0.951339
0 0.282582 0.942321
0 0.282582 0.942321
0 0.282582 0.942321
0 0.282582 0.942321
0.725307 0.327642 0.935347
0.916838 0.444724 0.953811
0.953704 0.474113 0.957687
0.958862 0.478477 0.958907
0.950439 0.861982 0.951431
0 0.788403 0.97351
0 0.789197 0.973541
0 0.78999 0.973587
0 0.793179 0.973724
0 0.80589 0.974289
0.894347 0.84007 0.948211
0.942962 0.837263 0.948318
0.948104 0.861189 0.949905
0.948653 0.923674 0.951034
0 0.973251 0.973495
0 0.973251 0.973495
0 0.973251 0.973495
0 0.973251 0.973495
0 0.974014 0.973495
0.0734417 0.950286 0.949844
0.938384 0.947738 0.94728
0.944762 0.947799 0.948058
0.94789 0.94934 0.950347
0 0.979965 0.834302
0 0.979965 0.835828
0 0.979965 0.837339
0 0.97998 0.845701
0 0.979995 0.873823
0 0.980041 0.930861
0.85095 0.952636 0.943481
0.943847 0.953918 0.936782
0.947768 0.953872 0.946654
0 0.992294 0.374365
0 0.992294 0.374365
0 0.992294 0.374365
0 0.992294 0.374365
0 0.992294 0.374365
0 0.992294 0.374365
0 0.992294 0.374365
0 0.993042 0.375051
0.9579 0.966186 0.391104
0.627482 0.297917 0.934554
0.635126 0.300084 0.934997
0.648539 0.303807 0.935699
0.697688 0.319951 0.938766
0.815808 0.376837 0.94873
0.926436 0.453193 0.959625
0.953841 0.47512 0.962432
0.958968 0.479286 0.96286
0.961563 0.481544 0.963912
0.624537 0.297093 0.93431
0.633219 0.299474 0.934798
0.647578 0.303548 0.935637
0.696788 0.319631 0.938704
0.814954 0.376349 0.948653
0.926436 0.453193 0.959625
0.953841 0.47512 0.962432
0.958968 0.479286 0.96286
0.961563 0.481544 0.963912
0.617304 0.295567 0.934035
0.626535 0.297581 0.934401
0.644709 0.302724 0.93547
0.694987 0.319036 0.938674
0.814099 0.375845 0.948577
0.926436 0.453193 0.959625
0.953841 0.47512 0.962432
0.958968 0.479286 0.96286
0.961563 0.481544 0.963912
0.582773 0.28893 0.933089
0.595605 0.29099 0.933242
0.618341 0.295781 0.934081
0.685069 0.315373 0.937865
0.809812 0.373373 0.948302
0.925566 0.452506 0.959442
0.953841 0.47512 0.962432
0.958968 0.479286 0.96286
0.961563 0.481544 0.963912
0 0.287236 0.946685
0 0.287098 0.945876
0.079118 0.286198 0.943801
0.56939 0.287007 0.933028
0.790051 0.362264 0.946441
0.923858 0.451209 0.959258
0.953841 0.47512 0.962432
0.958968 0.479286 0.96286
0.961563 0.481544 0.963912
0 0.286976 0.94696
0 0.286976 0.94696
0 0.286976 0.94696
0 0.286976 0.94696
0 0.286976 0.94696
0.913542 0.443351 0.958206
0.953841 0.47512 0.962432
0.958968 0.479286 0.96286
0.961563 0.481544 0.963912
0 0.947601 0.981323
0 0.947601 0.981323
0 0.947601 0.981323
0 0.947601 0.981323
0 0.949096 0.981292
0 0.952819 0.981216
0.939437 0.939437 0.953338
0.945037 0.938643 0.953353
0.948058 0.943297 0.953368
0 0.980133 0.980377
0 0.980133 0.980377
0 0.980133 0.980377
0 0.980133 0.980377
0 0.980133 0.980377
0 0.980133 0.980377
0.817487 0.95259 0.952697
0.943755 0.953094 0.952636
0.947753 0.953216 0.953399
0 0.983154 0.959823
0 0.983154 0.959823
0 0.983154 0.959823
0 0.983154 0.960586
0 0.983154 0.962097
0 0.983169 0.9682
0 0.983185 0.976577
0.934844 0.956802 0.951873
0.947646 0.956893 0.951141
0.868177 0.411292 0.956924
0.869032 0.411841 0.956909
0.870741 0.413016 0.957076
0.878431 0.418341 0.9579
0.902464 0.435904 0.960327
0.939391 0.46392 0.964019
0.954787 0.476463 0.965591
0.95906 0.479942 0.966018
0.961639 0.482033 0.966293
0.867323 0.410666 0.956741
0.869032 0.411841 0.956909
0.870741 0.413016 0.957076
0.878431 0.418341 0.9579
0.902464 0.435904 0.960327
0.939391 0.46392 0.964019
0.954787 0.476463 0.965591
0.95906 0.479942 0.966018
0.961639 0.482033 0.966293
0.866468 0.410086 0.956664
0.868177 0.411292 0.956924
0.870741 0.413016 0.957076
0.878431 0.418341 0.9579
0.902464 0.435904 0.960327
0.939391 0.46392 0.964019
0.954787 0.476463 0.965591
0.95906 0.479942 0.966018
0.961639 0.482033 0.966293
0.86305 0.407736 0.956344
0.864759 0.408942 0.956603
0.867323 0.410666 0.956741
0.876722 0.417136 0.957641
0.90161 0.435233 0.960143
0.939391 0.46392 0.964019
0.954787 0.476463 0.965591
0.95906 0.479942 0.966018
0.961639 0.482033 0.966293
0.84419 0.395392 0.954635
0.845914 0.396414 0.954711
0.849348 0.39855 0.955032
0.862196 0.407141 0.956268
0.897307 0.43209 0.959716
0.938537 0.463233 0.963943
0.954787 0.476463 0.965591
0.95906 0.479942 0.966018
0.961639 0.482033 0.966293
0.630106 0.301015 0.937758
0.638743 0.303502 0.938369
0.65507 0.307973 0.939239
0.710216 0.326513 0.942824
0.83386 0.388998 0.953643
0.93341 0.459159 0.963516
0.954787 0.476463 0.965591
0.95906 0.479942 0.966018
0.961639 0.482033 0.966293
0 0.289906 0.950042
0 0.289906 0.950042
0 0.289906 0.950042
0 0.289906 0.950042
0 0.289906 0.950042
0 0.289906 0.950042
0.953933 0.475776 0.965606
0.958206 0.47924 0.965942
0.961639 0.482033 0.966293
0 0.977081 0.984176
0 0.977081 0.984176
0 0.977081 0.984176
0 0.977081 0.984176
0 0.977081 0.984176
0 0.977081 0.984176
0 0.977844 0.984176
0.944564 0.952255 0.956436
0.947784 0.951614 0.956436
0 0.9832 0.983444
0 0.9832 0.983444
0 0.9832 0.983444
0 0.9832 0.983444
0 0.9832 0.983444
0 0.9832 0.983444
0 0.9832 0.983444
0.928405 0.956756 0.95642
0.947601 0.957 0.956451
