A-tak/A-tak Cloudy Cafe for BMPCC.cube
TITLE "Generated by Resolve"
LUT_3D_SIZE 33
0 0.0336614 0.0492561
0 0.0336614 0.0492561
0 0.0336614 0.0492561
0 0.0327001 0.0438697
0 0.0277104 0.0305638
0.00234989 0.0355535 0.0661173
0.0296635 0.0408484 0.0788891
0.0727245 0.0557717 0.0991836
0.148806 0.0774548 0.127764
0.249943 0.0788891 0.169726
0.352621 0.0981918 0.226795
0.452674 0.161883 0.300435
0.555611 0.227512 0.370001
0.662715 0.0971847 0.192157
0.777432 0.0284886 0
0.871092 0.0707866 0
0.885634 0.12784 0
0.885634 0.12784 0
0.885634 0.12784 0
0.885634 0.12784 0
0.885634 0.12784 0
0.885634 0.12784 0
0.885634 0.12784 0
0.885634 0.12784 0
0.885634 0.12784 0
0.885634 0.12784 0
0.885634 0.12784 0
0.885634 0.12784 0
0.885634 0.12784 0
0.885634 0.12784 0
0.885634 0.12784 0
0.885634 0.12784 0
0.885634 0.12784 0
0 0.0336614 0.0492561
0 0.0336614 0.0492561
0 0.0336614 0.0492561
0 0.0331731 0.0459144
0 0.0295262 0.0348821
0 0.0347601 0.0635386
0.0222629 0.0391546 0.075227
0.0602121 0.0513466 0.0942092
0.130495 0.0736858 0.12079
0.233539 0.0806287 0.162402
0.340078 0.091371 0.218265
0.441566 0.15407 0.291936
0.545007 0.221988 0.364279
0.65005 0.14696 0.289387
0.769894 0.0115358 0
0.864698 0.0399634 0
0.885634 0.12784 0
0.885634 0.12784 0
0.885634 0.12784 0
0.885634 0.12784 0
0.885634 0.12784 0
0.885634 0.12784 0
0.885634 0.12784 0
0.885634 0.12784 0
0.885634 0.12784 0
0.885634 0.12784 0
0.885634 0.12784 0
0.885634 0.12784 0
0.885634 0.12784 0
0.885634 0.12784 0
0.885634 0.12784 0
0.885634 0.12784 0
0.885634 0.12784 0
0 0.0339513 0.0495308
0 0.0336614 0.0492561
0 0.0336614 0.0492561
0 0.0332189 0.0472419
0 0.0311131 0.0390326
0 0.0333715 0.051957
0.0153048 0.0375525 0.0717784
0.0501564 0.0478065 0.0897688
0.116014 0.0697642 0.115419
0.217411 0.0823377 0.1552
0.326452 0.0859236 0.210086
0.429496 0.14583 0.282734
0.533562 0.216037 0.358099
0.638209 0.177768 0.32137
0.760464 0 0
0.849958 0.0640269 0
0.885634 0.12784 0
0.885634 0.12784 0
0.885634 0.12784 0
0.885634 0.12784 0
0.885634 0.12784 0
0.885634 0.12784 0
0.885634 0.12784 0
0.885634 0.12784 0
0.885634 0.12784 0
0.885634 0.12784 0
0.885634 0.12784 0
0.885634 0.12784 0
0.885634 0.12784 0
0.885634 0.12784 0
0.885634 0.12784 0
0.885634 0.12784 0
0.885634 0.12784 0
0 0.0457923 0.0602731
0 0.0442359 0.0590066
0 0.042649 0.0576944
0 0.0427558 0.057084
0 0.0493935 0.0588693
0 0.0440681 0.057023
0.00102235 0.0359808 0.0701457
0.040116 0.0445869 0.086305
0.0999619 0.0645914 0.109682
0.198596 0.0821851 0.147478
0.311162 0.0798505 0.200916
0.416342 0.136889 0.272709
0.521218 0.208408 0.350072
0.626062 0.209796 0.354894
0.749676 0 0
0.836591 0.0876326 0
0.885634 0.12784 0
0.885634 0.12784 0
0.885634 0.12784 0
0.885634 0.12784 0
0.885634 0.12784 0
0.885634 0.12784 0
0.885634 0.12784 0
0.885634 0.12784 0
0.885634 0.12784 0
0.885634 0.12784 0
0.885634 0.12784 0
0.885634 0.12784 0
0.885634 0.12784 0
0.885634 0.12784 0
0.885634 0.12784 0
0.885634 0.12784 0
0.885634 0.12784 0
0 0.0623941 0.0738689
0 0.0607462 0.0725414
0 0.0589456 0.0710918
0 0.0569467 0.0694591
0 0.0678569 0.0768139
0 0.0640116 0.0771954
0 0.0559854 0.0805829
0.0281376 0.0492866 0.0905623
0.0840467 0.0542306 0.109606
0.182025 0.0739757 0.144045
0.297383 0.0745251 0.194705
0.403952 0.128618 0.263355
0.509911 0.201221 0.342519
0.615473 0.226413 0.372076
0.739849 0 0
0.827253 0.087068 0
0.885634 0.12784 0
0.885634 0.12784 0
0.885634 0.12784 0
0.885634 0.12784 0
0.885634 0.12784 0
0.885634 0.12784 0
0.885634 0.12784 0
0.885634 0.12784 0
0.885634 0.12784 0
0.885634 0.12784 0
0.885634 0.12784 0
0.885634 0.12784 0
0.885634 0.12784 0
0.885634 0.12784 0
0.885634 0.12784 0
0.885634 0.12784 0
0.885634 0.12784 0
0 0.0787366 0.0865034
0 0.076997 0.0852064
0 0.0752575 0.0839094
0 0.0734112 0.0825208
0 0.076112 0.0860456
0 0.0787671 0.0944991
0 0.0745251 0.0963149
0.0264591 0.0691997 0.104295
0.0790875 0.0579995 0.117433
0.169375 0.0645457 0.14519
0.286992 0.0704662 0.194293
0.397894 0.110323 0.261311
0.503288 0.186175 0.339223
0.606668 0.229999 0.375357
0.731853 0 0
0.823224 0.0548409 0
0.885634 0.12784 0
0.885634 0.12784 0
0.885634 0.12784 0
0.885634 0.12784 0
0.885634 0.12784 0
0.885634 0.12784 0
0.885634 0.12784 0
0.885634 0.12784 0
0.885634 0.12784 0
0.885634 0.12784 0
0.885634 0.12784 0
0.885634 0.12784 0
0.885634 0.12784 0
0.885634 0.12784 0
0.885634 0.12784 0
0.885634 0.12784 0
0.885634 0.12784 0
0 0.0964828 0.103822
0 0.0946059 0.101823
0 0.0927291 0.0998093
0 0.0908522 0.0977798
0 0.0900435 0.0985885
0 0.0936141 0.109468
0 0.0914321 0.114382
0.0255436 0.0872053 0.119768
0.0766308 0.0813611 0.132525
0.161242 0.0665599 0.151812
0.277104 0.0715038 0.196185
0.393362 0.0977951 0.261677
0.501793 0.163058 0.340734
0.607217 0.213672 0.387839
0.729793 0 0
0.824323 0.0271611 0
0.885634 0.12784 0
0.885634 0.12784 0
0.885634 0.12784 0
0.885634 0.12784 0
0.885634 0.12784 0
0.885634 0.12784 0
0.885634 0.12784 0
0.885634 0.12784 0
0.885634 0.12784 0
0.885634 0.12784 0
0.885634 0.12784 0
0.885634 0.12784 0
0.885634 0.12784 0
0.885634 0.12784 0
0.885634 0.12784 0
0.885634 0.12784 0
0.88658 0.127703 0
0 0.118578 0.126787
0 0.116243 0.124559
0 0.114214 0.122438
0 0.112306 0.120455
0 0.110201 0.118257
0 0.112367 0.125093
0 0.113344 0.134813
0.0242008 0.110414 0.138827
0.0688182 0.105577 0.148074
0.151369 0.0942092 0.164279
0.26331 0.0827649 0.199176
0.38616 0.0954299 0.261982
0.500008 0.146685 0.342901
0.609964 0.199817 0.401984
0.736095 0 0
0.840742 0.00263981 0.0107424
0.902022 0.123445 0.0770428
0.896223 0.125536 0.0602884
0.894606 0.125917 0.0462959
0.894652 0.125902 0.0467231
0.895338 0.125734 0.0528573
0.895979 0.125582 0.0583505
0.896834 0.125414 0.0652323
0.8981 0.125078 0.0721447
0.900023 0.124269 0.0745556
0.902235 0.123354 0.0773175
0.904768 0.122316 0.0804456
0.907591 0.121157 0.0838941
0.910628 0.119905 0.087602
0.913909 0.118563 0.0915694
0.917372 0.117449 0.0958114
0.921263 0.117494 0.100862
0.925307 0.117556 0.106096
0 0.149248 0.150179
0 0.146654 0.148836
0 0.144137 0.147539
0 0.141817 0.146334
0 0.139391 0.145083
0 0.139361 0.147677
0 0.141985 0.155138
0.00270085 0.140459 0.161837
0.0579538 0.137682 0.168765
0.131655 0.128573 0.180255
0.245472 0.113054 0.205249
0.374502 0.111055 0.263218
0.497292 0.144579 0.345922
0.616785 0.196155 0.417868
0.74641 0.0264897 0
0.853346 0.059678 0
0.939071 0.118074 0.123659
0.932998 0.117662 0.115938
0.931105 0.117632 0.113512
0.932128 0.117647 0.114824
0.934356 0.117693 0.117647
0.936492 0.117723 0.120363
0.938903 0.118044 0.123461
0.941619 0.118486 0.126925
0.94464 0.11899 0.130785
0.947814 0.119509 0.134829
0.951293 0.120089 0.139239
0.95494 0.120684 0.143816
0.958618 0.120867 0.148257
0.962341 0.120592 0.152544
0.966201 0.120317 0.15697
0.970138 0.120043 0.161486
0.974151 0.119753 0.166049
0 0.191546 0.165774
0 0.188952 0.165072
0 0.186892 0.164431
0 0.184955 0.163836
0 0.182895 0.163195
0 0.181491 0.162753
0 0.185061 0.169863
0 0.188678 0.179477
0.015198 0.186999 0.188876
0.101244 0.182712 0.200519
0.220233 0.170077 0.220706
0.361364 0.158999 0.26978
0.498222 0.17496 0.356619
0.626596 0.216144 0.440345
0.750607 0.128847 0.142138
0.871977 0.100633 0.0581826
0.980316 0.120623 0.120623
0.975601 0.119692 0.166186
0.974807 0.119707 0.166796
0.976654 0.11989 0.155993
0.979522 0.120455 0.128359
0.982376 0.121065 0.100618
0.985565 0.121843 0.0692912
0.989425 0.123095 0.0302739
0.99321 0.124102 0
0.995636 0.124819 0
0.996857 0.12546 0
0.998108 0.126101 0
0.999374 0.126757 0
1 0.127413 0
1 0.129381 0
1 0.132021 0
1 0.134646 0
0 0.25304 0.183429
0 0.250813 0.182727
0 0.249027 0.182177
0 0.247684 0.18175
0 0.246342 0.181338
0 0.245899 0.181201
0 0.248386 0.184634
0 0.258442 0.198154
0 0.26717 0.213886
0.0489052 0.267033 0.228595
0.181964 0.258976 0.241749
0.330419 0.245853 0.274006
0.477409 0.242512 0.351049
0.61709 0.265843 0.445411
0.748318 0.237781 0.377523
0.876753 0.207645 0.118364
0.991714 0.165331 0.025742
1 0.134035 0
1 0.134035 0
1 0.13576 0
1 0.138155 0
1 0.140414 0
1 0.142596 0
1 0.144915 0
1 0.14728 0
0.999893 0.149645 0
0.999084 0.164172 0
0.996582 0.204761 0.0456245
0.994842 0.244327 0.098085
0.993744 0.284535 0.147036
0.993057 0.323751 0.193347
0.992859 0.340032 0.206195
0.992889 0.341772 0.198444
0 0.337621 0.194141
0 0.336797 0.194141
0 0.336461 0.194141
0 0.336797 0.194141
0 0.337118 0.194141
0 0.338445 0.194141
0 0.339925 0.194125
0 0.348867 0.204105
0 0.363073 0.223316
0 0.371328 0.242893
0.123354 0.366659 0.261402
0.288106 0.354223 0.279026
0.443076 0.34374 0.332631
0.58648 0.347967 0.433494
0.722194 0.350805 0.462516
0.852491 0.315496 0.0722972
0.975784 0.317784 0.169177
0.992889 0.341741 0.198596
0.992889 0.342016 0.197375
0.992905 0.343496 0.190814
0.992935 0.345388 0.182391
0.992966 0.347219 0.174228
0.992996 0.344793 0.172412
0.993011 0.340627 0.173129
0.993042 0.33637 0.173846
0.993072 0.332189 0.174563
0.993103 0.328008 0.17528
0.993103 0.344518 0.154238
0.993164 0.361074 0.132891
0.993301 0.37731 0.111543
0.993515 0.39292 0.0905318
0.99382 0.408865 0.0683146
0.993255 0.420264 0.114687
0 0.435386 0
0 0.436377 0
0 0.437873 0
0 0.440024 0
0 0.442344 0
0 0.445808 0
0 0.449287 0
0 0.451926 0
0 0.466087 0.0111543
0.0199588 0.476402 0.0289006
0.103914 0.481407 0.0454566
0.245258 0.470314 0.133303
0.406683 0.455726 0.208148
0.550942 0.447623 0.345022
0.685496 0.45153 0.485695
0.814069 0.4271 0.0728923
0.937179 0.415625 0.0534524
0.993011 0.427314 0.143786
0.992935 0.429892 0.154177
0.992721 0.439811 0.193332
0.992523 0.452369 0.241474
0.992432 0.46389 0.284581
0.992477 0.470863 0.277684
0.992523 0.47744 0.267979
0.992584 0.483879 0.258412
0.99266 0.490318 0.248829
0.992721 0.496376 0.239734
0.992798 0.50161 0.229801
0.992889 0.507073 0.219394
0.992981 0.512856 0.208331
0.993088 0.518639 0.197208
0.993194 0.524422 0.184817
0.993225 0.530205 0.16466
0 0.536965 0.00976577
0 0.539742 0.0102541
0 0.54313 0.0108644
0 0.547143 0.0115816
0 0.551293 0.0123598
0 0.556527 0.0135958
0 0.561913 0.0148623
0 0.566369 0.0159152
0 0.573556 0.024094
0.0191348 0.585916 0.0444953
0.0878157 0.592996 0.0626841
0.211231 0.585702 0.0614633
0.373281 0.56846 0.0507362
0.520119 0.554604 0.0482338
0.65391 0.544076 0.0512398
0.780438 0.534966 0.0506905
0.903426 0.527794 0.0239261
0.993286 0.535775 0.144991
0.993317 0.537087 0.140322
0.993393 0.542138 0.122225
0.993545 0.54844 0.0992752
0.993606 0.553872 0.0872816
0.9935 0.558877 0.0881819
0.993393 0.56379 0.0890516
0.993301 0.568689 0.0899367
0.993194 0.573892 0.0908675
0.993103 0.579446 0.0910201
0.993072 0.58529 0.0897078
0.993027 0.591134 0.0883803
0.992996 0.596643 0.087129
0.992981 0.601938 0.0859388
0.993042 0.60708 0.0790112
0.993317 0.612345 0.0624094
0 0.638621 0.0276646
0 0.642969 0.0295262
0 0.6477 0.0315709
0 0.653101 0.0339208
0 0.658488 0.036286
0 0.664485 0.0387121
0 0.670161 0.0390631
0 0.674907 0.039292
0 0.678141 0.0393988
0.026154 0.687541 0.0594492
0.0775006 0.696178 0.0751354
0.17818 0.692607 0.0716869
0.339361 0.674769 0.0532235
0.491463 0.658701 0.0556344
0.625772 0.646906 0.0517128
0.75201 0.6374 0.0439002
0.873503 0.627848 0.0773785
0.975189 0.62385 0.0262303
0.994385 0.625147 0.0180209
0.994705 0.630823 0
0.99501 0.637766 0
0.995163 0.644221 0
0.995254 0.650843 0
0.995377 0.65771 0
0.995483 0.664576 0
0.99559 0.671168 0
0.995499 0.677119 0
0.995331 0.682429 0.00114443
0.995132 0.687251 0.0158236
0.994919 0.691234 0.0288548
0.994583 0.694392 0.0415808
0.994385 0.69688 0.0505226
0.994293 0.698543 0.0559854
0 0.735729 0.0217136
0 0.740581 0.0231632
0 0.745586 0.0245518
0 0.750286 0.0255131
0.0040589 0.754711 0.0262303
0.0244144 0.760494 0.0276799
0.0174105 0.76759 0.0272984
0.0112459 0.773754 0.0270085
0.00679026 0.778149 0.0268254
0.0871595 0.782101 0.0755474
0.0663462 0.794766 0.0808423
0.158038 0.794553 0.0767529
0.309178 0.777539 0.0411231
0.463432 0.758465 0.0599222
0.598215 0.745296 0.0605936
0.7243 0.734401 0.0531014
0.846601 0.724483 0.0387579
0.946609 0.719142 0.0563821
0.995819 0.721294 0.00579843
0.996139 0.727047 0
0.996506 0.734386 0
0.996612 0.740856 0
0.996735 0.747082 0
0.996826 0.753063 0
0.996933 0.758679 0
0.997024 0.763546 0
0.997086 0.76762 0
0.997116 0.770825 0
0.997147 0.773068 0
0.997162 0.774609 0
0.997177 0.775204 0
0.997177 0.775082 0
0.997162 0.774258 0
0.153903 0.817624 0.0709087
0.121172 0.825254 0.0688334
0.0728161 0.834104 0.0645914
0.0211337 0.843839 0.0604868
0 0.855222 0.0574655
0 0.864073 0.0623789
0.0247196 0.863844 0.0942245
0.0923323 0.866072 0.119738
0.13669 0.868223 0.137148
0.14374 0.872435 0.144656
0.156237 0.884428 0.123857
0.183871 0.88835 0.150423
0.234668 0.877226 0
0.437766 0.8533 0.114214
0.571496 0.8392 0.0771649
0.697063 0.827665 0.0904707
0.820386 0.81799 0.06009
0.922774 0.813916 0.0370642
0.995819 0.814511 0.0943313
0.995651 0.819257 0.117525
0.995651 0.82533 0.131029
0.996109 0.830686 0.105867
0.996582 0.835615 0.0822309
0.99704 0.839612 0.0624704
0.997513 0.842817 0.0458076
0.997986 0.845212 0.0322423
0.998154 0.846403 0.0259861
0.998215 0.846799 0.0239567
0.998154 0.846403 0.0259861
0.997986 0.845212 0.0322423
0.997528 0.842954 0.0450446
0.997116 0.840269 0.0591592
0.99675 0.837156 0.0747082
0.0275883 0.910613 0.0507668
0 0.924987 0.0087129
0 0.930465 0
0.0247807 0.932952 0
0.0741588 0.937179 0
0.123613 0.942275 0
0.15584 0.947463 0.0127871
0.168963 0.951537 0.0608835
0.177646 0.954314 0.0915847
0.179065 0.956634 0.10132
0.108278 0.969711 0.224887
0.0708171 0.977218 0.170016
0.325689 0.958846 0.153903
0.388678 0.942962 0.0019379
0.560067 0.926009 0.0928206
0.690669 0.916793 0
0.812177 0.903975 0.0781262
0.913039 0.898177 0.0747387
0.988418 0.897826 0.0822003
0.998001 0.900755 0.101076
0.998703 0.905104 0.0659648
0.999512 0.908309 0.0384985
0.999969 0.910307 0.0217746
1 0.911254 0.0139773
1 0.911391 0.0128939
1 0.910704 0.0184024
0.999741 0.909194 0.0310369
0.999023 0.90663 0.0532845
0.998444 0.903624 0.0780041
0.99794 0.900374 0.104143
0.997452 0.896681 0.133211
0.997009 0.892805 0.163363
0.996597 0.888624 0.195651
0.316808 0.975906 0.272114
0.389425 0.98117 0.310582
0.459846 0.986587 0.348089
0.530617 0.992294 0.385931
0.530617 0.992294 0.385931
0.530617 0.992294 0.385931
0.530617 0.992294 0.385931
0.530617 0.992294 0.385931
0.530617 0.992294 0.385931
0.464302 0.996506 0.362371
0.377111 1 0.363241
0.415839 1 0.413687
0.231418 1 0.218189
0.144564 1 0.0806134
0.577493 1 0.19382
0.697108 0.987716 0.160342
0.816815 0.974334 0.207385
0.916991 0.968063 0.0374609
0.987076 0.962646 0.196399
0.998749 0.962982 0.206165
0.998688 0.964019 0.216999
0.998688 0.963821 0.214832
0.998734 0.963088 0.207248
0.998825 0.96173 0.193072
0.998978 0.959777 0.172122
0.999191 0.957549 0.147478
0.999512 0.954864 0.116442
0.999969 0.952087 0.0816358
1 0.949477 0.0372931
1 0.946456 0
1 0.942687 0
1 0.938552 0
1 0.93431 0
0.530617 0.992294 0.385931
0.530617 0.992294 0.385931
0.530617 0.992294 0.385931
0.530617 0.992294 0.385931
0.530617 0.992294 0.385931
0.530617 0.992294 0.385931
0.530617 0.992294 0.385931
0.530617 0.992294 0.385931
0.530617 0.992294 0.385931
0.41265 1 0.348363
0.389059 1 0.377951
0.427848 1 0.405112
0.363851 1 0.311681
0.354009 1 0.161273
0.569192 1 0.0726482
0.710063 1 0.268635
0.823835 1 0.276844
0.918944 0.999847 0.226596
0.992401 1 0
1 1 0
1 1 0
1 1 0
1 1 0
1 1 0
1 1 0
1 0.997833 0.0391546
1 0.992996 0.0834516
1 0.988373 0.123995
0.999634 0.983886 0.162615
0.999176 0.979492 0.200092
0.998779 0.975143 0.236759
0.998459 0.971099 0.270802
0.998505 0.967498 0.252323
0.530617 0.992294 0.385931
0.530617 0.992294 0.385931
0.530617 0.992294 0.385931
0.530617 0.992294 0.385931
0.530617 0.992294 0.385931
0.530617 0.992294 0.385931
0.530617 0.992294 0.385931
0.530617 0.992294 0.385931
0.530617 0.992294 0.385931
0.399649 1 0.352956
0.436561 1 0.407279
0.410498 1 0.376852
0.158373 1 0.166567
0.398413 1 0.118746
0.564599 1 0
0.71519 1 0.253407
0.825544 1 0.283772
0.918364 0.999847 0.225956
0.989746 1 0
1 1 0
1 1 0
1 1 0
1 1 0
1 1 0
1 1 0
1 1 0
1 1 0
1 1 0
1 1 0
1 1 0
1 1 0
1 1 0
1 1 0
0.530617 0.992294 0.385931
0.530617 0.992294 0.385931
0.530617 0.992294 0.385931
0.530617 0.992294 0.385931
0.530617 0.992294 0.385931
0.530617 0.992294 0.385931
0.530617 0.992294 0.385931
0.530617 0.992294 0.385931
0.529747 0.992355 0.385611
0.39324 1 0.354742
0.440253 1 0.411337
0.343618 1 0.325246
0.130892 1 0.147127
0.394919 1 0.124773
0.567147 1 0.0248417
0.708354 1 0.273701
0.817838 1 0.2542
0.909575 0.999939 0.222324
0.97998 1 0
1 1 0
1 1 0
1 1 0
1 1 0
1 1 0
1 1 0
1 1 0
1 1 0
1 1 0
1 1 0
1 1 0
1 1 0
1 1 0
1 1 0
0.530617 0.992294 0.385931
0.530617 0.992294 0.385931
0.530617 0.992294 0.385931
0.530617 0.992294 0.385931
0.530617 0.992294 0.385931
0.530617 0.992294 0.385931
0.530617 0.992294 0.385931
0.530617 0.992294 0.385931
0.515404 0.993255 0.380499
0.392584 1 0.354925
0.445258 1 0.413367
0.403311 1 0.371298
0.231418 1 0.218189
0.366629 1 0.166079
0.57348 1 0.138933
0.695415 1 0.311727
0.805737 1 0.238926
0.897612 0.999451 0.310094
0.966674 1 0.0361639
1 1 0
1 1 0
1 1 0
1 1 0
1 1 0
1 1 0
1 1 0
1 1 0
1 1 0
1 1 0
1 1 0
1 1 0
1 1 0
1 1 0
0.530617 0.992294 0.385931
0.530617 0.992294 0.385931
0.530617 0.992294 0.385931
0.530617 0.992294 0.385931
0.530617 0.992294 0.385931
0.530617 0.992294 0.385931
0.530617 0.992294 0.385931
0.530617 0.992294 0.385931
0.530617 0.992294 0.385931
0.396521 1 0.353826
0.430686 1 0.403647
0.428122 1 0.398428
0.400473 1 0.337545
0.207706 1 0.105333
0.58378 1 0.269352
0.686046 1 0.353277
0.792157 1 0.221683
0.885069 0.999161 0.400946
0.952087 1 0.154574
1 1 0
1 1 0
1 1 0
1 1 0
1 1 0
1 1 0
1 1 0
1 1 0
1 1 0
1 1 0
1 1 0
1 1 0
1 1 0
1 1 0
0.530617 0.992294 0.385931
0.530617 0.992294 0.385931
0.530617 0.992294 0.385931
0.530617 0.992294 0.385931
0.530617 0.992294 0.385931
0.530617 0.992294 0.385931
0.530617 0.992294 0.385931
0.530617 0.992294 0.385931
0.530617 0.992294 0.385931
0.403174 1 0.351736
0.401205 1 0.385428
0.427634 1 0.410651
0.267292 1 0.243519
0.0151522 1 0.0296788
0.572808 1 0.323278
0.678233 1 0.393164
0.779873 1 0.165438
0.873625 0.999207 0.419104
0.9402 0.999573 0.246494
0.995148 1 0
1 1 0
1 1 0
1 1 0
1 1 0
1 1 0
1 1 0
1 1 0
1 1 0
1 1 0
1 1 0
1 1 0
1 1 0
1 1 0
0.530617 0.992294 0.385931
0.530617 0.992294 0.385931
0.530617 0.992294 0.385931
0.530617 0.992294 0.385931
0.530617 0.992294 0.385931
0.530617 0.992294 0.385931
0.530617 0.992294 0.385931
0.530617 0.992294 0.385931
0.530617 0.992294 0.385931
0.410925 1 0.348974
0.373465 1 0.367559
0.419196 1 0.41561
0.0704814 1 0.104112
0.0592966 1 0.105165
0.551492 1 0.331212
0.662882 1 0.358755
0.768215 1 0.0767681
0.861646 0.99939 0.399374
0.928862 0.99971 0.23743
0.984009 1 0
1 1 0
1 1 0
1 1 0
1 1 0
1 1 0
1 1 0
1 1 0
1 1 0
1 1 0
1 1 0
1 1 0
1 1 0
1 1 0
0.530617 0.992294 0.385931
0.530617 0.992294 0.385931
0.530617 0.992294 0.385931
0.530617 0.992294 0.385931
0.530617 0.992294 0.385931
0.530617 0.992294 0.385931
0.530617 0.992294 0.385931
0.530617 0.992294 0.385931
0.530617 0.992294 0.385931
0.41796 0.999649 0.346471
0.376654 1 0.36379
0.387228 1 0.397436
0 1 0.00579843
0.265827 1 0.264225
0.529137 1 0.326192
0.633463 1 0.200778
0.757427 1 0
0.849653 0.999588 0.378988
0.917662 0.999863 0.225208
0.972595 1 0
1 1 0
1 1 0
1 1 0
1 1 0
1 1 0
1 1 0
1 1 0
1 1 0
1 1 0
1 1 0
1 1 0
1 1 0
1 1 0
0.530617 0.992294 0.385931
0.530617 0.992294 0.385931
0.530617 0.992294 0.385931
0.530617 0.992294 0.385931
0.530617 0.992294 0.385931
0.530617 0.992294 0.385931
0.530617 0.992294 0.385931
0.530617 0.992294 0.385931
0.530617 0.992294 0.385931
