A-tak/A-tak Cloudy Cafe for BMPCC.cube
TITLE "Generated by Resolve"
LUT_3D_SIZE 5
0 0.0336614 0.0492561
0.148806 0.0774548 0.127764
0.885634 0.12784 0
0.885634 0.12784 0
0.885634 0.12784 0
0 0.149248 0.150179
0.0579538 0.137682 0.168765
0.939071 0.118074 0.123659
0.94464 0.11899 0.130785
0.974151 0.119753 0.166049
0.153903 0.817624 0.0709087
0.13669 0.868223 0.137148
0.820386 0.81799 0.06009
0.997513 0.842817 0.0458076
0.99675 0.837156 0.0747082
0.530617 0.992294 0.385931
0.530617 0.992294 0.385931
0.779873 1 0.165438
1 1 0
1 1 0
0.530617 0.992294 0.385931
0.530617 0.992294 0.385931
0.686259 1 0.352163
1 1 0
1 1 0
0 0 0
0.129458 0.147982 0.319081
0.888106 0.168658 0.0512093
0.908766 0 0
0.90721 0 0.0115206
0 0.137881 0.204501
0.0610971 0.130449 0.189685
0.956588 0.0591897 0.0296483
0.976501 0.0284886 0.115419
0.992264 0.1523 0.165484
0.0602121 0.836454 0.0635386
0.239918 0.881804 0.170565
0.839048 0.83476 0.022446
0.997986 0.845212 0.0322423
0.995636 0.825193 0.131609
0.493126 0.995804 0.305852
0.533196 0.993118 0.376959
0.76669 1 0.0630198
1 1 0
1 1 0
0.530617 0.992294 0.385931
0.530617 0.992294 0.385931
0.678004 1 0.394263
1 1 0
1 1 0
0 0.155322 0.95848
0.106828 0 0.958846
0.897856 0.112123 0.904112
0.898405 0.102144 0.896406
0.90045 0.0751965 0.877134
0.0084535 0.0961166 0.966247
0.117494 0 0.983474
0.947402 0.0612345 0.956497
0.969696 0.120623 0.970733
0.994079 0.271244 0.99353
0.0372931 0.820371 0.842588
0 0.879393 0.900969
0.813764 0.812726 0.839673
0.996262 0.805432 0.830259
0.995819 0.778943 0.804257
0.242023 1 0.90808
0.17528 1 0.875593
0.710948 1 0.738231
0.999435 0.999405 0.6795
0.999435 0.999405 0.649775
0.299641 1 0.812192
0 1 0.789792
0.604837 1 0.644648
0.999466 0.99942 0.576715
0.999496 0.999451 0.550378
0 0.155322 0.95848
0.099321 0 0.95996
0.897856 0.112123 0.904112
0.897856 0.112123 0.904112
0.897856 0.112123 0.904112
0 0.129915 0.968826
0.128069 0 0.983368
0.958373 0.0669566 0.962325
0.976638 0.155947 0.977203
0.997604 0.263172 0.99678
0 0.840528 1
0.326696 0.875135 0.994842
0.822416 0.818357 0.997955
0.996719 0.794308 0.996674
0.996323 0.763287 0.996277
0 1 1
0 1 1
0.690059 1 1
1 1 1
1 1 1
0 1 1
0 1 1
0.609018 1 1
1 1 1
0.999924 0.999924 0.973342
0 0.155322 0.95848
0.07776 0.0462654 0.954009
0.892393 0.0756237 0.906874
0.897856 0.112123 0.904112
0.897856 0.112123 0.904112
0 0.141924 0.96936
0.0933547 0.0172885 0.98294
0.967605 0.109026 0.96878
0.986679 0.205234 0.986572
1 0.137652 1
0.134356 0.848753 0.998779
0.382361 0.891066 0.994583
0.826703 0.821607 0.997986
0.996612 0.785992 0.996567
0.996201 0.753079 0.996139
0 1 1
0 1 1
0.680674 1 1
1 1 1
1 1 1
0 1 1
0 1 1
0.597589 1 1
1 1 1
1 1 1
