A-tak/A-tak Teal Film Room33 1.0.cube
TITLE "Generated by Resolve"
LUT_3D_SIZE 33
0.065507 0.065507 0.065507
0.0423438 0.0644999 0.0623331
0.018967 0.0637064 0.0585184
0 0.0624094 0.0529335
0.080293 0.0663157 0.076585
0.0921035 0.0678111 0.0817884
0.1066 0.0709697 0.08925
0.124102 0.0767987 0.0989242
0.149691 0.0854505 0.109377
0.18291 0.0952926 0.121691
0.221057 0.102632 0.136294
0.261341 0.102754 0.152712
0.30045 0.0983291 0.170077
0.336889 0.0967269 0.188495
0.370718 0.108827 0.208957
0.402716 0.124681 0.230961
0.43331 0.142611 0.253895
0.463157 0.161654 0.277089
0.492378 0.181048 0.299901
0.521172 0.200076 0.32163
0.549981 0.217563 0.341344
0.578332 0.231693 0.356985
0.606485 0.236622 0.364431
0.634409 0.225406 0.35346
0.662242 0.152239 0.271321
0.690425 0.0255131 0
0.718761 0 0
0.746853 0.01738 0
0.774731 0.0544442 0
0.802426 0 0
0.830274 0.109255 0
0.858396 0.0551461 0
0.886564 0.13257 0
0.0622416 0.0722057 0.0718853
0.0601511 0.0823377 0.0761425
0.0481422 0.0807965 0.0767529
0.0525216 0.0793622 0.0787671
0.0638743 0.0763104 0.0814221
0.0803235 0.0640116 0.0836194
0.10161 0.0706951 0.0928817
0.121477 0.0760204 0.102724
0.149218 0.0820172 0.113222
0.183841 0.0890669 0.125505
0.222675 0.0950027 0.140154
0.26305 0.0961624 0.156619
0.302403 0.0936751 0.17406
0.339406 0.0932326 0.192752
0.373739 0.103456 0.213336
0.406058 0.117159 0.23537
0.436988 0.132845 0.258366
0.467247 0.150866 0.281819
0.497063 0.169116 0.305074
0.526467 0.186648 0.32726
0.55552 0.204028 0.347189
0.584146 0.216907 0.362966
0.612619 0.221073 0.370687
0.64097 0.211719 0.360204
0.669245 0.14403 0.27892
0.697704 0 0
0.726329 0 0
0.754925 0.0172274 0
0.783444 0.0693523 0
0.811719 0.107179 0.0498054
0.840299 0 0.00764477
0.869581 0.150561 0
0.899672 0.131258 0.0747387
0.0493935 0.081529 0.079469
0.0765545 0.0927901 0.0874952
0.0575418 0.0914626 0.0874647
0.0565652 0.0901961 0.0890974
0.0681468 0.0889754 0.0924697
0.0851301 0.0872816 0.0972305
0.104631 0.084947 0.103563
0.125063 0.0784009 0.110109
0.150011 0.0766308 0.117784
0.186114 0.0834974 0.130678
0.225727 0.0894026 0.145769
0.26627 0.0918898 0.162417
0.305867 0.0910964 0.179904
0.343053 0.0914778 0.198459
0.377844 0.100114 0.219089
0.410742 0.11194 0.241306
0.44213 0.126024 0.264485
0.47274 0.14197 0.288029
0.502907 0.158785 0.311452
0.532586 0.17612 0.333852
0.562066 0.192432 0.35407
0.591012 0.204486 0.370108
0.619776 0.210544 0.37821
0.648692 0.20148 0.368292
0.67747 0.137301 0.287861
0.706462 0.00355535 0
0.735637 0.0269627 0
0.765011 0.00271611 0
0.795132 0.064622 0.00672923
0.825666 0 0
0.856352 0.030518 0.0721447
0.887098 0.173114 0.0803693
0.918074 0.124102 0.0930495
0.0136416 0.0915847 0.0874342
0.0168765 0.0957961 0.0916762
0.0747692 0.101076 0.101015
0.0644388 0.0994125 0.101549
0.0745251 0.0983749 0.104662
0.0915541 0.0973526 0.109453
0.111437 0.0961776 0.115923
0.133684 0.0946517 0.12401
0.162997 0.0911116 0.132326
0.191989 0.0805066 0.138247
0.229831 0.0878767 0.152987
0.270085 0.0918746 0.169558
0.309804 0.0927138 0.186908
0.347234 0.0939345 0.205325
0.3823 0.100755 0.225666
0.415503 0.110506 0.247715
0.44744 0.122789 0.271046
0.478416 0.137118 0.294682
0.508766 0.152712 0.31812
0.538766 0.168475 0.340642
0.568719 0.183154 0.361135
0.598306 0.195727 0.377813
0.627802 0.20209 0.386572
0.65713 0.190814 0.376944
0.686915 0.127581 0.297429
0.717693 0.0410315 0
0.749126 0 0
0.780621 0.0466011 0
0.812039 0.00602731 0
0.843275 0.0930953 0.0306706
0.874739 0.0246128 0.0395514
0.906432 0.16965 0.0648051
0.938216 0.124193 0.114824
0 0.102327 0.0953689
0 0.104494 0.100984
0.043122 0.108186 0.109453
0.0755932 0.109941 0.115084
0.0814374 0.109224 0.117708
0.0972305 0.108507 0.122103
0.116457 0.107759 0.128115
0.138445 0.106844 0.135775
0.167941 0.104341 0.143801
0.202365 0.100984 0.152987
0.238407 0.0970779 0.163882
0.27364 0.0961318 0.177172
0.312947 0.0983902 0.194003
0.350576 0.100237 0.212146
0.385977 0.105592 0.23212
0.419623 0.113466 0.254002
0.451774 0.123827 0.277073
0.483299 0.136126 0.300832
0.51429 0.150118 0.32459
0.544823 0.164614 0.347417
0.575463 0.178973 0.36849
0.606485 0.19266 0.386542
0.637858 0.19942 0.397086
0.669459 0.193942 0.389899
0.700969 0.139559 0.312901
0.732784 0.0425422 0.0043946
0.765286 0.0572366 0.0159457
0.797528 0.0567788 0.0125734
0.829709 0.00291447 0
0.861631 0.0758679 0.0104982
0.893507 0.0213626 0
0.925643 0.139818 0
0.958038 0.126925 0.136599
0 0.114183 0.108202
0 0.116136 0.113146
0.00166323 0.118624 0.119356
0.0939651 0.123156 0.130602
0.0879988 0.122179 0.131426
0.101915 0.121965 0.135454
0.120363 0.121645 0.141009
0.141817 0.121004 0.147921
0.171054 0.118868 0.1552
0.205249 0.115724 0.163394
0.241505 0.112535 0.17351
0.278584 0.109606 0.185809
0.315465 0.10782 0.201266
0.353155 0.110338 0.21912
0.389166 0.114595 0.238865
0.423285 0.120989 0.260456
0.45597 0.129641 0.283452
0.488334 0.140764 0.307576
0.520882 0.154162 0.332479
0.553887 0.169482 0.357534
0.586648 0.183841 0.380468
0.618936 0.197208 0.399619
0.651194 0.205127 0.411078
0.683543 0.200534 0.404639
0.716014 0.149172 0.329274
0.748974 0.0756085 0.0250858
0.78175 0.0830549 0.029572
0.814359 0.101946 0.0582284
0.846891 0.0597696 0.00671397
0.879225 0.0783856 0.0317388
0.911559 0.0276799 0.0112459
0.944045 0.0873579 0.00859083
0.976425 0.12549 0.15523
0 0.128206 0.123064
0 0.130404 0.127657
0 0.132723 0.132937
0.0424964 0.135225 0.139513
0.0990311 0.137774 0.147265
0.105974 0.137484 0.149844
0.123293 0.137606 0.154864
0.144228 0.137377 0.161135
0.172915 0.135332 0.167346
0.206867 0.132372 0.174533
0.243137 0.129458 0.183688
0.280674 0.126879 0.195163
0.318898 0.124865 0.209186
0.356054 0.123751 0.22707
0.393057 0.128145 0.247211
0.429007 0.134737 0.26978
0.463996 0.143755 0.294301
0.498299 0.154482 0.319707
0.532311 0.16733 0.345617
0.56585 0.181216 0.370825
0.599435 0.195254 0.394369
0.632685 0.207965 0.414267
0.66569 0.216846 0.426413
0.698528 0.21268 0.420508
0.731624 0.172778 0.346929
0.764675 0.117327 0.0513924
0.797879 0.119097 0.0414588
0.830808 0.136553 0.082887
0.863554 0.145937 0.0810712
0.896376 0.104875 0.0873732
0.928832 0.0266728 0
0.961364 0.213611 0.190188
0.993866 0.12784 0
0 0.14493 0.138689
0 0.147097 0.142763
0 0.149462 0.147448
0.0183413 0.151812 0.152911
0.0740215 0.154009 0.159411
0.11046 0.155642 0.165194
0.124681 0.155993 0.169253
0.144884 0.156207 0.174914
0.17348 0.154726 0.180529
0.207584 0.152132 0.186847
0.244465 0.149599 0.195178
0.283528 0.148165 0.206607
0.323674 0.147631 0.220981
0.363363 0.148333 0.238499
0.401373 0.149462 0.259937
0.438224 0.156634 0.283421
0.474174 0.165011 0.30808
0.509468 0.175036 0.333745
0.544137 0.186587 0.359686
0.578317 0.198993 0.385046
0.612299 0.211643 0.408637
0.645869 0.223758 0.428641
0.679591 0.230945 0.44126
0.712856 0.230365 0.436194
0.745907 0.195972 0.363836
0.779126 0.144854 0.0517128
0.812528 0.161547 0.0751965
0.845685 0.16669 0.0606546
0.878965 0.132967 0.0403601
0.91162 0.188235 0.111742
0.944121 0.176181 0.0814679
0.976593 0.163394 0.0606241
1 0.130556 0
0 0.165621 0.148989
0 0.167987 0.152911
0 0.170489 0.157275
0 0.173053 0.162325
0.0454871 0.175509 0.168139
0.0919203 0.177752 0.174975
0.121813 0.179416 0.180453
0.140764 0.180331 0.18558
0.170397 0.180285 0.191455
0.206577 0.179843 0.198642
0.245579 0.179294 0.207645
0.28571 0.178668 0.21857
0.326635 0.178531 0.232059
0.367056 0.179461 0.248631
0.406271 0.181674 0.268376
0.443778 0.185138 0.291722
0.479927 0.193072 0.318212
0.515465 0.201984 0.343359
0.5505 0.21207 0.368933
0.585107 0.223102 0.394125
0.61944 0.23473 0.417655
0.653544 0.245228 0.437812
0.687175 0.252949 0.450324
0.720607 0.250568 0.445243
0.753902 0.222065 0.374609
0.78732 0.187655 0.0723583
0.820798 0.190249 0.08365
0.854322 0.192065 0.0931258
0.887282 0.205722 0.120729
0.919905 0.214817 0.0794537
0.952377 0.172412 0.0704509
0.984817 0.22504 0.127871
1 0.141695 0
0 0.189456 0.155657
0 0.192386 0.159884
0 0.195392 0.164446
0 0.198566 0.16968
0.00590524 0.201846 0.175723
0.0617075 0.205554 0.183093
0.108736 0.209735 0.192355
0.139727 0.212985 0.19913
0.169177 0.213993 0.20473
0.205722 0.214221 0.211292
0.245151 0.214145 0.219379
0.286107 0.214176 0.229541
0.327626 0.21442 0.241993
0.368444 0.21532 0.257237
0.40827 0.217563 0.275853
0.446006 0.220798 0.297368
0.482277 0.225177 0.32221
0.517891 0.233478 0.350103
0.55314 0.24242 0.375189
0.588129 0.252384 0.400092
0.622827 0.262867 0.423453
0.65687 0.272862 0.443305
0.690623 0.279118 0.455634
0.724117 0.277104 0.45066
0.757412 0.254383 0.382177
0.791089 0.232044 0.0859388
0.824613 0.227665 0.0723888
0.857771 0.241306 0.118166
0.890639 0.237842 0.112261
0.92311 0.260548 0.180545
0.955352 0.216968 0.0423133
0.9879 0.234791 0.0856184
1 0.152117 0
0 0.216251 0.161685
0 0.220768 0.167285
0 0.225834 0.173632
0 0.230991 0.180545
0 0.235721 0.187549
0.0344396 0.240162 0.195041
0.0855726 0.244663 0.203632
0.132784 0.249485 0.213993
0.169711 0.25156 0.219242
0.205646 0.252033 0.224628
0.245045 0.252171 0.23151
0.286107 0.252323 0.24033
0.328038 0.252766 0.251514
0.369345 0.253895 0.265553
0.409033 0.255589 0.282322
0.446891 0.258366 0.302235
0.483375 0.262272 0.325216
0.519081 0.267262 0.351461
0.554528 0.275929 0.380789
0.589593 0.284825 0.405203
0.624201 0.293828 0.427878
0.658244 0.302083 0.447211
0.691981 0.308736 0.459434
0.72546 0.307912 0.454734
0.758968 0.289479 0.389212
0.792325 0.268956 0.0828107
0.825589 0.271092 0.0681468
0.858518 0.268681 0.074464
0.891218 0.279988 0.116365
0.923476 0.265675 0.045655
0.955825 0.273976 0.0471351
0.987671 0.296544 0.148318
1 0.331167 0.199512
0 0.250111 0.170993
0 0.255695 0.177539
0 0.26154 0.184451
0 0.26743 0.191852
0 0.27303 0.199451
0.00978103 0.278157 0.207202
0.0675059 0.283268 0.215747
0.114458 0.287694 0.224735
0.165759 0.290593 0.233722
0.206348 0.291585 0.23743
0.24535 0.291905 0.242954
0.286381 0.29218 0.250401
0.328435 0.292714 0.260182
0.369589 0.293523 0.272419
0.409445 0.295048 0.287648
0.44741 0.297459 0.30602
0.483909 0.300801 0.327382
0.519982 0.305303 0.351934
0.555062 0.310552 0.379507
0.589837 0.318929 0.409583
0.62443 0.326925 0.43183
0.658412 0.334279 0.450645
0.692164 0.339864 0.462608
0.725597 0.340444 0.458259
0.758648 0.326604 0.395346
0.79173 0.308583 0.070573
0.824811 0.31043 0.0774395
0.85745 0.316777 0.0816358
0.889921 0.311803 0.0372168
0.921904 0.317937 0.148898
0.953643 0.33373 0.179904
0.985199 0.327382 0.188205
1 0.339513 0.163775
0 0.287129 0.177813
0 0.293645 0.185183
0 0.300145 0.19263
0 0.306432 0.200366
0 0.312612 0.208286
0 0.318059 0.216114
0.0552071 0.323156 0.224338
0.103258 0.327672 0.232975
0.15169 0.330327 0.240925
0.204456 0.331991 0.249393
0.246494 0.332845 0.252262
0.287144 0.333089 0.25803
0.328847 0.333333 0.265995
0.369909 0.333959 0.2766
0.409628 0.335164 0.29015
0.447547 0.33724 0.306966
0.484245 0.340261 0.327077
0.519905 0.343694 0.349798
0.55491 0.34789 0.375311
0.589364 0.353109 0.40441
0.623636 0.361089 0.435111
0.657572 0.367864 0.453758
0.691188 0.372778 0.4654
0.724224 0.373663 0.461067
0.756924 0.36257 0.40148
0.789563 0.348089 0.0757763
0.822293 0.349554 0.0847334
0.854841 0.351034 0.0792554
0.886915 0.350088 0.0764172
0.918364 0.345968 0.0328069
0.949615 0.358724 0.118044
0.980819 0.380179 0.146563
1 0.320424 0.166735
0 0.325872 0.176135
0 0.332708 0.183841
0 0.33962 0.191775
0 0.346548 0.200122
0 0.352682 0.208072
0.00209049 0.358251 0.216083
0.057084 0.363455 0.224475
0.101091 0.368109 0.233219
0.147387 0.370779 0.241245
0.195789 0.372488 0.249653
0.246693 0.37348 0.258747
0.288594 0.373587 0.259663
0.329946 0.373663 0.265675
0.37084 0.374075 0.274617
0.410452 0.375036 0.286748
0.448402 0.376867 0.302373
0.484565 0.378988 0.320897
0.519936 0.381613 0.342443
0.554726 0.384848 0.366888
0.588998 0.388815 0.394156
0.623224 0.394049 0.425635
0.656596 0.401266 0.456825
0.689616 0.405676 0.468315
0.722347 0.406516 0.46421
0.754788 0.398932 0.40911
0.787167 0.386358 0.0720073
0.819608 0.386603 0.0756542
0.851499 0.388174 0.0716716
0.883116 0.386465 0.0625772
0.914397 0.394842 0.102373
0.945418 0.380285 0
0.976532 0.374899 0
1 0.398611 0.0739605
0 0.365087 0.145541
0 0.372122 0.153628
0 0.379538 0.162646
0 0.386374 0.171405
0 0.392676 0.180194
0.0411994 0.398383 0.189105
0.078584 0.403616 0.198688
0.114443 0.408499 0.209155
0.153674 0.411109 0.218601
0.197604 0.412299 0.22855
0.242496 0.41294 0.239536
0.29012 0.413382 0.251301
0.331838 0.413077 0.248951
0.372702 0.413443 0.256031
0.411994 0.413931 0.266819
0.449424 0.41503 0.28159
0.485374 0.416602 0.300038
0.520394 0.418463 0.321752
0.554757 0.420706 0.346456
0.588907 0.423728 0.374243
0.622553 0.427115 0.404639
0.655558 0.431678 0.439582
0.688243 0.437858 0.471122
0.7205 0.438758 0.46804
0.75259 0.433158 0.417563
0.784772 0.423163 0.0633249
0.816846 0.42414 0.0780957
0.848539 0.425361 0.0932479
0.879957 0.426307 0.0554208
0.91104 0.432212 0.134585
0.942092 0.430396 0.128389
0.973068 0.424445 0
1 0.454002 0.271031
0.0099031 0.40441 0.00842298
0.0209049 0.41181 0.0150454
0.035523 0.418997 0.0222019
0.055314 0.425864 0.0297856
0.0720531 0.43212 0.0355993
0.092134 0.437766 0.0409857
0.11606 0.443198 0.0469062
0.141054 0.447745 0.0517586
0.172992 0.450065 0.0539712
0.210101 0.450919 0.069749
0.249378 0.451179 0.112978
0.290745 0.451164 0.151476
0.334096 0.451347 0.181857
0.374548 0.450828 0.163165
0.413581 0.450782 0.173816
0.450721 0.451225 0.194095
0.486336 0.452171 0.220706
0.521157 0.453391 0.251728
0.55552 0.4551 0.285679
0.588937 0.456748 0.320928
0.622065 0.458762 0.357549
0.654719 0.461524 0.396231
0.68716 0.465522 0.440101
0.719676 0.470573 0.472023
0.751492 0.466911 0.427436
0.783215 0.457862 0.0558175
0.815137 0.4589 0.0582284
0.846723 0.460517 0.0808118
0.87808 0.460014 0.0323186
0.909209 0.462394 0.119631
0.939986 0.462303 0.0869154
0.970718 0.458061 0.074342
1 0.485237 0.226261
0.0105287 0.444373 0.0125887
0.0330358 0.451621 0.0206149
0.0453651 0.458793 0.0274052
0.057145 0.465644 0.0339208
0.0789197 0.471855 0.0417334
0.0993057 0.477714 0.0469062
0.119463 0.482658 0.0512398
0.144274 0.4869 0.0548867
0.176379 0.489052 0.0579385
0.214282 0.489677 0.0582895
0.254505 0.489754 0.0588083
0.29482 0.489204 0.0572824
0.336187 0.488365 0.0571603
0.376577 0.487694 0.0563973
0.415412 0.487297 0.0561532
0.452201 0.487221 0.0558175
0.487648 0.487648 0.0555428
0.521996 0.487968 0.0573281
0.555703 0.488396 0.0574807
0.588922 0.488899 0.057847
0.62182 0.489357 0.0568246
0.654261 0.490639 0.21442
0.686809 0.49305 0.320562
0.718975 0.496529 0.404135
0.750973 0.499168 0.434592
0.782544 0.492485 0.0677653
0.814298 0.492546 0.0688029
0.845792 0.493202 0.0413062
0.877241 0.495933 0.101213
0.908049 0.494224 0
0.938766 0.500679 0.139803
0.96936 0.498833 0
1 0.512184 0.177432
0.0179446 0.483864 0.0177768
0.0340124 0.49102 0.025452
0.0429541 0.498039 0.031342
0.0562753 0.504799 0.0369879
0.0795148 0.510994 0.0445258
0.100435 0.51635 0.0506294
0.124437 0.521096 0.0560006
0.147372 0.525017 0.0590829
0.180652 0.526741 0.0615702
0.217838 0.527199 0.0618906
0.257389 0.526879 0.0618448
0.29778 0.525948 0.0611887
0.338262 0.524697 0.0584421
0.378347 0.523537 0.0571603
0.416846 0.522713 0.0575418
0.453605 0.522637 0.0571756
0.488624 0.522637 0.0568856
0.522744 0.522744 0.0559091
0.556237 0.522957 0.0561685
0.589258 0.523278 0.0578317
0.622049 0.523613 0.0584115
0.654597 0.524315 0.0618296
0.686625 0.524727 0.0610361
0.718486 0.525139 0.0592966
0.750347 0.525551 0.0555581
0.782177 0.525994 0.0581826
0.814115 0.526909 0.0707561
0.845441 0.527611 0.0886244
0.876524 0.528267 0.0707103
0.907271 0.528786 0.0731212
0.937881 0.529381 0.00573739
0.96846 0.531838 0.154589
0.999252 0.539284 0.0889754
0.0285649 0.522591 0.0227359
0.0504005 0.529564 0.0319371
0.0444343 0.536522 0.0349584
0.0627298 0.543099 0.043946
0.092195 0.54876 0.0502937
0.11107 0.553689 0.0573739
0.130922 0.558099 0.061738
0.151644 0.561746 0.0643626
0.184161 0.563455 0.0648508
0.22031 0.563256 0.0648051
0.258778 0.562325 0.0637217
0.300084 0.561059 0.0647135
0.340383 0.559594 0.0618753
0.379843 0.558419 0.0594797
0.418418 0.557504 0.0588235
0.454612 0.556939 0.0576944
0.489464 0.556756 0.0572213
0.523476 0.556756 0.0609445
0.556848 0.556848 0.0587167
0.589944 0.557229 0.0575418
0.622629 0.557473 0.0577859
0.65481 0.557794 0.0593423
0.686748 0.558114 0.0567941
0.718517 0.55845 0.0555276
0.75024 0.558724 0.0512551
0.782208 0.559274 0.0588693
0.813809 0.559594 0.0471199
0.845075 0.560082 0.0565805
0.876081 0.561227 0.0892195
0.906722 0.561685 0.128145
0.937255 0.561059 0.0482643
0.967971 0.561318 0.110857
0.998489 0.564935 0.092546
0.0247807 0.560464 0.0287175
0.0432288 0.567315 0.0357671
0.0537118 0.573754 0.0415656
0.0887312 0.579858 0.0507362
0.0992142 0.585214 0.0569314
0.112276 0.589776 0.0606241
0.132937 0.59379 0.0611276
0.159854 0.597208 0.0718547
0.189044 0.598306 0.0691997
0.224537 0.59791 0.069337
0.261707 0.596811 0.0678721
0.302266 0.595315 0.0665141
0.342397 0.59379 0.0655833
0.381552 0.592432 0.0635843
0.419516 0.591302 0.0602426
0.455848 0.590616 0.0612192
0.490257 0.59028 0.0595254
0.524147 0.590127 0.0579995
0.557626 0.590341 0.0580758
0.590494 0.590494 0.0578927
0.623041 0.59057 0.0578317
0.65507 0.590768 0.0605783
0.6869 0.590997 0.0595712
0.718608 0.591241 0.0620584
0.75053 0.591714 0.0540169
0.782147 0.591897 0.0642252
0.813657 0.592081 0.0632334
0.844831 0.592447 0.0736095
0.875776 0.593027 0.0624094
0.90663 0.593988 0.113603
0.937087 0.594919 0.132998
0.967483 0.593591 0.0780041
0.997909 0.592599 0.087068
0.00340276 0.597299 0.0281682
0.049073 0.603571 0.0403143
0.0501106 0.609598 0.0428931
0.0753185 0.615183 0.053315
0.0986038 0.620157 0.0606088
0.114229 0.624537 0.0629435
0.131365 0.628504 0.0638743
0.153216 0.631495 0.0643473
0.192706 0.632395 0.0713664
0.22295 0.631815 0.0636301
0.263264 0.630594 0.0709697
0.304036 0.629267 0.0682689
0.342061 0.627436 0.0592813
0.38262 0.625818 0.0690929
0.420508 0.624567 0.0672465
0.456611 0.623804 0.0606088
0.491051 0.623499 0.0586099
0.524941 0.623377 0.0565347
0.558129 0.623255 0.058732
0.590799 0.623255 0.0579538
0.62327 0.623285 0.0561685
0.655238 0.623392 0.0609445
0.68716 0.623713 0.0576486
0.718883 0.623941 0.0698711
0.750454 0.624094 0.0587472
0.782025 0.624201 0.0380255
0.813443 0.624369 0.0655528
0.844572 0.624552 0.0687572
0.875685 0.625269 0.088426
0.906233 0.624949 0.067689
0.93666 0.626062 0.0576791
0.96701 0.624857 0.0169375
0.997406 0.625589 0
0.0188602 0.632319 0.039292
0.08925 0.638254 0.0513619
0.079881 0.644068 0.0521859
0.0972457 0.649485 0.0554055
0.097673 0.654505 0.0631266
0.121691 0.65861 0.0688792
0.142229 0.662211 0.0737316
0.162081 0.665095 0.0694133
0.184817 0.665843 0.0643168
0.22237 0.665171 0.0643168
0.260777 0.664027 0.0687572
0.305196 0.662333 0.0675212
0.344274 0.660441 0.0634775
0.381521 0.658686 0.0505989
0.422278 0.657343 0.0716259
0.457084 0.65655 0.0601053
0.492088 0.656214 0.0606088
0.525689 0.655894 0.0693523
0.558679 0.65568 0.0622568
0.591272 0.655573 0.0638132
0.623652 0.655528 0.0656596
0.655741 0.655741 0.0609445
0.68751 0.655909 0.0516365
0.719066 0.656001 0.0530709
0.750576 0.656077 0.0672923
0.782101 0.656138 0.0578927
0.813489 0.656229 0.0616617
0.844816 0.656611 0.0246281
0.875639 0.656809 0.0372168
0.906142 0.657069 0.0800031
0.936507 0.657694 0.0749065
0.966842 0.657084 0
0.997436 0.658442 0
0.063386 0.666453 0.0419318
0.0994888 0.67216 0.0526131
0.0826886 0.677791 0.0593576
0.0847028 0.68333 0.0604105
0.101442 0.687968 0.0672465
0.123384 0.691951 0.0723888
0.12755 0.695369 0.0585184
0.159579 0.698146 0.0707103
0.188479 0.698848 0.0702068
0.239689 0.698329 0.0926375
0.267994 0.696818 0.0888075
0.306889 0.694987 0.0838941
0.341985 0.692958 0.0601358
0.385122 0.691188 0.0690318
0.421515 0.689998 0.0623178
0.457633 0.689021 0.0641337
0.493568 0.688441 0.0807355
0.526146 0.688029 0.0634623
0.559335 0.687785 0.0660868
0.591791 0.687709 0.0588998
0.624292 0.687739 0.0648051
0.656092 0.687724 0.0522316
0.687739 0.687755 0.0517433
0.71928 0.6878 0.0773938
0.750744 0.687831 0.0573892
0.782345 0.687999 0.060502
0.813794 0.688136 0.0611276
0.844831 0.688273 0.0899977
0.875624 0.688396 0
0.906096 0.688655 0.0385595
0.936446 0.688991 0.0544289
0.966949 0.689052 0
0.997345 0.688991 0.0684215
0 0.699931 0.0225986
0.051606 0.705776 0.0468605
0.0358434 0.711299 0.0536202
0.155688 0.716472 0.0962387
0.0654612 0.720943 0.0622416
0.137209 0.724849 0.0812085
0.127413 0.728191 0.0681773
0.166247 0.731106 0.0753948
0.188144 0.73164 0.0724651
0.236591 0.730785 0.0747845
0.267262 0.729229 0.0719158
0.313298 0.727337 0.0749981
0.344152 0.725231 0.0593576
0.386297 0.723598 0.0790417
0.423545 0.722087 0.0700999
0.456916 0.721035 0.0384833
0.49366 0.720409 0.0722515
0.526818 0.719921 0.0601663
0.559594 0.719676 0.0721447
0.592004 0.719646 0.0594492
0.624552 0.719493 0.0679026
0.656336 0.719417 0.0556344
0.687922 0.719402 0.0488746
0.719402 0.719402 0.0674144
0.750988 0.719524 0.038529
0.782544 0.719646 0.0598459
0.81384 0.719646 0.0390173
0.844846 0.719738 0.0367132
0.875624 0.71989 0.0748302
0.906065 0.720134 0.0721447
0.93666 0.720607 0.05243
0.966964 0.721004 0.131716
0.997284 0.720943 0
0.0810254 0.733211 0.0323339
0.153094 0.738781 0.072221
0.0481117 0.744152 0.0455482
0.11989 0.749203 0.0855573
0.164599 0.753613 0.0780041
0.15349 0.757382 0.0957656
0.143572 0.760906 0.071107
0.136797 0.76347 0.0683146
0.207797 0.763958 0.0867628
0.236561 0.762982 0.0902113
0.265965 0.761334 0.0819104
0.307988 0.759365 0.0587472
0.349477 0.757488 0.037171
0.393637 0.755566 0.110536
0.426993 0.753964 0.0838178
0.461341 0.752865 0.0738994
0.492607 0.752148 0.0554208
0.528054 0.751919 0.0888075
0.559869 0.751522 0.068986
0.592065 0.751263 0.0567941
0.625071 0.75108 0.0836805
0.656443 0.750973 0.0572671
0.688075 0.750988 0.0446784
0.719722 0.751141 0.0434424
0.751125 0.751141 0.0972915
0.782544 0.751095 0.0432593
0.81384 0.751095 0.0593118
0.844831 0.751171 0.0629892
0.875731 0.751415 0.0500343
0.906294 0.751781 0.0956893
0.936614 0.751995 0
0.966903 0.752255 0
0.997269 0.752804 0
0.0531167 0.765988 0.0283665
0.0943923 0.771344 0.0299992
0.225254 0.776699 0.128023
0 0.781552 0
0.0493172 0.786114 0.0497292
0.0958114 0.789883 0.0657206
0.150546 0.793072 0.0740826
0.194888 0.79559 0.0772717
0.194705 0.795987 0.0343633
0.221546 0.794934 0.0644236
0.274159 0.7935 0.0883955
0.294774 0.79144 0.0410468
0.349767 0.789273 0.0616007
0.37911 0.787259 0.0624552
0.426322 0.785672 0.100053
0.459236 0.784512 0.0522774
0.494087 0.784024 0.0687877
0.525612 0.783459 0.0623484
0.55903 0.783047 0.0178378
0.59205 0.782788 0.076051
0.624094 0.782528 0.0463722
0.656626 0.782483 0.0873121
0.688319 0.78262 0.0856947
0.719707 0.782589 0.0803998
0.75108 0.782544 0.045182
0.782513 0.782498 0.069749
0.813809 0.782483 0.0749828
0.844877 0.782681 0.117037
0.875807 0.78294 0.00218204
0.906249 0.783169 0
0.936584 0.783429 0.0181735
0.966888 0.783703 0.0572061
0.997238 0.783948 0.0101625
0.192584 0.798367 0.0658732
0.129534 0.803632 0.052079
0.204883 0.808865 0.114305
0 0.81384 0
0.175113 0.818265 0.127123
0.16286 0.821881 0.11165
0.173953 0.824994 0.112795
0.166491 0.82742 0.119509
0.248173 0.827802 0.14612
0.2224 0.826902 0.0843671
0.269688 0.825208 0.13666
0.325368 0.823148 0.141909
0.326436 0.820829 0.000259403
0.392691 0.818845 0.0741894
0.433463 0.817197 0.108705
0.449973 0.81622 0
0.497963 0.815503 0.102129
0.530465 0.814939 0.143313
0.561105 0.814496 0.0900893
0.592554 0.814191 0.0495003
0.62388 0.814176 0.0652171
0.656092 0.814038 0
0.688411 0.813993 0.0782483
0.719799 0.813947 0.118791
0.751156 0.813916 0.116335
0.782605 0.813886 0.0433509
0.814115 0.814115 0.0649424
0.845106 0.814191 0.0366369
0.875883 0.814313 0
0.90634 0.814557 0.137407
0.93666 0.814801 0.0124056
0.967041 0.815137 0.0959029
0.997528 0.815564 0.129519
0 0.830304 0.0441138
0 0.835508 0.0388342
0.266072 0.841001 0.141955
0 0.845716 0
0.235798 0.849989 0.17499
0.182147 0.853529 0.115419
0.212284 0.856626 0.138186
0.222507 0.859174 0.163317
0.206119 0.859556 0.150607
