A-tak/A-tak Teal Orange CT125.cube
TITLE "Generated by Resolve"
LUT_3D_SIZE 33
0.0993362 0 0
0.128634 0 0
0.157198 0 0
0.185336 0 0
0.213062 0 0
0.240406 0 0
0.267338 0 0
0.293782 0 0
0.31957 0 0
0.344091 0 0
0.366796 0 0
0.388525 0 0
0.41854 0 0
0.471916 0 0
0.584298 0 0
0.75053 0 0
0.935912 0 0
1 0 0
1 0 0
1 0 0
1 0 0
1 0 0
1 0 0
1 0 0
1 0 0
1 0 0
1 0 0
1 0 0
1 0 0
1 0 0
1 0 0
1 0 0
1 0 0
0.0866255 0 0
0.115908 0 0
0.144625 0 0
0.172793 0 0
0.200519 0 0
0.227832 0 0
0.254719 0 0
0.281102 0 0
0.306813 0 0
0.331472 0 0
0.353826 0 0
0.375586 0 0
0.404974 0 0
0.456992 0 0
0.566003 0 0
0.730129 0 0
0.915892 0 0
1 0 0
1 0 0
1 0 0
1 0 0
1 0 0
1 0 0
1 0 0
1 0 0
1 0 0
1 0 0
1 0 0
1 0 0
1 0 0
1 0 0
1 0 0
1 0 0
0.074342 0 0
0.103456 0 0
0.132174 0 0
0.160372 0 0
0.188113 0 0
0.215412 0 0
0.242252 0 0
0.268574 0 0
0.294224 0 0
0.318807 0 0
0.340963 0 0
0.362676 0 0
0.39176 0 0
0.442176 0 0
0.547997 0 0
0.710063 0 0
0.895659 0 0
1 0 0
1 0 0
1 0 0
1 0 0
1 0 0
1 0 0
1 0 0
1 0 0
1 0 0
1 0 0
1 0 0
1 0 0
1 0 0
1 0 0
1 0 0
1 0 0
0.0623178 0 0
0.0913558 0 0
0.119982 0 0
0.148165 0 0
0.175891 0 0
0.203174 0 0
0.229984 0 0
0.25626 0 0
0.281849 0 0
0.30634 0 0
0.328435 0 0
0.350118 0 0
0.378622 0 0
0.427817 0 0
0.529839 0 0
0.690135 0 0
0.875257 0 0
1 0 0
1 0 0
1 0 0
1 0 0
1 0 0
1 0 0
1 0 0
1 0 0
1 0 0
1 0 0
1 0 0
1 0 0
1 0 0
1 0 0
1 0 0
1 0 0
0.0505531 0 0
0.0795453 0 0
0.10811 0 0
0.136233 0 0
0.163928 0 0
0.191165 0 0
0.217945 0 0
0.24416 0 0
0.269688 0 0
0.294102 0 0
0.315587 0 0
0.337346 0 0
0.365698 0 0
0.413672 0 0
0.512886 0 0
0.671 0 0
0.855451 0 0
0.993973 0 0
1 0 0
1 0 0
1 0 0
1 0 0
1 0 0
1 0 0
1 0 0
1 0 0
1 0 0
1 0 0
1 0 0
1 0 0
1 0 0
1 0 0
1 0 0
0.0390936 0 0
0.0680552 0 0
0.0965591 0 0
0.124636 0 0
0.15227 0 0
0.179461 0 0
0.20618 0 0
0.231983 0 0
0.257542 0 0
0.281987 0 0
0.303883 0 0
0.325475 0 0
0.353384 0 0
0.400076 0 0
0.496239 0 0
0.652064 0 0
0.835126 0 0
0.977157 0 0
1 0 0
1 0 0
1 0 0
1 0 0
1 0 0
1 0 0
1 0 0
1 0 0
1 0 0
1 0 0
1 0 0
1 0 0
1 0 0
1 0 0
1 0 0
0.0282444 0.0198367 0
0.0571756 0.0179446 0
0.0856489 0.0161746 0
0.113649 0.0144656 0
0.140902 0.0125124 0
0.168124 0.0110781 0
0.194858 0.00973526 0
0.221027 0.00848402 0
0.246464 0.00738537 0
0.270771 0.00653086 0
0.292393 0.00633249 0
0.313985 0.00608835 0
0.341558 0.00425727 0
0.387137 0 0
0.480369 0 0
0.633417 0 0
0.814603 0 0
0.960174 0 0
1 0 0
1 0 0
1 0 0
1 0 0
1 0 0
1 0 0
1 0 0
1 0 0
1 0 0
1 0 0
1 0 0
1 0 0
1 0 0
1 0 0
1 0 0
0.0167849 0.045716 0
0.0457923 0.0438544 0
0.0743114 0.0420844 0
0.102358 0.0403906 0
0.129946 0.0387732 0
0.157092 0.0372168 0
0.183719 0.0357519 0
0.209796 0.0343938 0
0.235111 0.0331731 0
0.259327 0.0321965 0
0.28072 0.0318914 0
0.302266 0.0315099 0
0.329488 0.0295872 0
0.374029 0.0231022 0
0.464057 0.00469978 0
0.615122 0 0
0.793667 0 0
0.942748 0 0
1 0 0
1 0 0
1 0 0
1 0 0
1 0 0
1 0 0
1 0 0
1 0 0
1 0 0
1 0 0
1 0 0
1 0 0
1 0 0
1 0 0
1 0 0
0.00683604 0.0715953 0
0.0357824 0.0696117 0
0.0642252 0.0677195 0
0.0921798 0.0659037 0
0.119677 0.0641642 0
0.146715 0.062501 0
0.173251 0.0608988 0
0.199222 0.0594034 0
0.22443 0.0580453 0
0.248524 0.0569314 0
0.269871 0.0564736 0
0.29131 0.0559243 0
0.318227 0.0538949 0
0.361593 0.0475013 0
0.448508 0.0296788 0
0.596155 0 0
0.772137 0 0
0.924453 0 0
1 0 0
1 0 0
1 0 0
1 0 0
1 0 0
1 0 0
1 0 0
1 0 0
1 0 0
1 0 0
1 0 0
1 0 0
1 0 0
1 0 0
1 0 0
0 0.0964828 0
0.0267033 0.094377 0
0.0550546 0.0923629 0
0.0829328 0.0904097 0
0.110338 0.0885328 0
0.13727 0.0867323 0
0.163699 0.0849928 0
0.189548 0.0833448 0
0.214649 0.0818341 0
0.238605 0.0805524 0
0.25977 0.0799115 0
0.281041 0.0791638 0
0.307668 0.0769207 0
0.350195 0.0704356 0
0.433692 0.0531472 0
0.576638 0.0201267 0
0.746792 0 0
0.899092 0 0
0.993408 0 0
1 0 0
1 0 0
1 0 0
1 0 0
1 0 0
1 0 0
1 0 0
1 0 0
1 0 0
1 0 0
1 0 0
1 0 0
1 0 0
1 0 0
0 0.11986 0
0.0195926 0.117601 0
0.0479133 0.115404 0
0.0756237 0.113344 0
0.102998 0.111284 0
0.129885 0.10927 0
0.156252 0.107332 0
0.181949 0.105501 0
0.206928 0.103761 0
0.230747 0.10222 0
0.25182 0.101274 0
0.272725 0.100221 0
0.299336 0.0974594 0
0.340871 0.0905318 0
0.41767 0.0731975 0
0.555749 0.041413 0
0.725216 0.00149538 0
0.88806 0 0
0.984848 0 0
1 0 0
1 0 0
1 0 0
1 0 0
1 0 0
1 0 0
1 0 0
1 0 0
1 0 0
1 0 0
1 0 0
1 0 0
1 0 0
1 0 0
0 0.142473 0
0.012665 0.140063 0
0.0408942 0.137682 0
0.0686046 0.135378 0
0.0957198 0.133165 0
0.122438 0.130953 0
0.148638 0.128756 0
0.174151 0.126619 0
0.198825 0.124544 0
0.222339 0.122515 0
0.242756 0.120653 0
0.262989 0.118471 0
0.289113 0.116121 0
0.329915 0.109865 0
0.409613 0.0935531 0
0.551125 0.0612039 0
0.724132 0.0206455 0
0.885771 0 0
0.979995 0 0
1 0 0
1 0 0
1 0 0
1 0 0
1 0 0
1 0 0
1 0 0
1 0 0
1 0 0
1 0 0
1 0 0
1 0 0
1 0.0155947 0
1 0.0383001 0
0 0.168353 0
0 0.165423 0
0.0266423 0.16257 0
0.0545663 0.159808 0
0.082063 0.157 0
0.108873 0.154208 0
0.13518 0.151232 0
0.160357 0.147509 0
0.185153 0.144732 0
0.208881 0.142885 0
0.229694 0.141985 0
0.250629 0.141115 0
0.276463 0.138949 0
0.316609 0.133196 0
0.395636 0.11754 0
0.538384 0.0855726 0
0.713542 0.045594 0
0.877302 0.0091249 0
0.972641 0 0
1 0 0
1 0 0
1 0 0
1 0 0
1 0 0
1 0 0
1 0.0043946 0
1 0.0191501 0
1 0.0370489 0
1 0.0580301 0
1 0.0820325 0
1 0.107729 0
1 0.134752 0
1 0.163287 0
0 0.201221 0
0 0.19733 0
0 0.193103 0
0.0272679 0.188647 0
0.0565347 0.183139 0
0.0846418 0.17969 0
0.111818 0.176745 0
0.137957 0.174228 0
0.163149 0.172076 0
0.186984 0.170626 0
0.207416 0.170214 0
0.227741 0.170153 0
0.253697 0.168902 0
0.293629 0.164492 0
0.371115 0.150698 0
0.513039 0.121035 0
0.691066 0.0827039 0
0.861128 0.0478065 0
0.96051 0.0328679 0
1 0.0289921 0
1 0.0317998 0
1 0.0381628 0
1 0.047776 0
1 0.0623789 0
1 0.081651 0
1 0.104646 0
1 0.129503 0
1 0.156359 0
1 0.184131 0
1 0.215 0
1 0.249668 0
1 0.286671 0
1 0.323232 0
0 0.242802 0
0 0.236027 0
0 0.231083 0
0 0.226596 0
0.00926223 0.222583 0
0.0382849 0.219043 0
0.0661021 0.216098 0
0.0928664 0.213748 0
0.118334 0.212222 0
0.142 0.21178 0
0.161517 0.213367 0
0.181109 0.215671 0
0.206241 0.216922 0
0.246494 0.215366 0
0.321859 0.205737 0
0.460563 0.181216 0
0.640253 0.147814 0
0.823697 0.116228 0
0.931716 0.107332 0
1 0.111955 0
1 0.124773 0
1 0.14255 0
1 0.164813 0
1 0.190997 0
1 0.219669 0
1 0.249271 0
1 0.28246 0
1 0.319234 0
1 0.356909 0
1 0.393347 0
1 0.426673 0
1 0.45507 0
1 0.479393 0
0 0.295018 0
0 0.290181 0
0 0.285634 0
0 0.281651 0
0 0.278202 0
0 0.275578 0
0 0.273732 0
0.0159304 0.272969 0
0.0416266 0.273335 0
0.065095 0.2757 0
0.0838941 0.280888 0
0.102632 0.287785 0
0.127733 0.294545 0
0.167132 0.299443 0
0.241611 0.297688 0
0.37467 0.283864 0
0.556283 0.261372 0
0.758358 0.237797 0
0.878813 0.24004 0
0.95639 0.256992 0
1 0.281498 0
1 0.308583 0
1 0.338796 0
1 0.374517 0
1 0.413596 0
1 0.452399 0
1 0.489281 0
1 0.521737 0
1 0.549386 0
1 0.572549 0
1 0.591608 0
1 0.607309 0
1 0.620249 0
0 0.354726 0
0 0.350729 0
0 0.347295 0
0 0.344793 0
0 0.343343 0
0 0.343099 0
0 0.344198 0
0 0.347219 0
0 0.352361 0
0 0.360571 0
0 0.373114 0
0.0128481 0.388968 0
0.0374456 0.406989 0
0.0762493 0.425422 0
0.150439 0.438392 0
0.282048 0.439002 0
0.465629 0.428763 0
0.675013 0.413046 0
0.799558 0.421714 0
0.87628 0.446525 0
0.933425 0.4813 0
0.98526 0.518883 0
1 0.556222 0
1 0.591226 0
1 0.62211 0
1 0.648066 0
1 0.66891 0
1 0.686061 0
1 0.699794 0
1 0.711192 0
1 0.72047 0
1 0.727642 0
1 0.732845 0
0 0.420127 0
0 0.418601 0
0 0.418051 0
0 0.419135 0
0 0.421988 0
0 0.427054 0
0 0.434592 0
0 0.44564 0
0 0.460899 0
0 0.48159 0
0 0.508476 0
0 0.539788 0
0 0.572152 0
0 0.60264 0
0.0516823 0.624094 0
0.182147 0.631861 0
0.365438 0.629465 0
0.579324 0.621622 0
0.709895 0.637018 0
0.789883 0.664347 0
0.848341 0.692805 0
0.901091 0.717479 0
0.952392 0.737545 0
0.997833 0.755032 0
1 0.770184 0
1 0.783551 0
1 0.794934 0
1 0.803738 0
1 0.810666 0
1 0.815747 0
1 0.819257 0
1 0.821317 0
1 0.822538 0
0 0.485328 0
0 0.488884 0
0 0.494743 0
0 0.503227 0
0 0.515007 0
0 0.531121 0
0 0.551766 0
0 0.576898 0
0 0.605798 0
0 0.637995 0
0 0.672114 0
0 0.706874 0
0 0.742 0
0 0.777386 0
0.0225071 0.805798 0
0.163989 0.817929 0
0.357427 0.812726 0
0.566613 0.798688 0
0.68748 0.802731 0
0.762615 0.814893 0
0.815473 0.829419 0
0.862623 0.841978 0
0.908827 0.852384 0
0.950866 0.861677 0
0.989456 0.869734 0
1 0.876524 0
1 0.88188 0
1 0.88574 0
1 0.888014 0
1 0.889372 0
1 0.889921 0
1 0.889525 0
1 0.888731 0
0 0.559136 0
0 0.571908 0
0 0.588586 0
0 0.609598 0
0 0.634546 0
0 0.662791 0
0 0.693202 0
0 0.725063 0
0 0.757809 0
0 0.794034 0
0 0.83418 0
0 0.875715 0
0 0.914321 0
0 0.94583 0
0.0353399 0.963638 0
0.186694 0.958099 0
0.384588 0.936004 0
0.572213 0.912963 0
0.683711 0.907485 0
0.753689 0.910643 0
0.803433 0.917082 0
0.847715 0.922713 0
0.891112 0.926848 0
0.9308 0.930251 0
0.967788 0.933013 0
1 0.935225 0
1 0.936934 0
1 0.937743 0
1 0.937774 0
1 0.937194 0
1 0.936294 0
1 0.935058 0
1 0.933684 0
0 0.658885 0
0 0.684092 0
0 0.712322 0
0 0.742641 0
0 0.774014 0
0 0.807019 0
0 0.843549 0
0 0.882994 0
0 0.922301 0
0 0.959167 0
0 0.992218 0
0 1 0
0 1 0
0 1 0
0.0656138 1 0
0.220233 1 0
0.415229 1 0
0.583535 0.98764 0
0.690318 0.975982 0
0.756725 0.973373 0
0.803662 0.974456 0
0.845029 0.975418 0
0.885649 0.975616 0
0.923293 0.975692 0
0.958633 0.975677 0
0.991943 0.97557 0
1 0.975113 0
1 0.97464 0
1 0.973739 0
1 0.972686 0
1 0.971603 0
1 0.970672 0
1 0.97026 0
0 0.790646 0
0 0.821927 0
0 0.855436 0
0 0.892943 0
0 0.931823 0
0 0.969345 0
0 1 0
0 1 0
0 1 0
0 1 0
0 1 0
0 1 0
0 1 0
0.00663767 1 0
0.0886702 1 0
0.241932 1 0
0.431968 1 0
0.589075 1 0
0.692622 1 0
0.756512 1 0
0.801129 1 0
0.84033 1 0
0.879438 1 0
0.916014 1 0
0.950652 1 0
0.983551 1 0
1 1 0
1 1 0
1 1 0
1 1 0
1 1 0
1 1 0
1 1 0
0 0.943725 0
0 0.981262 0
0 1 0
0 1 0
0 1 0
0 1 0
0 1 0
0 1 0
0 1 0
0 1 0
0 1 0
0 1 0
0 1 0
0.0128176 1 0
0.0919203 1 0
0.242481 1 0
0.42974 1 0
0.584054 1 0
0.686549 1 0
0.749126 1 0
0.792493 1 0
0.830823 1 0
0.869581 1 0
0.906233 1 0
0.941253 1 0
0.974884 1 0
1 1 0
1 1 0
1 1 0
1 1 0
1 1 0
1 1 0
1 1 0
0 1 0
0 1 0
0 1 0
0 1 0
0 1 0
0 1 0
0 1 0
0 1 0
0 1 0
0 1 0
0 1 0
0 1 0
0 1 0
0.00959792 1 0
0.0855421 1 0
0.232151 1 0
0.417136 1 0
0.572213 1 0
0.675639 1 0
0.738857 1 0
0.782193 1 0
0.82092 1 0
0.860487 1 0
0.897246 1 0
0.931701 1 0
0.964736 1 0
0.996399 1 0
1 1 0
1 1 0
1 1 0
1 1 0
1 1 0
1 1 0
0 1 0
0 1 0
0 1 0
0 1 0
0 1 0
0 1 0
0 1 0
0 1 0
0 1 0
0 1 0
0 1 0
0 1 0
0 1 0
0.000320439 1 0
0.0732891 1 0
0.216587 1 0
0.400961 1 0
0.558297 1 0
0.663294 1 0
0.727275 1 0
0.770703 1 0
0.808957 1 0
0.847807 1 0
0.884565 1 0
0.919493 1 0
0.952544 1 0
0.984085 1 0
1 1 0
1 1 0
1 1 0
1 1 0
1 1 0
1 1 0
0 1 0
0 1 0
0 1 0
0 1 0
0 1 0
0 1 0
0 1 0
0 1 0
0 1 0
0 1 0
0 1 0
0 1 0
0 1 0
0 1 0
0.0597086 1 0
0.20145 1 0
0.385214 1 0
0.544625 1 0
0.650217 1 0
0.714275 1 0
0.757458 1 0
0.795544 1 0
0.834318 1 0
0.871107 1 0
0.906065 1 0
0.939178 1 0
0.970687 1 0
1 1 0
1 1 0
1 1 0
1 1 0
1 1 0
1 1 0
0 1 0
0 1 0
0 1 0
0 1 0
0 1 0
0 1 0
0 1 0
0 1 0
0 1 0
0 1 0
0 1 0
0 1 0
0 1 0
0 1 0
0.0460975 1 0
0.184497 1 0
0.367254 1 0
0.528771 1 0
0.635462 1 0
0.699947 1 0
0.743221 1 0
0.780957 1 0
0.819684 1 0
0.85655 1 0
0.891646 1 0
0.924895 1 0
0.956481 1 0
0.987137 1 0
1 1 0
1 1 0
1 1 0
1 1 0
1 1 0
0 1 0
0 1 0
0 1 0
0 1 0
0 1 0
0 1 0
0 1 0
0 1 0
0 1 0
