A-tak/A-tak Teal Orange Dark Contrast.cube
TITLE "Generated by Resolve"
LUT_3D_SIZE 33
0.0310063 0 0
0.0337224 0 0
0.0342107 0 0
0.0365759 0 0
0.0414588 0 0
0.0494698 0 0
0.0601968 0 0
0.0738537 0 0
0.0901045 0 0
0.10956 0 0
0.138201 0 0
0.1906 0 0
0.270573 0 0
0.357595 0 0
0.424231 0 0
0.466102 0 0
0.501472 0 0
0.539559 0 0
0.57586 0.0708324 0
0.607111 0.118303 0
0.635325 0.143481 0.00686656
0.661997 0.168627 0.0253758
0.688807 0.194675 0.0484016
0.714885 0.219654 0.0704967
0.740688 0.244755 0.0940871
0.76643 0.2701 0.116579
0.792432 0.295247 0.139956
0.818616 0.320577 0.163546
0.844694 0.346197 0.186618
0.871031 0.371969 0.210697
0.897353 0.397925 0.234607
0.923873 0.424048 0.259098
0.95053 0.450202 0.284108
0.0340887 0 0
0.0362554 0 0
0.0363165 0 0
0.0383001 0 0
0.0429694 0 0
0.05066 0 0
0.0611582 0 0
0.0746014 0 0
0.0906691 0 0
0.109789 0 0
0.140871 0 0
0.194522 0 0
0.274006 0 0
0.359152 0 0
0.424384 0 0
0.466102 0 0
0.501427 0 0
0.53959 0.0148623 0
0.576181 0.0937972 0
0.607599 0.136706 0
0.63595 0.15877 0.0108797
0.662974 0.181018 0.0310826
0.689891 0.203891 0.0529641
0.716472 0.227283 0.0762798
0.742321 0.250736 0.0987259
0.768414 0.274723 0.121477
0.794659 0.299153 0.144289
0.820798 0.324376 0.167193
0.847242 0.349386 0.190112
0.873594 0.37528 0.213779
0.900206 0.400916 0.237507
0.92694 0.42707 0.26215
0.953567 0.453407 0.287068
0.0376593 0 0
0.0392309 0 0
0.0387579 0 0
0.0403449 0 0
0.0445716 0 0
0.0518196 0 0
0.06215 0 0
0.0751812 0 0
0.091249 0 0
0.110979 0 0
0.144503 0 0
0.199908 0 0
0.278828 0 0
0.361471 0 0
0.425055 0 0
0.466117 0 0
0.501472 0 0
0.539757 0.0167849 0
0.576303 0.0955825 0
0.607996 0.138872 0
0.636408 0.160784 0.0133669
0.6636 0.182452 0.0342565
0.6907 0.205341 0.0561074
0.717342 0.228794 0.0791791
0.743313 0.252247 0.101305
0.769528 0.276234 0.123735
0.795651 0.301213 0.14612
0.82208 0.32607 0.168902
0.8486 0.351461 0.191806
0.875013 0.377264 0.215152
0.901717 0.403403 0.238956
0.928344 0.429419 0.263447
0.9552 0.455665 0.288334
0.0423285 0.00415045 0
0.043061 0.00364691 0
0.0419471 0.00283818 0
0.0429541 0.0019379 0
0.0466773 0.00062562 0
0.0535286 0 0
0.0634928 0 0
0.0762341 0 0
0.0920729 0 0
0.113817 0 0
0.149859 0 0
0.207233 0 0
0.285252 0 0
0.364721 0 0
0.426078 0 0
0.466148 0 0
0.501579 0 0
0.53994 0.0246433 0
0.576654 0.0995346 0
0.608469 0.14168 0.00111391
0.637003 0.163134 0.0168002
0.664393 0.185199 0.0382391
0.691585 0.208087 0.0601205
0.718318 0.231708 0.0823072
0.744411 0.255283 0.104021
0.770672 0.279332 0.125795
0.796918 0.303639 0.148257
0.823438 0.328817 0.170687
0.849821 0.354528 0.193286
0.876509 0.380118 0.216999
0.903288 0.405936 0.240894
0.929961 0.432013 0.2654
0.956924 0.458335 0.2907
0.0482643 0.0128176 0
0.0479896 0.0122835 0
0.0460822 0.0117952 0
0.0463264 0.0111391 0
0.0492714 0.00999466 0
0.0556649 0.00874342 0
0.065156 0.00700389 0
0.0775006 0.00433356 0
0.093843 0.00108339 0
0.11902 0 0
0.158129 0 0
0.217441 0 0
0.293584 0 0
0.368734 0 0
0.427222 0 0
0.466102 0 0
0.50164 0 0
0.540124 0.0397803 0
0.57702 0.10898 0
0.608835 0.148135 0.00306706
0.637705 0.169406 0.0203861
0.665064 0.19089 0.0416571
0.692485 0.213611 0.0633555
0.719219 0.236393 0.0848554
0.745525 0.259953 0.106722
0.771862 0.283742 0.128389
0.79823 0.308125 0.150134
0.824781 0.332784 0.172213
0.851286 0.357748 0.194919
0.87805 0.383658 0.218189
0.904707 0.409155 0.242435
0.931655 0.435126 0.266606
0.958679 0.461357 0.291966
0.0557107 0.0237888 0
0.0542306 0.0233616 0
0.0513466 0.0229953 0
0.0506142 0.0223392 0
0.052842 0.0216068 0
0.0585336 0.0206912 0
0.067277 0.0191958 0
0.0803998 0.0180209 0
0.0994583 0.0173495 0
0.128145 0.0180972 0
0.170916 0.0209201 0
0.231937 0.0271763 0
0.304799 0.035111 0
0.37409 0.0354162 0
0.428779 0.0240177 0
0.466117 0.0130617 0
0.501717 0.0267491 0
0.540505 0.0699321 0
0.577554 0.127855 0
0.609613 0.159731 0.00758373
0.638636 0.179965 0.0255436
0.666102 0.200305 0.0462348
0.693675 0.222309 0.0675517
0.720516 0.244114 0.0883192
0.746914 0.266804 0.109316
0.773236 0.289906 0.130297
0.799802 0.313863 0.152026
0.826291 0.338109 0.174151
0.853056 0.362966 0.196811
0.87982 0.387655 0.22002
0.906661 0.413001 0.24419
0.933684 0.438773 0.269032
0.960571 0.464836 0.294286
0.0648051 0.0367742 0
0.0621042 0.0366064 0
0.057969 0.0361791 0
0.0562753 0.035996 0
0.0577401 0.035874 0
0.0631266 0.0357671 0
0.073167 0.0363928 0
0.0883192 0.0374914 0
0.110994 0.0404364 0
0.143175 0.0452583 0
0.189151 0.0539254 0
0.249928 0.0674449 0
0.317632 0.0818494 0
0.38027 0.0893873 0
0.430289 0.0870222 0
0.466194 0.0811933 0
0.501915 0.0884108 0
0.540841 0.113176 0
0.578149 0.151919 0
0.610605 0.176761 0.0126802
0.639628 0.194293 0.0305028
0.667399 0.213901 0.0508736
0.694926 0.233951 0.071046
0.722011 0.254917 0.0917372
0.748409 0.276249 0.112093
0.774945 0.298711 0.133196
0.80148 0.321248 0.154284
0.82826 0.344839 0.175784
0.854948 0.368734 0.198901
0.881849 0.393133 0.221958
0.908888 0.418235 0.246052
0.93579 0.443351 0.271168
0.962966 0.469108 0.296605
0.0761578 0.0569162 0
0.0722515 0.0571756 0
0.0674601 0.057847 0
0.0653544 0.0584268 0
0.0672618 0.0597543 0
0.0741894 0.0617838 0
0.0859388 0.0642557 0
0.104555 0.0686503 0
0.130465 0.0747234 0
0.166567 0.084184 0
0.214435 0.0977951 0
0.271397 0.11426 0
0.33135 0.129564 0
0.38674 0.13904 0
0.431632 0.139666 0
0.466178 0.136156 0
0.502098 0.139971 0
0.541344 0.154803 0
0.579095 0.180179 0
0.611597 0.198047 0.0178836
0.640894 0.21387 0.0362097
0.668727 0.231052 0.0558022
0.696468 0.24921 0.0753796
0.723644 0.268421 0.0952773
0.750179 0.288609 0.115145
0.776791 0.309468 0.135286
0.803601 0.33135 0.156542
0.830289 0.353552 0.178042
0.857252 0.376562 0.200397
0.884138 0.399985 0.224308
0.911208 0.42417 0.249012
0.938415 0.449165 0.27425
0.965515 0.473808 0.299977
0.0895552 0.0950484 0
0.0856489 0.0959335 0
0.0812695 0.0974899 0
0.0803693 0.0991684 0
0.0846418 0.101717 0
0.0942702 0.105562 0
0.109346 0.110094 0
0.131899 0.11725 0
0.160998 0.12575 0
0.198749 0.137591 0
0.243748 0.151568 0
0.293965 0.165927 0
0.345068 0.17821 0
0.392828 0.185809 0
0.432227 0.185946 0
0.466255 0.183795 0
0.50248 0.186206 0
0.542077 0.194491 0
0.580118 0.210498 9.15541e-05
0.612955 0.223667 0.0242313
0.642451 0.237354 0.0422522
0.670375 0.252171 0.0608225
0.698375 0.268559 0.079881
0.725551 0.285695 0.0990311
0.752361 0.304036 0.118196
0.779004 0.32314 0.13817
0.80592 0.343496 0.158984
0.832761 0.364233 0.180163
0.859831 0.386175 0.203525
0.886961 0.408713 0.227405
0.914 0.43238 0.251835
0.941299 0.455924 0.27747
0.96849 0.480476 0.303075
0.105623 0.158663 0
0.103593 0.159808 0
0.101839 0.161715 0
0.104631 0.1635 0
0.112734 0.166674 0
0.126009 0.170947 0
0.144167 0.175677 0
0.16878 0.18265 0
0.197818 0.190295 0
0.232227 0.199313 0
0.271565 0.209216 0
0.313787 0.218647 0
0.356802 0.226535 0
0.397253 0.230396 0
0.432013 0.228748 0
0.466255 0.227924 0
0.502754 0.22884 0
0.54284 0.233326 0
0.581338 0.243549 0.00994888
0.614389 0.253101 0.0307927
0.644099 0.2645 0.0482338
0.672236 0.277256 0.0657969
0.700343 0.291295 0.0837873
0.727779 0.306416 0.102174
0.75465 0.322591 0.12105
0.781491 0.33994 0.140566
0.808576 0.358236 0.161364
0.835508 0.377447 0.183597
0.862699 0.398016 0.207126
0.889845 0.419318 0.230915
0.917098 0.44152 0.255802
0.944518 0.464607 0.281437
0.971817 0.487999 0.307347
0.120912 0.234058 0
0.122789 0.235691 0
0.125521 0.236515 0
0.132753 0.238315 0
0.14403 0.240284 0
0.158923 0.242512 0
0.178317 0.245853 0
0.201083 0.249302 0
0.228138 0.254154 0
0.258259 0.259007 0
0.291676 0.264073 0
0.327489 0.268727 0
0.363409 0.271504 0
0.397559 0.271046 0
0.431418 0.270069 0
0.466056 0.270176 0
0.502907 0.270329 0
0.54345 0.271916 0
0.582376 0.277989 0.0188144
0.615915 0.285435 0.0369421
0.645685 0.294682 0.0531624
0.674174 0.30547 0.0699016
0.702342 0.317311 0.0872206
0.730022 0.330571 0.105211
0.757 0.344533 0.123583
0.7841 0.359777 0.143359
0.811139 0.375875 0.164492
0.838422 0.393515 0.187045
0.865568 0.411902 0.210575
0.892943 0.431922 0.234989
0.920424 0.452735 0.260182
0.947829 0.474205 0.286152
0.975708 0.497642 0.312154
0.125093 0.298726 0
0.129458 0.299702 0
0.136187 0.300282 0
0.146731 0.301076 0
0.160586 0.302159 0
0.176776 0.30312 0
0.196323 0.304692 0
0.218357 0.30605 0
0.243198 0.308003 0
0.270207 0.30959 0
0.29987 0.311192 0
0.330755 0.311528 0
0.362707 0.311269 0
0.396002 0.310903 0
0.430121 0.310506 0
0.4654 0.31078 0
0.502693 0.310491 0
0.543877 0.310643 0
0.583368 0.314092 0.0274968
0.617182 0.319738 0.0417029
0.647211 0.327367 0.0573129
0.675868 0.3364 0.0738384
0.70428 0.346151 0.0905013
0.732158 0.357305 0.107759
0.759274 0.3691 0.125872
0.786572 0.382315 0.14609
0.813764 0.396521 0.167666
0.841184 0.411994 0.191073
0.868666 0.428977 0.215228
0.896086 0.446693 0.239582
0.92398 0.466392 0.265217
0.951888 0.486809 0.291234
0.980087 0.509026 0.318059
0.107958 0.344717 0
0.112398 0.345342 0
0.119173 0.345556 0
0.132891 0.345953 0
0.151125 0.346349 0
0.170123 0.346639 0
0.191394 0.347219 0
0.214313 0.347616 0
0.239277 0.348318 0
0.26598 0.348791 0
0.295048 0.349203 0
0.326375 0.349706 0
0.359136 0.350027 0
0.393133 0.349981 0
0.42826 0.350164 0
0.46424 0.350515 0
0.502281 0.350027 0
0.544182 0.34934 0.00749218
0.584314 0.351064 0.0322576
0.618433 0.355673 0.0461128
0.648737 0.361944 0.0615549
0.677501 0.369314 0.0769207
0.706218 0.377523 0.0933547
0.734325 0.386725 0.109941
0.761624 0.396658 0.128923
0.789105 0.407858 0.149828
0.81648 0.419944 0.171954
0.84419 0.433646 0.195544
0.872038 0.448615 0.220523
0.90013 0.465217 0.246006
0.928466 0.48333 0.271595
0.956893 0.50251 0.298756
0.985611 0.523201 0.325582
0.0624552 0.381933 0
0.0660563 0.382605 0
0.0719158 0.382879 0
0.0833143 0.383322 0
0.108003 0.383795 0
0.137377 0.384207 0
0.165866 0.384802 0
0.194446 0.385443 0
0.223224 0.38613 0
0.2533 0.38674 0
0.285283 0.387533 0
0.318685 0.388067 0
0.353307 0.388602 0
0.389029 0.389029 0
0.42533 0.389136 0
0.46244 0.389502 0
0.501442 0.388968 0
0.544228 0.387869 0.0232548
0.585107 0.388968 0.0372625
0.619379 0.39263 0.0506142
0.649958 0.397787 0.0652476
0.679103 0.403998 0.0802625
0.707912 0.410651 0.0956436
0.736263 0.41825 0.113176
0.763806 0.426535 0.132998
0.79176 0.436164 0.154391
0.819883 0.446891 0.177691
0.848005 0.4589 0.202075
0.876585 0.472313 0.227649
0.905119 0.486915 0.253788
0.933898 0.503227 0.279973
0.962722 0.521141 0.307042
0.991485 0.539834 0.333913
0 0.419684 0
0 0.420554 0
0 0.420905 0
0 0.421393 0
0.0216831 0.421881 0
0.0631571 0.422278 0
0.114229 0.422934 0
0.156695 0.423468 0
0.195727 0.424277 0
0.232975 0.424933 0
0.270039 0.425574 0
0.307713 0.426322 0
0.345495 0.426947 0
0.383474 0.427344 0
0.42179 0.427771 0
0.46038 0.428138 0.0049897
0.500496 0.427634 0.0211185
0.544244 0.426429 0.0323796
0.585458 0.4271 0.0416419
0.620218 0.43032 0.0552071
0.651087 0.434669 0.0692149
0.6804 0.439704 0.0835279
0.70988 0.445609 0.099382
0.738842 0.452262 0.118257
0.767117 0.459617 0.138933
0.795789 0.46804 0.162127
0.824399 0.477241 0.186343
0.853254 0.487648 0.211582
0.881971 0.499138 0.237293
0.910933 0.511742 0.263157
0.939773 0.52607 0.289235
0.968277 0.541268 0.315145
0.996933 0.557992 0.341588
0 0.457786 0
0 0.458732 0
0 0.459052 0
0 0.459541 0
0 0.460014 0
0 0.460426 0
0.0122988 0.461051 0
0.0939498 0.46157 0
0.154513 0.462333 0
0.2047 0.462989 0
0.250385 0.463676 0
0.294133 0.464439 0.00357061
0.336172 0.465095 0.00849927
0.377203 0.465522 0.0142977
0.417823 0.466026 0.0209049
0.458076 0.466407 0.0281682
0.499458 0.46595 0.0321355
0.543923 0.465034 0.0375677
0.585611 0.465736 0.0471046
0.621073 0.468833 0.0608682
0.652689 0.472892 0.074464
0.683055 0.47776 0.0885023
0.713252 0.483024 0.106126
0.742916 0.488869 0.126802
0.771862 0.495247 0.149203
0.800931 0.502312 0.173083
0.82974 0.509972 0.197086
0.85861 0.51841 0.221973
0.887144 0.527626 0.246769
0.915724 0.537926 0.271885
0.943938 0.549249 0.296407
0.971786 0.561624 0.320928
0.999557 0.575708 0.345602
0 0.496651 0
0 0.497429 0
0 0.49778 0
0 0.498207 0
0 0.49865 0.00201419
0 0.499046 0.00384527
0 0.499626 0.00639353
0 0.500221 0.00903334
0.0782177 0.500877 0.0115358
0.160479 0.501518 0.0142061
0.222507 0.502312 0.017258
0.27541 0.502953 0.0197604
0.323369 0.503578 0.0225376
0.368673 0.504189 0.0254215
0.411826 0.504585 0.0284428
0.454032 0.505119 0.032578
0.496986 0.505287 0.0370184
0.542535 0.505135 0.0430762
0.585611 0.506645 0.0544594
0.621912 0.509621 0.0677348
0.654368 0.51339 0.0808728
0.68542 0.517693 0.0961776
0.715953 0.521996 0.114672
0.745754 0.526726 0.135195
0.774517 0.531731 0.157153
0.803204 0.537285 0.179767
0.83151 0.543069 0.202579
0.85948 0.549355 0.225376
0.887282 0.55642 0.248005
0.914443 0.563821 0.270878
0.941588 0.572396 0.293767
0.968353 0.581918 0.316518
0.994598 0.592309 0.339162
0 0.535851 0
0 0.536812 0
0 0.537285 0
0 0.537804 0
0 0.538186 0
0 0.538781 0
0 0.539437 0
0 0.540047 0
0 0.540795 0.000976577
0.0556649 0.541711 0.00622568
0.171923 0.542626 0.0113832
0.245335 0.543603 0.0164797
0.304173 0.544625 0.0219577
0.355978 0.545678 0.0275578
0.403861 0.546914 0.0338293
0.449149 0.548196 0.040238
0.494224 0.549065 0.0463111
0.541176 0.549477 0.0533913
0.584863 0.550988 0.0642557
0.6215 0.553948 0.0767834
0.654017 0.55761 0.0888533
0.684428 0.561288 0.102846
0.714397 0.564996 0.119265
0.743206 0.568719 0.13724
0.771023 0.572534 0.155825
0.798321 0.576379 0.175341
0.825345 0.580331 0.195193
0.851972 0.584512 0.215015
0.878172 0.588907 0.235554
0.904341 0.593896 0.257069
0.930098 0.599435 0.278264
0.955688 0.605753 0.300237
0.981216 0.613046 0.322225
0 0.575662 0
0 0.576974 0
0 0.577676 0
0 0.578393 0
0 0.578973 0.00257877
0 0.579843 0.00766003
0 0.580819 0.013489
0 0.581765 0.018555
0 0.583047 0.0252079
0 0.584298 0.0312352
0.117281 0.585641 0.0372931
0.22446 0.587045 0.0425269
0.294728 0.588617 0.0477455
0.352026 0.590158 0.0523995
0.402609 0.591806 0.0573281
0.449287 0.593347 0.0618906
0.494835 0.594049 0.0660868
0.542611 0.593973 0.07187
0.586358 0.594629 0.0799268
0.622553 0.596841 0.0899214
0.654169 0.599466 0.100008
0.683482 0.602029 0.111818
0.712383 0.604578 0.125353
0.739849 0.606867 0.140047
0.766415 0.609277 0.155505
0.792645 0.611795 0.172015
0.818433 0.614115 0.189136
0.84419 0.616785 0.207691
0.869596 0.619608 0.226596
0.894942 0.622827 0.246189
0.920119 0.626535 0.267018
0.94519 0.6309 0.288518
0.970214 0.635935 0.310094
0 0.61648 0.0451972
0 0.618158 0.0509346
0 0.619089 0.054078
0 0.619806 0.0564736
0 0.620752 0.0587015
0 0.621698 0.0610666
0 0.622797 0.063447
0 0.624048 0.0662394
0 0.625345 0.0684977
0 0.626734 0.0703746
0.0626078 0.628382 0.0722515
0.215671 0.629847 0.0736858
0.29456 0.631342 0.0753338
0.354742 0.632822 0.0779278
0.405997 0.634012 0.0807813
0.452323 0.634775 0.0838026
0.497444 0.634607 0.0866407
0.545876 0.633021 0.0899062
0.589746 0.632609 0.0960861
0.625071 0.633356 0.103685
0.65565 0.634668 0.112749
0.68426 0.636301 0.123354
0.711971 0.637537 0.134508
0.738811 0.639017 0.146685
0.764645 0.640497 0.160449
0.790112 0.642008 0.174807
0.815534 0.643671 0.190692
0.840681 0.645365 0.207919
0.865782 0.647364 0.225696
0.890715 0.649561 0.244694
0.915679 0.652277 0.263951
0.940551 0.655497 0.2851
0.965316 0.659236 0.306447
0 0.657221 0.0866407
0 0.659113 0.0881819
0 0.659846 0.0888075
0 0.660746 0.0894789
0 0.661616 0.0904707
0 0.662501 0.0916915
0 0.663615 0.0933089
0 0.664622 0.0946975
0 0.665919 0.0973373
0 0.667063 0.0994583
0 0.668223 0.101793
0.192798 0.669429 0.104692
0.288533 0.670497 0.107149
0.353338 0.671229 0.109743
0.406241 0.671473 0.111574
0.4533 0.671382 0.11281
0.498238 0.669749 0.111696
0.547845 0.666712 0.110353
0.591623 0.66479 0.113024
0.626688 0.664622 0.119051
0.656901 0.665141 0.126452
0.684932 0.665949 0.135088
0.712291 0.666621 0.144884
0.73875 0.667506 0.155459
0.764126 0.668391 0.167361
0.789425 0.66949 0.181109
0.814481 0.670542 0.195422
0.839536 0.671824 0.211597
0.864393 0.673243 0.228382
0.889326 0.675013 0.246387
0.914229 0.67715 0.265812
0.938994 0.679606 0.285542
0.963912 0.682719 0.306828
0 0.696147 0.118837
0 0.697566 0.121553
0 0.698344 0.123293
0 0.699077 0.124727
0 0.699626 0.126009
0 0.70042 0.127947
0 0.701228 0.129549
0 0.701915 0.131289
0 0.7028 0.133623
0 0.703548 0.1355
0 0.704265 0.137423
0.0944076 0.704829 0.138933
0.262348 0.705119 0.140032
0.341466 0.704952 0.14052
0.400107 0.704402 0.139864
0.449592 0.703243 0.138415
0.49601 0.700496 0.134142
0.547448 0.696468 0.130007
0.591775 0.69366 0.130419
0.626917 0.692805 0.134279
0.657038 0.692897 0.140032
0.684916 0.693172 0.147127
0.712261 0.693599 0.155444
0.738491 0.694041 0.165484
0.763912 0.694759 0.176303
0.789166 0.695583 0.188525
0.814191 0.696391 0.202304
0.839261 0.697475 0.217166
0.864179 0.698604 0.233249
0.889204 0.700145 0.250935
0.914076 0.701885 0.269398
0.938949 0.70396 0.289113
0.963775 0.706462 0.309514
0 0.731716 0.154208
0 0.732662 0.156512
0 0.73315 0.157778
0 0.733623 0.158648
0 0.733898 0.159579
0 0.734356 0.160494
0 0.734829 0.161746
0 0.735164 0.162722
0 0.735653 0.163897
0 0.736065 0.164996
0 0.736294 0.16585
0 0.736263 0.166079
0.178668 0.735927 0.165469
0.311284 0.735225 0.164202
0.384314 0.734051 0.162402
0.440391 0.732128 0.159136
0.490471 0.728817 0.153399
0.544472 0.724117 0.147601
0.590021 0.720836 0.146365
0.625666 0.719692 0.149645
0.655985 0.719417 0.15462
0.68397 0.719509 0.160143
0.711482 0.719738 0.167468
0.737789 0.720058 0.175998
0.763363 0.720714 0.185733
0.788724 0.721492 0.197299
0.813916 0.722225 0.209735
0.839078 0.723156 0.223819
0.863981 0.724071 0.239277
0.888914 0.725246 0.255863
0.913741 0.726574 0.272984
0.938384 0.728038 0.291524
0.963073 0.729931 0.311406
0 0.763287 0.183459
0 0.763851 0.185
0 0.763958 0.18526
0 0.764202 0.185901
0 0.764324 0.186252
0 0.764538 0.18677
0 0.764813 0.187289
0 0.764935 0.187533
0 0.765209 0.188479
0 0.76527 0.18851
0 0.765148 0.188708
0 0.764752 0.187808
0 0.764111 0.186481
0.245396 0.763058 0.184619
0.35697 0.761456 0.182193
0.42562 0.759182 0.178027
0.481971 0.755474 0.171908
0.539971 0.750408 0.165225
0.587335 0.746914 0.163745
0.623911 0.745632 0.16585
0.654765 0.745266 0.169726
0.683223 0.745388 0.17496
0.711009 0.745571 0.181552
0.737636 0.745907 0.188724
0.763348 0.746471 0.19765
0.788739 0.747066 0.207706
0.813886 0.747585 0.219211
0.838956 0.748211 0.231937
0.863737 0.748806 0.24593
0.888548 0.749645 0.26128
0.913268 0.750607 0.278035
0.937804 0.751644 0.295354
0.962417 0.753048 0.314763
0 0.791791 0.207874
0 0.792035 0.20827
0 0.792035 0.208057
0 0.792157 0.208484
0 0.792248 0.208713
0 0.792264 0.208728
0 0.792386 0.209308
0 0.79237 0.20914
0 0.792462 0.209308
0 0.792325 0.209461
0 0.79202 0.208728
0 0.791562 0.207813
0 0.790722 0.206622
0 0.789441 0.204242
0.306477 0.787533 0.200855
0.403204 0.785077 0.196826
0.470161 0.781201 0.1906
0.534188 0.776028 0.183978
0.584161 0.772503 0.181735
0.622065 0.771252 0.18349
0.653758 0.770916 0.187076
0.68275 0.771023 0.191424
0.710735 0.771008 0.196689
0.737591 0.771237 0.203189
0.76321 0.771481 0.210864
0.788632 0.771847 0.219272
0.813718 0.772107 0.229236
0.838727 0.772519 0.240909
0.863523 0.772931 0.253742
0.888273 0.77348 0.268391
0.912947 0.774197 0.283711
0.937484 0.77496 0.300816
0.962097 0.776089 0.318273
0 0.818692 0.228977
0 0.818662 0.229099
0 0.818616 0.228687
0 0.818662 0.228809
0 0.818677 0.229175
0 0.818616 0.229099
0 0.818662 0.229236
0 0.818647 0.22884
0 0.81854 0.229206
0 0.818326 0.228595
0 0.818051 0.228397
0 0.817411 0.227115
0 0.81648 0.22562
0 0.815122 0.223331
0.142306 0.813138 0.220295
0.364172 0.810681 0.215991
0.452476 0.806821 0.209964
0.525933 0.801678 0.20415
0.579858 0.798184 0.201282
0.619242 0.796674 0.202213
0.651759 0.796139 0.204639
0.68127 0.796033 0.208347
0.70956 0.795819 0.212421
0.736584 0.795865 0.218189
0.762387 0.795926 0.224598
0.787884 0.796155 0.23209
0.813153 0.796368 0.240818
0.838132 0.796551 0.250996
0.863081 0.796902 0.262699
0.8878 0.797238 0.275578
0.912551 0.797803 0.290074
0.937438 0.798688 0.306584
0.962097 0.799619 0.324086
0 0.844587 0.248936
0 0.84448 0.2486
0 0.844495 0.248768
0 0.844388 0.248569
0 0.844388 0.248646
0 0.844419 0.2486
0 0.844312 0.248707
0 0.844297 0.248661
0 0.844144 0.248508
0 0.843976 0.247959
0 0.843641 0.247745
0 0.842985 0.246586
0 0.842069 0.245487
0 0.840757 0.243183
0 0.838941 0.240223
0.274189 0.836332 0.236286
0.424201 0.832349 0.230549
0.513817 0.8271 0.223728
0.57319 0.82324 0.221042
0.61474 0.821515 0.22092
0.648478 0.820874 0.223056
0.67863 0.820539 0.225849
0.707622 0.820294 0.229572
0.73492 0.820127 0.234104
0.761059 0.820233 0.239475
0.786694 0.820279 0.245838
0.812161 0.820462 0.253697
0.837308 0.820569 0.262425
0.862638 0.821103 0.273243
0.887587 0.821485 0.284947
0.912444 0.821942 0.29868
0.937209 0.822522 0.313405
0.961929 0.823255 0.329381
0 0.870115 0.269169
0 0.870008 0.269047
0 0.870024 0.268986
0 0.870054 0.268956
0 0.869932 0.269139
0 0.869978 0.269032
0 0.869886 0.269001
0 0.869902 0.268956
0 0.869764 0.26894
