A-tak/A-tak Teal Orange CT125.cube
TITLE "Generated by Resolve"
LUT_3D_SIZE 5
0.0993362 0 0
0.31957 0 0
0.935912 0 0
1 0 0
1 0 0
0.00683604 0.0715953 0
0.22443 0.0580453 0
0.772137 0 0
1 0 0
1 0 0
0 0.354726 0
0 0.352361 0
0.465629 0.428763 0
1 0.62211 0
1 0.732845 0
0 1 0
0 1 0
0.400961 1 0
0.919493 1 0
1 1 0
0 1 0
0 1 0
0.242283 1 0
0.800458 1 0
1 1 0
0.0814984 0 0.0167086
0.30135 0 0.00595102
0.915572 0 0
1 0 0
1 0 0
0 0.05243 0
0.205402 0.037995 0
0.728817 0 0
1 0 0
1 0 0
0 0.332174 0
0 0.359411 0
0.499336 0.497246 0
1 0.67097 0
1 0.731258 0
0 1 0
0 1 0
0.390356 1 0
0.902663 1 0
1 1 0
0 1 0
0 1 0
0.233738 1 0
0.782666 1 0
1 1 0
0.0131075 0 1
0.230243 0 1
0.833875 0 0.9234
1 0 0.755444
1 0 0.604105
0 0 0.948714
0.1411 0 0.882643
0.630106 0 0.61416
1 0 0.330617
1 0 0.295903
0 0.282597 0.232425
0 0.356603 0.337224
0.502632 0.530312 0.589731
1 0.635447 0.744411
1 0.664546 0.78201
0 1 0.452888
0 1 0.513832
0.333562 1 0.439384
0.843229 1 0.306691
1 1 0.270863
0 1 0.238666
0 1 0.287404
0.18735 1 0.25124
0.725353 1 0.12929
0.994904 1 0.115282
0 0 1
0.18851 0 1
0.771969 0 1
1 0 1
1 0 1
0 0 1
0.0915389 0 1
0.526772 0 1
1 0 1
1 0 1
0 0.214878 1
0 0.359182 1
0.50695 0.562158 1
1 0.608515 1
1 0.614679 1
0 1 1
0 1 1
0.273365 1 1
0.782528 0.973983 1
1 0.954849 1
0 1 1
0 1 1
0.124071 1 1
0.66067 1 1
0.938506 1 1
0 0 1
0.165011 0 1
0.72932 0 1
1 0 1
1 0 1
0 0 1
0.066392 0 1
0.473945 0 1
1 0 1
1 0 1
0 0.212345 1
0 0.425238 1
0.520165 0.596506 1
1 0.597162 1
1 0.590784 1
0 1 1
0 1 1
0.246052 1 1
0.756954 0.951385 1
1 0.932387 1
0 1 1
0 1 1
0.100542 1 1
0.636286 1 1
0.91664 1 1
