A-tak/A-tak Room Flat for BMPCC.cube
TITLE "Generated by Resolve"
LUT_3D_SIZE 33
0 0 0
0 0 0
0 0 0
0.00350958 0 0
0.0157168 0 0
0.0252384 0 0
0.033753 0 0
0.0464027 0 0
0.0683909 0 0
0.107805 0 0
0.175845 0 0
0.268147 0 0
0.3953 0 0
0.559304 0 0
0.677516 0 0
0.752895 0 0
0.801053 0 0
0.831434 0 0
0.852644 0 0
0.868345 0 0
0.881865 0 0
0.895216 0 0
0.909407 0 0
0.922316 0 0
0.935836 0 0
0.948577 0 0
0.961395 0 0
0.974136 0 0
0.987243 0 0
0.999634 0 0
1 0 0
1 0 0
1 0 0
0 0 0
0 0 0
0 0 0
0.00234989 0 0
0.0146029 0 0
0.0242618 0 0
0.0330053 0 0
0.0455482 0 0
0.0680705 0 0
0.109026 0 0
0.180026 0 0
0.2748 0 0
0.415 0 0
0.58587 0 0
0.695033 0 0
0.760433 0 0
0.801663 0 0
0.828809 0 0
0.848722 0 0
0.86389 0 0
0.876936 0 0
0.890379 0 0
0.904295 0 0
0.917342 0 0
0.930571 0 0
0.943282 0 0
0.9552 0 0
0.968109 0 0
0.982116 0 0
0.996277 0 0
1 0 0
1 0 0
1 0 0
0 0 0
0 0 0
0 0 0
0.00105287 0 0
0.0134127 0 0
0.0232395 0 0
0.0322576 0 0
0.0446632 0 0
0.0683452 0 0
0.114626 0 0
0.19324 0 0
0.29485 0 0
0.439261 0 0
0.59321 0 0
0.694575 0 0
0.757092 0 0
0.79675 0 0
0.823651 0 0
0.843275 0 0
0.858274 0 0
0.871504 0 0
0.884703 0 0
0.898466 0 0
0.910719 0 0
0.924315 0 0
0.938125 0 0
0.95227 0 0
0.966934 0 0
0.982559 0 0
0.998611 0 0
1 0 0
1 0 0
1 0 0
0 0.000717174 0
0 0.000549325 0
0 0.000381476 0
0 0.000198367 0
0.0119173 0 0
0.0220798 0.000381476 0
0.031632 0.0016022 0
0.0452583 0.00138857 0
0.0703441 0 0
0.115465 0 0
0.190539 0 0
0.287968 0 0
0.426825 0 0
0.580209 0 0
0.683543 0 0
0.747616 0 0
0.788495 0 0
0.816052 0 0
0.836103 0 0
0.850752 0 0
0.863859 0 0
0.877546 0 0
0.892607 0 0
0.90724 0 0
0.922271 0 0
0.937667 0 0
0.953796 0 0
0.971069 0 0
0.989181 0 0
1 0 0
1 0 0
1 0 0
1 0 0
0 0.0128481 0
0 0.0128328 0
0 0.013077 0
0 0.0133822 0
0.0107424 0.0132906 0
0.0206455 0.0134279 0
0.0299992 0.0136263 0
0.0412146 0.0129854 0
0.0630655 0.00952163 0
0.102586 0.00123598 0
0.170932 0 0
0.261692 0 0
0.386694 0 0
0.544411 0 0
0.658351 0 0
0.729213 0 0
0.773571 0 0
0.803845 0 0
0.82652 0 0
0.844129 0 0
0.859388 0 0
0.874372 0 0
0.891432 0 0
0.908492 0 0
0.92549 0 0
0.943694 0 0
0.963607 0 0
0.984466 0 0
1 0 0
1 0 0
1 0 0
1 0 0
1 0 0
0 0.0249332 0
0 0.0249332 0
0 0.0245518 0
0 0.0240635 0
0.0103304 0.0231785 0
0.0199283 0.0229343 0
0.0290074 0.0226291 0
0.0396277 0.022034 0
0.0603494 0.0187228 0
0.098024 0.0107424 0
0.163394 0 0
0.251804 0 0
0.372473 0 0
0.529488 0 0
0.646891 0 0
0.721569 0 0
0.76997 0 0
0.802869 0 0
0.827405 0 0
0.847211 0 0
0.864469 0 0
0.882017 0 0
0.901686 0 0
0.921721 0 0
0.943053 0 0
0.966232 0 0
0.991104 0 0
1 0 0
1 0 0
1 0 0
1 0 0
1 0 0
1 0 0
0 0.0349432 0
0 0.0342412 0
0 0.0335546 0
0 0.0327001 0
0.00982681 0.031754 0
0.0191958 0.031281 0
0.0285649 0.03093 0
0.0383917 0.0303044 0
0.0578317 0.0271458 0
0.0929732 0.0188144 0
0.15639 0.00393683 0
0.243519 0 0
0.363867 0 0
0.522698 0 0
0.64303 0 0
0.72079 0 0
0.772091 0 0
0.807721 0 0
0.83505 0 0
0.857527 0 0
0.878386 0 0
0.89987 0 0
0.923674 0 0
0.949248 0 0
0.977325 0 0
1 0 0
1 0 0
1 0 0
1 0 0
1 0 0
1 0 0
1 0 0
1 0.0122988 0
0 0.0452125 0
0 0.0444038 0
0 0.0434119 0
0 0.0423438 0
0.00645457 0.0408942 0
0.0159609 0.0401007 0
0.0246128 0.0385748 0
0.0346075 0.0381323 0
0.0546426 0.0357214 0
0.0913558 0.0293278 0
0.15314 0.0171206 0
0.239567 0 0
0.36022 0 0
0.520348 0 0
0.643442 0 0
0.724849 0 0
0.780041 0 0
0.819303 0 0
0.850599 0 0
0.87808 0 0
0.90457 0 0
0.93257 0 0
0.964416 0 0
0.998672 0 0
1 0 0
1 0 0
1 0 0
1 0 0
1 0.0157778 0
1 0.0382544 0
1 0.0645457 0
1 0.0946975 0
1 0.127153 0.0111543
0 0.0590066 0
0 0.057847 0
0 0.0561532 0
0 0.0540932 0
0 0.0524605 0
0.00511177 0.0526131 0
0.0164797 0.0530861 0
0.0280461 0.0540169 0
0.0483558 0.0532082 0
0.0864424 0.0483711 0
0.152316 0.0369879 0
0.241413 0.0204776 0
0.360845 0 0
0.52282 0 0
0.649821 0 0
0.736141 0 0
0.796658 0 0
0.841596 0 0
0.879164 0 0
0.914824 0 0
0.95082 0 0
0.989441 0 0
1 0 0
1 0.00469978 0
1 0.0231479 0
1 0.0439612 0
1 0.0680858 0
1 0.0960861 0
1 0.12755 0
1 0.161044 0.0117037
1 0.198184 0.0382391
1 0.237537 0.0685435
1 0.277562 0.100435
0 0.0781415 0
0 0.077348 0
0 0.0767071 0
0 0.0760204 0
0 0.0750286 0
0 0.0760662 0
0.000411994 0.0780804 0
0.016556 0.0802014 0
0.035462 0.0823987 0
0.0742657 0.0806134 0
0.142885 0.0721141 0
0.236027 0.05832 0
0.362509 0.0373083 0
0.532876 0.00660716 0
0.665507 0 0
0.759777 0 0
0.828656 0 0
0.880461 0 0
0.923888 0.00459297 0
0.963363 0.0197452 0
1 0.0373236 0
1 0.0572366 0
1 0.0791638 0
1 0.104387 0
1 0.133593 0
1 0.166339 0
1 0.201862 0.00427253
1 0.240803 0.0284428
1 0.281727 0.05626
1 0.322377 0.0846418
1 0.361547 0.110887
1 0.398856 0.134432
1 0.434394 0.154345
0 0.112306 0
0 0.11249 0
0 0.112886 0
0 0.113191 0
0 0.11284 0
0 0.115618 0
0 0.119631 0
0 0.124392 0
0.0154879 0.129488 0
0.0511482 0.133501 0
0.121508 0.129641 0
0.21854 0.120974 0
0.34641 0.106493 0
0.529076 0.0789807 0
0.673533 0.0634165 0
0.774212 0.0611887 0
0.846433 0.0683757 0
0.901137 0.0825055 0
0.949233 0.101015 0
0.996323 0.123842 0
1 0.150546 0
1 0.181231 0
1 0.214878 0
1 0.252338 0
1 0.29398 0.00584421
1 0.337194 0.0268254
1 0.379644 0.0481117
1 0.420294 0.0676738
1 0.459007 0.0844739
1 0.495964 0.0988174
1 0.530999 0.111635
1 0.563806 0.122881
1 0.593652 0.133959
0 0.158358 0
0 0.160357 0
0 0.162646 0
0 0.165362 0
0 0.167483 0
0 0.173434 0
0 0.181003 0
0 0.189639 0
0 0.199496 0
0.0276036 0.210101 0
0.0990158 0.213107 0
0.199771 0.209705 0
0.325811 0.20119 0
0.514794 0.177646 0
0.669718 0.16556 0
0.778927 0.168734 0
0.861082 0.183642 0
0.926665 0.207965 0
0.985367 0.23827 0
1 0.273075 0
1 0.313237 0
1 0.357214 0
1 0.40209 0
1 0.44683 0.00564584
1 0.489006 0.01561
1 0.528099 0.026154
1 0.564813 0.0366979
1 0.598795 0.0473335
1 0.629587 0.0585184
1 0.65742 0.0693828
1 0.682475 0.0802777
1 0.704372 0.0901045
1 0.723537 0.0991226
0 0.212482 0
0 0.217624 0
0 0.223621 0
0 0.230365 0
0 0.237293 0
0 0.248783 0
0 0.262821 0
0 0.277897 0
0 0.293523 0
0.00573739 0.30959 0
0.0745403 0.319356 0
0.178882 0.321859 0
0.309667 0.320699 0
0.508202 0.305318 0
0.676738 0.303197 0
0.796857 0.318273 0
0.885725 0.345617 0
0.954559 0.383444 0
1 0.426688 0
1 0.471809 0
1 0.515435 0
1 0.556252 0
1 0.593606 0
1 0.627741 0.00015259
1 0.659449 0.0087129
1 0.688853 0.014313
1 0.715129 0.0225528
1 0.738811 0.03122
1 0.75964 0.0396277
1 0.777768 0.0473487
1 0.793774 0.0545968
1 0.807919 0.0607462
1 0.820356 0.0663615
0 0.28455 0
0 0.295857 0
0 0.309148 0
0 0.323613 0
0 0.337957 0
0 0.357198 0
0 0.37847 0
0 0.400641 0
0 0.423438 0
0 0.44622 0
0.0298619 0.469108 0
0.138354 0.484306 0
0.274311 0.495308 0
0.480949 0.491753 0
0.662608 0.498482 0
0.789883 0.521904 0
0.880369 0.554009 0
0.945068 0.588922 0
0.99588 0.623789 0
1 0.657572 0
1 0.689632 0
1 0.7196 0
1 0.746609 0
1 0.771054 0
1 0.79321 0
1 0.812772 0.00553903
1 0.830106 0.0108034
1 0.845548 0.01355
1 0.859022 0.017258
1 0.871046 0.0211032
1 0.880919 0.024567
1 0.889799 0.0277714
1 0.897444 0.0305333
0 0.383246 0
0 0.402457 0
0 0.422614 0
0 0.443229 0
0 0.463645 0
0 0.488792 0
0 0.51696 0
0 0.548058 0
0 0.580682 0
0 0.614267 0
0.0344701 0.648402 0
0.152285 0.673594 0
0.295125 0.691661 0
0.504585 0.688792 0
0.682048 0.690639 0
0.802274 0.70425 0
0.886473 0.725109 0
0.946868 0.750271 0
0.994675 0.775876 0
1 0.800656 0
1 0.823865 0
1 0.844678 0
1 0.862684 0
1 0.878614 0
1 0.892622 0
1 0.905318 0
1 0.915938 0
1 0.92517 0
1 0.933272 0.000717174
1 0.9402 0.00369268
1 0.946044 0.00572213
1 0.951125 0.0075227
1 0.955627 0.00901808
0 0.490867 0
0 0.514214 0
0 0.539849 0
0 0.568139 0
0 0.598978 0
0 0.635142 0
0 0.674617 0
0 0.717235 0
0 0.761105 0
0 0.803281 0
0.0853895 0.831601 0
0.204608 0.847944 0
0.353094 0.852461 0
0.559426 0.83827 0
0.722133 0.833524 0
0.834333 0.840253 0
0.91107 0.853529 0
0.964889 0.870283 0
1 0.887022 0
1 0.903136 0
1 0.918349 0
1 0.931517 0
1 0.942962 0
1 0.952667 0
1 0.961044 0
1 0.968429 0
1 0.974685 0
1 0.97998 0
1 0.984588 0
1 0.988937 0
1 0.992554 0
1 0.995361 0
1 0.997726 0
0 0.608026 0
0 0.64184 0
0 0.678431 0
0 0.718837 0
0 0.761486 0
0 0.80676 0
0 0.851011 0
0 0.891585 0
0 0.928679 0
0.0520485 0.956603 0
0.14519 0.972992 0
0.264103 0.979278 0
0.428153 0.970306 0
0.623926 0.949157 0
0.771038 0.938842 0
0.872358 0.937881 0
0.939956 0.943633 0
0.98674 0.952667 0
1 0.962753 0
1 0.972778 0
1 0.981552 0
1 0.989715 0
1 0.996536 0
1 1 0
1 1 0
1 1 0
1 1 0
1 1 0
1 1 0
1 1 0
1 1 0
1 1 0
1 1 0
0 0.756115 0
0 0.800519 0
0 0.844495 0
0 0.88632 0
0 0.924422 0
0 0.961746 0
0 0.997726 0
0.00445563 1 0
0.0503853 1 0
0.114351 1 0
0.204669 1 0
0.327688 1 0
0.502693 1 0
0.678538 1 0
0.812573 1 0
0.905486 1 0
0.965637 1 0
1 1 0
1 1 0
1 1 0
1 1 0
1 1 0
1 1 0
1 1 0
1 1 0
1 1 0
1 1 0
1 1 0
1 1 0
1 1 0
1 1 0
1 1 0
1 1 0
0 0.91722 0
0 0.954772 0
0 0.990219 0
0 1 0
0 1 0
0 1 0
0.0239109 1 0
0.0594949 1 0
0.10367 1 0
0.164233 1 0
0.249805 1 0
0.379919 1 0
0.557397 1 0
0.717617 1 0
0.842954 1 0
0.928573 1 0
0.983688 1 0
1 1 0
1 1 0
1 1 0
1 1 0
1 1 0
1 1 0
1 1 0
1 1 0
1 1 0
1 1 0
1 1 0
1 1 0
1 1 0
1 1 0
1 1 0
1 1 0
0 1 0
0 1 0
0 1 0
0 1 0
0.0155947 1 0
0.0421912 1 0
0.0700084 1 0
0.102235 1 0.00468452
0.14255 1 0.010605
0.199084 1 0.01355
0.282368 1 0.0117037
0.420508 1 0.00503548
0.593851 1 0
0.742504 1 0
0.862425 1 0
0.943633 1 0
0.995987 1 0
1 1 0
1 1 0
1 1 0
1 1 0
1 1 0
1 1 0
1 1 0
1 1 0
1 1 0
1 1 0
1 1 0
1 1 0
1 1 0
1 1 0
1 1 0
1 1 0
0 1 0
0 1 0
0.0037995 1 0
0.0283207 1 0
0.0550698 1 0.0059205
0.0785382 1 0.0138247
0.102907 1 0.0206302
0.13167 1 0.0257725
0.16878 1 0.0287633
0.221576 1 0.0287327
0.305119 1 0.0235752
0.449165 1 0.0119478
0.617166 1 0.0033875
0.760082 1 0
0.875959 1 0
0.954086 1 0
1 1 0
1 1 0
1 1 0
1 1 0
1 1 0
1 1 0
1 1 0
1 1 0
1 1 0
1 1 0
1 1 0
1 1 0
1 1 0
1 1 0
1 1 0
1 1 0
1 1 0
0 1 0
0.0147707 1 0.00683604
0.0361028 1 0.0150912
0.0579843 1 0.0220188
0.0820172 1 0.0275425
0.102525 1 0.03299
0.124147 1 0.0372168
0.150546 1 0.0401007
0.185214 1 0.0410163
0.236515 1 0.0393835
0.320928 1 0.0320745
0.469612 1 0.0174716
0.633127 1 0.00727855
0.770977 1 0
0.884871 1 0
0.961074 1 0
1 1 0
1 1 0
1 1 0
1 1 0
1 1 0
1 1 0
1 1 0
1 1 0
1 1 0
1 1 0
1 1 0
1 1 0
1 1 0
1 1 0
1 1 0
1 1 0
1 1 0
0.0186618 1 0.0209812
0.0372778 1 0.027451
0.0561074 1 0.0328222
0.0758068 1 0.0374151
0.0977646 1 0.0409247
0.116381 1 0.0443732
0.136812 1 0.047364
0.161532 1 0.0487221
0.194781 1 0.0484321
0.244816 1 0.0451972
0.330159 1 0.0364233
0.480781 1 0.0202945
0.641428 1 0.00836194
0.776822 1 0
0.888838 1 0
0.963882 1 0
1 1 0
1 1 0
1 1 0
1 1 0
1 1 0
1 1 0
1 1 0
1 1 0
1 1 0
1 1 0
1 1 0
1 1 0
1 1 0
1 1 0
1 1 0
1 1 0
1 1 0
0.0347906 1 0.0364691
0.0513161 1 0.0405585
0.068452 1 0.0439765
0.0871138 1 0.047425
0.107561 1 0.0493477
0.12459 1 0.0513771
0.143664 1 0.0528573
0.167376 1 0.0534218
0.199619 1 0.0520638
0.249073 1 0.0479286
0.334874 1 0.0381628
0.485954 1 0.0211948
0.644602 1 0.0083772
0.7785 1 0
0.889509 1 0
0.963653 1 0
1 1 0
1 1 0
1 1 0
1 1 0
1 1 0
1 1 0
1 1 0
1 1 0
1 1 0
1 1 0
1 1 0
1 1 0
1 1 0
1 1 0
1 1 0
1 1 0
1 1 0
0.044892 1 0.0462196
0.0604715 1 0.049073
0.0763104 1 0.0513161
0.093431 1 0.0530098
0.113176 1 0.0541543
0.129503 1 0.0553902
0.147662 1 0.0562448
0.170642 1 0.055848
0.202274 1 0.0541085
0.251316 1 0.0491493
0.33727 1 0.0389105
0.48835 1 0.0212863
0.64596 1 0.00825513
0.778973 1 0
0.889158 1 0
0.962997 1 0
1 1 0
1 1 0
1 1 0
1 1 0
1 1 0
1 1 0
1 1 0
1 1 0
1 1 0
1 1 0
1 1 0
1 1 0
1 1 0
1 1 0
1 1 0
1 1 0
1 1 0
0.0506294 1 0.0517739
0.0652628 1 0.0535592
0.0806134 1 0.0550698
0.0968948 1 0.0560616
0.115999 1 0.0563973
0.131563 1 0.0570993
0.149187 1 0.0572824
0.171817 1 0.0566415
0.202838 1 0.0542458
0.251835 1 0.0490578
0.337606 1 0.0383612
0.488609 1 0.020737
0.645518 1 0.00798047
0.778088 1 0
0.88809 1 0
0.961929 1 0
1 1 0
1 1 0
1 1 0
1 1 0
1 1 0
1 1 0
1 1 0
1 1 0
1 1 0
1 1 0
1 1 0
1 1 0
1 1 0
1 1 0
1 1 0
1 1 0
1 1 0
0.0537118 1 0.0547341
0.0678111 1 0.0559396
0.0822766 1 0.0566873
0.0981918 1 0.0571908
0.116533 1 0.0570077
0.131807 1 0.0572519
0.149157 1 0.0570993
0.171283 1 0.0560311
0.202319 1 0.0535744
0.251301 1 0.0481422
0.337041 1 0.0373236
0.487739 1 0.0198062
0.64448 1 0.00762951
0.776974 1 0
0.887037 1 0
0.960952 1 0
1 1 0
1 1 0
1 1 0
1 1 0
1 1 0
1 1 0
1 1 0
1 1 0
1 1 0
1 1 0
1 1 0
1 1 0
1 1 0
1 1 0
1 1 0
1 1 0
1 1 0
0.0547799 1 0.0557565
0.0681468 1 0.0563363
0.0823835 1 0.0568093
0.0979477 1 0.0569467
0.115892 1 0.0564126
0.130953 1 0.0564889
0.148119 1 0.0562295
0.170184 1 0.0549325
0.201251 1 0.0523842
