A-tak/A-tak Film Look for BMPCC.cube
TITLE "Generated by Resolve"
LUT_3D_SIZE 5
0.117754 0.12871 0.0968338
0.283925 0.107012 0.0704509
0.998962 0 0
1 0 0
1 0 0.00350958
0.05449 0.211734 0.033753
0.198962 0.210849 0.0419928
0.944137 0.104982 0
1 0.152926 0.0126955
1 0.394522 0.40531
0 0.673899 0
0 0.823301 0
0.735485 0.79501 0.173144
1 0.833631 0.369009
1 0.840635 0.478096
0 1 0.541238
0 1 0.58024
0.35378 1 0.49781
0.836011 1 0.515831
1 1 0.565011
0 1 0.653223
0 1 0.680201
0 1 0.710658
0.535332 1 0.645594
0.959762 1 0.660044
0.106081 0.123873 0.285786
0.266926 0.10341 0.241672
0.992599 0 0
1 0 0
1 0 0.0585336
0.0543221 0.206622 0.168109
0.202655 0.216938 0.172824
0.957595 0.122026 0.014374
1 0.198306 0.203449
1 0.438071 0.48954
0 0.716823 0
0 0.870893 0.209781
0.747723 0.829923 0.30164
1 0.847532 0.422766
1 0.847349 0.512596
0 1 0.575341
0 1 0.609918
0.344457 1 0.533349
0.838758 1 0.547936
1 1 0.593347
0 1 0.675654
0 1 0.701442
0 1 0.735515
0.539147 1 0.669535
0.964874 1 0.682521
0 0.160906 1
0.15317 0.130541 1
0.914611 0 0.890867
1 0 0.843839
1 0 0.841199
0 0.215152 0.965164
0.123949 0.220066 0.968063
0.914397 0.101213 0.899031
1 0.190738 0.987854
1 0.430182 1
0 0.703319 0.695155
0 0.867582 0.899168
0.715755 0.81059 0.864393
1 0.81059 0.891203
1 0.81033 0.911284
0 1 0.984955
0 1 1
0.221958 1 0.884077
0.812528 1 0.839765
1 1 0.842313
0 1 0.949248
0 1 0.976974
0 1 0.941588
0.50663 1 0.839612
0.948165 1 0.825177
0 0.149096 1
0.120165 0.123583 1
0.890318 0 1
1 0 1
1 0 1
0 0.218357 1
0.120134 0.223636 1
0.92755 0.109422 1
1 0.240253 1
1 0.450355 1
0 0.736873 1
0 0.897261 1
0.677623 0.808728 1
0.997284 0.795254 1
1 0.794247 1
0 1 1
0 1 1
0 1 1
0.777188 1 1
1 1 1
0 1 1
0 1 1
0 1 1
0.434119 1 1
0.918441 1 1
0 0.0999466 1
0.130236 0.0759594 1
0.870451 0 1
1 0 1
1 0 1
0 0.189776 1
0.137819 0.206653 1
0.936217 0.117571 1
1 0.280644 1
1 0.464775 1
0 0.774227 1
0 0.91252 1
0.615228 0.803647 1
0.958816 0.78265 1
1 0.780972 1
0 1 1
0 1 1
0 1 1
0.73164 1 1
1 1 1
0 1 1
0 1 1
0 1 1
0.32639 1 1
0.887892 1 1
