A-tak/A-tak High Contrast CT125.cube
TITLE "Generated by Resolve"
LUT_3D_SIZE 5
0 0 0
0.0464485 0 0
0.842969 0 0
1 0 0
1 0 0
0 0 0
0 0 0
0.667491 0 0
1 0 0
1 0 0
0 0.391836 0
0 0.367941 0
0.400168 0.400153 0
1 0.517494 0
1 0.646937 0
0 1 0
0 1 0
0.429725 1 0
1 1 0
1 1 0
0 1 0
0 1 0
0.281682 1 0
1 1 0
1 1 0
0 0 0.0590219
0.0375372 0 0.0375372
0.843107 0 0
1 0 0
1 0 0
0 0 0
0 0 0
0.671214 0 0
1 0 0
1 0 0
0 0.378241 0
0 0.385641 0
0.468544 0.468544 0
1 0.583124 0
1 0.657298 0.0366979
0 1 0
0 1 0
0.4038 1 0
1 1 0
1 1 0
0 1 0
0 1 0
0.262287 1 0
1 1 0
1 1 0
0 0 0.93518
0 0 0.922408
0.783948 0 0.783948
1 0 0.663005
1 0 0.529152
0 0 0.809827
0 0 0.786358
0.595422 0 0.595438
1 0 0.368536
1 0 0.274586
0 0.342565 0.34255
0 0.391699 0.391699
0.51194 0.512016 0.511879
1 0.61239 0.612406
1 0.641718 0.641718
0 1 0.431373
0 1 0.419318
0.361151 1 0.361151
1 1 0.211215
1 1 0.209064
0 1 0.271717
0 1 0.254978
0.241856 1 0.241856
1 1 0.0906233
1 1 0.0687724
0 0 1
0 0 1
0.729061 0 1
1 0 1
1 0 1
0 0 1
0 0 1
0.489708 0 1
1 0 1
1 0 1
0 0.308721 1
0 0.406729 1
0.552163 0.552163 1
1 0.605249 1
1 0.597009 1
0 1 1
0 1 1
0.307744 1 1
1 1 1
1 1 1
0 1 1
0 1 1
0.177844 1 1
1 1 1
1 1 0.99826
0 0 1
0 0 1
0.678111 0 1
1 0 1
1 0 1
0 0 1
0 0 1
0.42652 0 1
1 0 1
1 0 1
0 0.309636 1
0 0.462196 1
0.616297 0.616297 1
1 0.615656 1
1 0.583429 1
0 1 1
0 1 1
0.329641 1 1
1 1 1
1 1 1
0 1 1
0 1 1
0.177737 1 1
1 1 1
1 1 1
