A-tak/A-tak Teal Orange Dark Contrast.cube
TITLE "Generated by Resolve"
LUT_3D_SIZE 9
0.0310063 0 0
0.0414588 0 0
0.0901045 0 0
0.270573 0 0
0.501472 0 0
0.635325 0.143481 0.00686656
0.740688 0.244755 0.0940871
0.844694 0.346197 0.186618
0.95053 0.450202 0.284108
0.0482643 0.0128176 0
0.0492714 0.00999466 0
0.093843 0.00108339 0
0.293584 0 0
0.50164 0 0
0.637705 0.169406 0.0203861
0.745525 0.259953 0.106722
0.851286 0.357748 0.194919
0.958679 0.461357 0.291966
0.0895552 0.0950484 0
0.0846418 0.101717 0
0.160998 0.12575 0
0.345068 0.17821 0
0.50248 0.186206 0
0.642451 0.237354 0.0422522
0.752361 0.304036 0.118196
0.859831 0.386175 0.203525
0.96849 0.480476 0.303075
0.107958 0.344717 0
0.151125 0.346349 0
0.239277 0.348318 0
0.359136 0.350027 0
0.502281 0.350027 0
0.648737 0.361944 0.0615549
0.761624 0.396658 0.128923
0.872038 0.448615 0.220523
0.985611 0.523201 0.325582
0 0.496651 0
0 0.49865 0.00201419
0.0782177 0.500877 0.0115358
0.323369 0.503578 0.0225376
0.496986 0.505287 0.0370184
0.654368 0.51339 0.0808728
0.774517 0.531731 0.157153
0.887282 0.55642 0.248005
0.994598 0.592309 0.339162
0 0.657221 0.0866407
0 0.661616 0.0904707
0 0.665919 0.0973373
0.288533 0.670497 0.107149
0.498238 0.669749 0.111696
0.656901 0.665141 0.126452
0.764126 0.668391 0.167361
0.864393 0.673243 0.228382
0.963912 0.682719 0.306828
0 0.791791 0.207874
0 0.792248 0.208713
0 0.792462 0.209308
0 0.790722 0.206622
0.470161 0.781201 0.1906
0.653758 0.770916 0.187076
0.76321 0.771481 0.210864
0.863523 0.772931 0.253742
0.962097 0.776089 0.318273
0 0.895735 0.290105
0 0.895582 0.290364
0 0.895308 0.289509
0 0.892729 0.286213
0.181018 0.881865 0.271275
0.637491 0.869413 0.261204
0.757549 0.869032 0.273152
0.861326 0.869596 0.299016
0.96141 0.870985 0.344839
0 0.993805 0.375753
0 0.993469 0.375235
0 0.992874 0.374258
0 0.990082 0.370962
0 0.979141 0.358419
0.57644 0.966903 0.346899
0.741207 0.966171 0.352392
0.855116 0.966415 0.365301
0.958679 0.966949 0.391775
0.0346227 0 0
0.03888 0 0
0.0863813 0 0
0.270939 0 0
0.501396 0 0
0.635401 0.14345 0.068864
0.741054 0.244709 0.125536
0.84538 0.346548 0.203845
0.951232 0.450843 0.294926
0.0393835 0.0151064 0
0.0391089 0.0149691 0
0.0903792 0.00660716 0
0.294179 0 0
0.50164 0 0
0.638056 0.169558 0.0763104
0.746044 0.260685 0.137453
0.852155 0.358907 0.216358
0.959518 0.462104 0.306813
0.0746471 0.0973068 0
0.0770428 0.104387 0
0.159594 0.129259 0
0.345205 0.180255 0
0.502693 0.187747 0
0.642969 0.238346 0.0923629
0.753079 0.305028 0.155505
0.860655 0.387304 0.233234
0.969635 0.481682 0.322225
0.106325 0.345449 0
0.150835 0.347051 0
0.239567 0.34905 0.00775158
0.359701 0.350942 0.0219883
0.502754 0.351019 0.0645457
0.6495 0.363088 0.117159
0.762753 0.398047 0.18262
0.873442 0.450263 0.259342
0.987137 0.524819 0.349203
0 0.497261 0.0578775
0 0.499275 0.0669718
0.0872663 0.501534 0.0777295
0.325277 0.504295 0.0919356
0.498131 0.50634 0.104524
0.656077 0.514656 0.14847
0.776165 0.532952 0.22153
0.888228 0.557107 0.289937
0.995132 0.592721 0.362325
0 0.658808 0.147463
0 0.663035 0.161028
0 0.667109 0.174075
0.290517 0.671595 0.188235
0.498543 0.670237 0.186664
0.657069 0.665339 0.183001
0.764187 0.668406 0.210803
0.864408 0.673243 0.256123
0.963821 0.682658 0.321553
0 0.792004 0.262882
0 0.792309 0.263584
0 0.792447 0.26392
0 0.790677 0.260609
0.470115 0.781109 0.241062
0.653773 0.770916 0.226383
0.763134 0.771405 0.243091
0.863355 0.772778 0.275883
0.961837 0.775845 0.330694
0 0.89575 0.321691
0 0.895491 0.321386
0 0.895155 0.321019
0 0.892592 0.31664
0.182864 0.881621 0.299062
0.637263 0.869169 0.282612
0.757382 0.868849 0.29192
0.861158 0.869429 0.313848
0.961227 0.870817 0.354925
0 0.993667 0.390753
0 0.993301 0.390112
0 0.992691 0.389197
0 0.989899 0.385733
0 0.978958 0.371633
0.576638 0.96672 0.357351
0.741009 0.965988 0.361471
0.854917 0.966232 0.373144
0.958495 0.966766 0.398138
0.0451209 0 0.0515755
0.0436713 0 0.052781
0.0886702 0 0.0518196
0.275212 0 0.0988785
0.501534 0 0.149065
0.635676 0.14287 0.173175
0.741604 0.244938 0.204868
0.84596 0.346792 0.256062
0.95198 0.45095 0.324849
0.0405585 0.016434 0.0544747
0.0457008 0.0137942 0.0529641
0.0936446 0.00582895 0.0509651
0.297993 0 0.115145
0.501823 0 0.153887
0.638575 0.169696 0.182956
0.746792 0.260884 0.218875
0.852918 0.359197 0.270405
0.960388 0.46302 0.338537
0.0853742 0.100465 0.0748913
0.084535 0.107652 0.0818189
0.165316 0.132433 0.105776
0.347799 0.182177 0.155962
0.502983 0.189258 0.172045
0.643534 0.239414 0.199115
0.753841 0.306065 0.237034
0.861738 0.388281 0.288167
0.970672 0.482567 0.354513
0.108186 0.345876 0.171099
0.152758 0.347662 0.175525
0.24094 0.349737 0.181567
0.360388 0.351843 0.191241
0.503304 0.352453 0.204456
0.650477 0.364523 0.220996
0.76376 0.399298 0.261311
0.874784 0.451316 0.31284
0.988983 0.526726 0.381582
0 0.497932 0.182727
0 0.50013 0.191379
0.0932784 0.502403 0.200168
0.327169 0.505211 0.21062
0.499077 0.507332 0.217853
0.657603 0.515892 0.245045
0.7776 0.534066 0.293294
0.889204 0.557824 0.339223
0.995727 0.593271 0.391913
0 0.660258 0.242084
0 0.664424 0.252659
0 0.668376 0.262333
0.291798 0.672557 0.272282
0.499001 0.670848 0.269444
0.657206 0.665492 0.26096
0.764157 0.668406 0.276387
0.864302 0.673091 0.303181
0.963851 0.682643 0.34992
0 0.792065 0.32079
0 0.79234 0.321508
0 0.792493 0.321828
0 0.790585 0.318593
0.469963 0.781094 0.301808
0.65359 0.770794 0.285771
0.762921 0.771191 0.29546
0.863111 0.772503 0.316182
0.961685 0.775662 0.35639
0 0.895613 0.36051
0 0.895354 0.36022
0 0.894987 0.35967
0 0.892378 0.355688
0.186191 0.881453 0.339178
0.637354 0.869215 0.321782
0.757183 0.86865 0.327718
0.860945 0.86923 0.343771
0.961028 0.870588 0.375677
0 0.993393 0.412284
0 0.993088 0.412177
0 0.992493 0.411292
0 0.9897 0.407691
0 0.978759 0.393225
0.576226 0.966506 0.378302
0.740826 0.965789 0.381323
0.854734 0.966033 0.391485
0.958297 0.966567 0.412695
0.0758831 0 0.155734
0.0594949 0 0.156024
0.0961929 0 0.154086
0.289708 0 0.249241
0.501045 0 0.322225
0.635431 0.142763 0.326406
0.741756 0.245487 0.339193
0.846494 0.347112 0.361456
0.952789 0.451316 0.39649
0.0831617 0.0112001 0.155047
0.0668193 0.00852979 0.154406
0.10663 0.00225834 0.164614
0.309743 0 0.268437
0.501625 0 0.324926
0.638682 0.170352 0.332433
0.747311 0.262028 0.348287
0.853712 0.360235 0.372122
0.961456 0.463737 0.407843
0.116274 0.108904 0.208515
0.108171 0.116732 0.219272
0.182971 0.140795 0.251164
0.353262 0.18436 0.312352
0.502998 0.191165 0.333608
0.644038 0.240986 0.342077
0.754604 0.307607 0.359777
0.862837 0.38967 0.38497
0.971969 0.483955 0.421225
0.113649 0.345968 0.328481
0.156832 0.347936 0.331167
0.243442 0.350256 0.335088
0.361044 0.352728 0.341787
0.5037 0.353857 0.349126
0.651408 0.36614 0.35491
0.764996 0.400992 0.375341
0.876616 0.45362 0.403296
0.991333 0.528939 0.443992
0 0.498741 0.336065
0 0.500938 0.340688
0.0938125 0.503304 0.345586
0.328389 0.506111 0.351171
0.500328 0.508766 0.355734
0.659785 0.517617 0.370001
0.779416 0.53547 0.395972
0.890166 0.558587 0.420584
0.995926 0.593256 0.44979
0 0.662272 0.367453
0 0.666194 0.373373
0 0.669917 0.378851
0.293004 0.673579 0.384161
0.499062 0.671153 0.380972
0.656794 0.66511 0.373098
0.763516 0.667811 0.379171
0.863569 0.672435 0.390631
0.963104 0.681956 0.41352
0 0.791653 0.409613
0 0.791836 0.409827
0 0.791806 0.409812
0 0.789899 0.407599
0.469276 0.780392 0.395758
0.652888 0.770047 0.383398
0.76202 0.770306 0.387015
0.862119 0.771542 0.396094
0.960708 0.77467 0.416098
0 0.894865 0.430106
0 0.89456 0.429755
0 0.894102 0.429267
0 0.891447 0.42623
0.1832 0.880476 0.413336
0.636393 0.868284 0.399283
0.756252 0.867704 0.401663
0.859983 0.868284 0.409873
0.960098 0.869642 0.427848
0 0.992676 0.459968
0 0.992142 0.459297
0 0.991547 0.45861
0 0.988754 0.455558
0 0.977813 0.443
0.575509 0.96556 0.429648
0.739895 0.964843 0.431266
0.853773 0.965072 0.437644
0.957336 0.965621 0.451774
0.17293 0 0.309697
0.133104 0 0.316838
0.156924 0 0.348562
0.335714 0 0.448264
0.49868 0 0.48957
0.633173 0.141207 0.492393
0.740246 0.244831 0.497871
0.845472 0.346548 0.506554
0.952224 0.451347 0.519921
0.177646 0 0.331212
0.142275 0 0.339712
0.176577 0 0.374136
0.344823 0 0.458045
0.49958 0 0.491371
0.637186 0.171267 0.495857
0.746288 0.261769 0.502708
0.853162 0.360128 0.512444
0.961379 0.463691 0.526802
0.191363 0.141238 0.419562
0.183841 0.14696 0.426963
0.238743 0.16202 0.447501
0.366064 0.18349 0.482948
0.501396 0.190417 0.496315
0.642985 0.240528 0.500801
0.754208 0.308125 0.508904
0.862745 0.389929 0.519585
0.972534 0.484474 0.53521
0.114855 0.343191 0.490944
0.149752 0.345525 0.492576
0.24419 0.348455 0.495201
0.359442 0.35172 0.499779
0.502541 0.353811 0.504997
0.651164 0.366552 0.507698
0.765286 0.401907 0.517311
0.878233 0.455802 0.531182
0.993423 0.531014 0.551568
0 0.498787 0.499031
0 0.501106 0.50135
0.062562 0.503532 0.503761
0.326314 0.506706 0.506798
0.500969 0.510185 0.509743
0.661479 0.519158 0.516564
0.78027 0.536263 0.528923
0.889632 0.558267 0.540169
0.993759 0.591485 0.552041
0 0.663569 0.514763
0 0.667094 0.517479
0 0.670558 0.520134
0.286839 0.673243 0.522225
0.497047 0.669383 0.519234
0.653971 0.66247 0.513893
0.76022 0.664759 0.515709
0.860227 0.669306 0.51931
0.959792 0.678813 0.526879
0 0.788769 0.533364
0 0.788769 0.533364
0 0.7888 0.53341
0 0.786633 0.531762
0.466484 0.777157 0.524636
0.6495 0.766674 0.517189
0.758297 0.766674 0.517845
0.858289 0.767819 0.520394
0.957122 0.771221 0.526925
0 0.891432 0.541512
0 0.891005 0.541131
0 0.890486 0.54078
0 0.887724 0.538628
0.190753 0.876677 0.530327
0.632822 0.864591 0.521813
0.752544 0.864012 0.52224
0.856291 0.864576 0.524834
0.956359 0.865965 0.531075
0 0.988952 0.552117
0 0.988418 0.55169
0 0.987823 0.551217
0 0.985031 0.548989
0 0.97409 0.54049
0.571771 0.961852 0.531563
0.736156 0.961135 0.532006
0.85005 0.961364 0.534417
0.953613 0.961898 0.540078
0.226352 0 0.631769
0.239689 0 0.632578
0.295384 0 0.635096
0.371572 0 0.637339
0.493629 0 0.638025
0.630762 0.15024 0.635401
0.73875 0.248859 0.641443
0.844862 0.348486 0.650019
0.952224 0.452262 0.660609
0.214649 0 0.633783
0.228077 0 0.63444
0.29218 0 0.636439
0.370626 0 0.638544
0.495003 0.0508278 0.640604
0.635447 0.180926 0.640101
0.745449 0.266361 0.647776
0.853147 0.362554 0.657755
0.961883 0.465095 0.669657
0.163684 0.176577 0.638209
0.178836 0.179095 0.639048
0.275029 0.183001 0.64065
0.365835 0.18938 0.643687
0.497505 0.204852 0.646265
0.642039 0.246235 0.646738
0.754009 0.311864 0.655924
0.863188 0.392706 0.66717
0.974273 0.48748 0.681315
0 0.343847 0.645716
0 0.3467 0.647578
0.196399 0.350149 0.650004
0.34725 0.354467 0.653269
0.499413 0.357046 0.654414
0.651087 0.369543 0.656001
0.766705 0.405737 0.668101
0.880995 0.460319 0.684062
0.996033 0.534646 0.701961
0 0.499779 0.645823
0 0.502113 0.64863
0 0.504662 0.651698
0.316136 0.508476 0.656229
0.500679 0.512901 0.661036
0.663432 0.521752 0.669108
0.780957 0.537575 0.682078
0.888228 0.557626 0.691066
0.991272 0.589639 0.69749
0 0.665263 0.665507
0 0.668208 0.668452
0 0.670832 0.671061
0.260441 0.672526 0.67274
0.4925 0.667231 0.667308
0.650187 0.659464 0.659007
0.756451 0.661524 0.659937
0.85658 0.666102 0.661814
0.955871 0.675242 0.664546
0 0.785489 0.682567
0 0.785397 0.682475
0 0.785183 0.682277
0 0.783093 0.680262
0.460197 0.773602 0.671122
0.645167 0.76286 0.660746
0.753994 0.762631 0.660288
0.853986 0.763714 0.660731
0.952926 0.767163 0.662593
0 0.88751 0.687404
0 0.887007 0.686946
0 0.886397 0.686366
0 0.883543 0.68365
0.144198 0.872358 0.67306
0.628199 0.860456 0.661891
0.748241 0.859892 0.661448
0.852033 0.860471 0.66215
0.952148 0.861845 0.663813
0 0.984787 0.689586
0 0.984253 0.689067
0 0.983658 0.688502
0 0.980865 0.685863
0 0.969924 0.675593
0.56701 0.957687 0.664225
0.731823 0.95697 0.663722
0.845838 0.957198 0.664408
0.949401 0.957748 0.666026
0 0.0416876 0.750896
0 0.0417945 0.750896
0 0.0472267 0.751049
0.321752 0.0663615 0.750118
0.485908 0.119493 0.743954
0.631296 0.181765 0.738567
0.740734 0.264775 0.745388
0.847639 0.357275 0.754482
0.955627 0.458 0.765011
0 0.0912337 0.751049
0 0.0933394 0.751232
0 0.0998856 0.751705
0.321416 0.114321 0.751553
0.488121 0.152499 0.747295
0.636606 0.206302 0.744198
0.747951 0.281437 0.75259
0.856458 0.371771 0.763134
0.965728 0.471717 0.774899
0 0.220432 0.75259
0 0.22356 0.753491
0 0.227527 0.75465
0.319585 0.233585 0.755703
0.491493 0.240436 0.753124
0.643671 0.265446 0.751736
0.757031 0.325689 0.761715
0.86688 0.402167 0.773404
0.979461 0.495583 0.788373
0 0.35639 0.75552
0 0.359396 0.757382
0 0.362844 0.759533
0.311818 0.366781 0.761852
0.4963 0.367651 0.760662
0.653437 0.379461 0.762203
0.771191 0.415885 0.775952
0.886702 0.469459 0.792981
1 0.542123 0.810025
0 0.504036 0.751659
0 0.506493 0.754772
0 0.509392 0.758495
0.29337 0.513619 0.763867
0.499443 0.518547 0.76965
0.666941 0.526787 0.777157
0.783825 0.541451 0.788861
0.889815 0.560372 0.796185
0.991928 0.590997 0.800687
0 0.669276 0.772213
0 0.671763 0.774807
0 0.673869 0.777005
0.181888 0.674769 0.77792
0.486671 0.668406 0.77113
0.649241 0.660105 0.761776
0.756115 0.661952 0.762371
0.85658 0.666575 0.763958
0.955688 0.675471 0.765454
0 0.785855 0.786114
0 0.785687 0.785931
0 0.785458 0.785702
0 0.783368 0.783597
0.450965 0.773877 0.774075
0.64358 0.762783 0.762768
0.753109 0.762402 0.761959
0.853651 0.763699 0.762203
0.95256 0.76704 0.762936
0 0.887343 0.78996
0 0.886778 0.78941
0 0.886137 0.788769
0 0.883238 0.785901
0 0.872343 0.775158
0.626245 0.860243 0.763195
0.747448 0.859663 0.762524
0.85156 0.860243 0.762829
0.951782 0.861616 0.763516
0 0.984527 0.790402
0 0.984009 0.789868
0 0.983398 0.789288
0 0.980621 0.786557
0 0.969665 0.775845
0.563592 0.957427 0.763867
0.730953 0.95671 0.763165
0.84535 0.956939 0.763439
0.949065 0.957488 0.764065
0 0.200992 0.85243
0 0.20061 0.852369
0 0.201404 0.852354
0.17406 0.201984 0.850843
0.47332 0.203403 0.843259
0.630549 0.231113 0.838193
0.742397 0.292805 0.845579
0.850523 0.372335 0.855177
0.959167 0.46688 0.865904
0 0.21796 0.852598
0 0.218479 0.852842
0 0.22005 0.853193
0.178485 0.221164 0.852628
0.476356 0.221637 0.847318
0.636332 0.249271 0.844465
0.750164 0.308888 0.853513
0.859724 0.387747 0.864393
0.969924 0.481559 0.8766
0 0.271046 0.854063
0 0.273335 0.85507
0 0.27599 0.856321
0.190982 0.278889 0.857084
0.480476 0.278279 0.85362
0.643915 0.297353 0.852705
0.759609 0.348241 0.863157
0.871168 0.417746 0.875837
0.984955 0.506905 0.891554
0 0.373342 0.856565
0 0.376196 0.858518
0 0.379431 0.8607
0.194949 0.383215 0.863035
0.485527 0.384283 0.862226
0.654582 0.395911 0.864363
0.775586 0.431373 0.879454
0.892119 0.482185 0.896834
1 0.550607 0.912764
0 0.510292 0.853437
0 0.513115 0.857099
0 0.516213 0.861189
0.133013 0.520928 0.867369
0.489128 0.526009 0.873457
0.66836 0.533501 0.879835
0.78555 0.546761 0.889815
0.890913 0.564324 0.89572
0.99263 0.594003 0.899245
0 0.673365 0.873594
0 0.675349 0.875685
0 0.676921 0.877348
0 0.677165 0.877562
0.470069 0.6701 0.869932
0.64651 0.661311 0.859892
0.755383 0.663111 0.860395
0.856474 0.667643 0.861784
0.955612 0.676173 0.862654
0 0.786587 0.884489
0 0.786389 0.884291
0 0.78616 0.884047
0 0.784131 0.881987
0.424674 0.774502 0.872175
0.640101 0.763073 0.860334
0.751888 0.7626 0.859358
0.853208 0.764004 0.859556
0.952407 0.7673 0.859922
0 0.887465 0.887709
0 0.88687 0.887114
0 0.886183 0.886427
0 0.883268 0.883513
0 0.87248 0.872709
0.622126 0.86038 0.860517
0.74612 0.8598 0.85977
0.851087 0.860365 0.859922
0.951629 0.861723 0.860243
0 0.984588 0.887541
0 0.984054 0.887007
0 0.983459 0.886412
0 0.980667 0.883635
0 0.969726 0.872755
0.556207 0.957488 0.860578
0.729335 0.956771 0.859815
0.844831 0.957 0.859937
0.948852 0.957549 0.860182
0 0.290639 0.950805
0 0.290379 0.950835
0 0.290929 0.950896
0 0.290593 0.949599
0.433997 0.28751 0.942596
0.625238 0.300282 0.938247
0.742596 0.341085 0.946273
0.852811 0.400961 0.956161
0.962509 0.482887 0.967163
0 0.298848 0.951324
0 0.299077 0.951705
0 0.300221 0.952331
0 0.301228 0.952148
0.436637 0.299687 0.947448
0.631556 0.313848 0.945205
0.750774 0.354757 0.95465
0.86244 0.41622 0.965881
0.974243 0.498741 0.978897
0 0.329 0.953597
0 0.33077 0.954849
0 0.333516 0.956222
0 0.335988 0.957336
0.43978 0.335332 0.95433
0.639445 0.34757 0.953887
0.760662 0.386404 0.964782
0.874876 0.444389 0.978408
0.990265 0.523598 0.994934
0 0.402045 0.957137
0 0.404913 0.959274
0 0.408087 0.961639
0 0.411933 0.964263
0.443397 0.413092 0.963851
0.651194 0.424186 0.966903
0.778347 0.456809 0.982971
0.896605 0.502251 1
1 0.564126 1
0 0.521202 0.95584
0 0.524239 0.959762
0 0.527886 0.964553
0 0.532799 0.970962
0.443122 0.537972 0.976928
0.664286 0.544167 0.98175
0.785046 0.555962 0.990021
0.891096 0.571969 0.994827
0.992798 0.599924 0.997528
0 0.67805 0.974273
0 0.679545 0.97586
0 0.680781 0.977172
0 0.680507 0.976822
0.410468 0.672862 0.968566
0.638666 0.663645 0.958007
0.752956 0.665461 0.958526
0.85565 0.669764 0.95967
0.955215 0.678019 0.960143
0 0.787747 0.982681
0 0.787533 0.982467
0 0.78732 0.982238
0 0.785351 0.980209
0.299229 0.775509 0.970123
0.631128 0.763806 0.957916
0.748791 0.763287 0.956863
0.852094 0.764752 0.957107
0.951949 0.768048 0.957305
0 0.887724 0.985351
0 0.887098 0.98471
0 0.886381 0.984009
0 0.883497 0.981079
0 0.872801 0.970306
0.611109 0.860685 0.958038
0.742901 0.860121 0.957259
0.849897 0.860685 0.957336
0.951186 0.862028 0.957519
0 0.984726 0.98497
0 0.984192 0.984436
0 0.983581 0.983841
0 0.980789 0.981048
0 0.969848 0.970092
0.533944 0.95761 0.957824
0.725521 0.956893 0.957031
0.843549 0.957122 0.957092
0.948379 0.957671 0.957214
