A-tak/A-tak Film Look for BMPCC.cube
TITLE "Generated by Resolve"
LUT_3D_SIZE 33
0.117754 0.12871 0.0968338
0.12987 0.127733 0.0955978
0.142168 0.126955 0.0945144
0.151293 0.126894 0.0941176
0.160174 0.126879 0.0937209
0.18056 0.124102 0.0905776
0.207675 0.119844 0.0858015
0.241047 0.11458 0.0796063
0.283925 0.107012 0.0704509
0.341375 0.096437 0.0563973
0.420035 0.0818799 0.0321508
0.531395 0.0618753 0
0.662867 0.0343175 0.00352483
0.766964 0.0145571 0.00639353
0.849943 0 0.00469978
0.931044 0 0.000656138
0.998962 0 0
1 0 0
1 0 0
1 0 0
1 0 0
1 0 0
1 0 0
1 0 0
1 0 0
1 0 0
1 0 0
1 0 0
1 0 0
1 0 0
1 0 0
1 0 0
1 0 0.00350958
0.114061 0.138766 0.0929732
0.125963 0.137728 0.0917067
0.138521 0.136767 0.0907454
0.148898 0.136324 0.090135
0.156786 0.136538 0.0900282
0.17377 0.134096 0.0877241
0.199893 0.129763 0.0834516
0.232166 0.124163 0.0772717
0.273793 0.117052 0.0682231
0.329732 0.106783 0.0543221
0.406012 0.0926833 0.0304723
0.512337 0.0737011 0
0.639872 0.047776 0
0.752712 0.0247044 0.00337224
0.838132 0.00784314 0.00299077
0.920012 0 0
0.988083 0 0
1 0 0
1 0 0
1 0 0
1 0 0
1 0 0
1 0 0
1 0 0
1 0 0
1 0 0
1 0 0
1 0 0
1 0 0
1 0 0
1 0 0
1 0 0
1 0 0.00260929
0.110872 0.148333 0.0895705
0.122362 0.147326 0.0882429
0.134432 0.146334 0.087129
0.146426 0.145556 0.0862287
0.153948 0.145815 0.086244
0.167437 0.144564 0.0848096
0.192187 0.140459 0.0808576
0.223545 0.134401 0.0748608
0.263462 0.126741 0.0661173
0.317617 0.116991 0.052491
0.390982 0.1028 0.0287022
0.495521 0.0835584 0
0.618189 0.0587015 0
0.738323 0.0328222 0.000579843
0.82562 0.0152743 0.00151064
0.907774 0 0
0.976257 0 0
1 0 0
1 0 0
1 0 0
1 0 0
1 0 0
1 0 0
1 0 0
1 0 0
1 0 0
1 0 0
1 0 0
1 0 0
1 0 0
1 0 0
1 0 0
1 0.014786 0.00268559
0.108034 0.157671 0.0864576
0.119036 0.156771 0.0849012
0.130816 0.155795 0.0836957
0.143282 0.154864 0.0825971
0.151705 0.154726 0.0822614
0.161669 0.154345 0.0819104
0.184421 0.150546 0.0780499
0.214115 0.144305 0.0717327
0.252949 0.135561 0.0626841
0.305364 0.124575 0.0487221
0.377005 0.110826 0.0246281
0.478065 0.0919661 0
0.598749 0.0674754 0
0.721477 0.0409552 0
0.812222 0.0224918 0
0.895537 0.00569162 0
0.965377 0 0
1 0 0
1 0 0
1 0 0
1 0 0
1 0 0
1 0 0
1 0 0
1 0 0
1 0 0
1 0 0
1 0 0
1 0 0
1 0 0
1 0.00474556 0
1 0.0271153 0
1 0.055787 0.0237888
0.107622 0.165759 0.0855116
0.118425 0.164889 0.0838941
0.129778 0.164065 0.0823529
0.141329 0.162844 0.0808423
0.150317 0.161913 0.0794995
0.157748 0.161349 0.0785077
0.176226 0.157916 0.0747387
0.20441 0.151965 0.0682689
0.241337 0.143786 0.0588388
0.291905 0.132189 0.0444038
0.3617 0.118486 0.0201724
0.459998 0.100435 0
0.579492 0.0770886 0
0.700664 0.0528878 0
0.799146 0.0328832 0
0.88484 0.0166018 0
0.95697 0.00335698 0
1 0 0
1 0 0
1 0 0
1 0 0
1 0 0
1 0 0
1 0 0
1 0 0
1 0 0
1 0 0
1 0 0
1 0.00497444 0
1 0.0234226 0
1 0.0470741 0
1 0.0765698 0.0311589
1 0.117144 0.0579995
0.105531 0.173724 0.0830854
0.115923 0.17203 0.0815442
0.126772 0.170367 0.0797894
0.138308 0.168673 0.0780194
0.14844 0.167193 0.0764782
0.154925 0.166567 0.0756237
0.169986 0.16376 0.0726329
0.196948 0.15816 0.0664683
0.232914 0.150805 0.0575723
0.282414 0.140673 0.0438544
0.350225 0.127214 0.0201267
0.445502 0.111208 0
0.564141 0.0897536 0
0.683589 0.0689708 0
0.788556 0.0492866 0
0.878553 0.0332799 0
0.953201 0.0207218 0
1 0.012665 0
1 0.00791943 0
1 0.00440986 0
1 0.000640879 0
1 0 0
1 0 0
1 0 0
1 0 0
1 0.00462348 0
1 0.0149996 0
1 0.0295567 0
1 0.0493477 0
1 0.0747997 0.0118257
1 0.110399 0.0363012
1 0.149035 0.0895247
1 0.190661 0.155962
0.0945449 0.183261 0.0726177
0.105211 0.180957 0.0714275
0.116136 0.178698 0.0701152
0.127657 0.176501 0.0689403
0.140291 0.174578 0.0679026
0.148302 0.174212 0.0682994
0.161318 0.172885 0.0676585
0.188632 0.168109 0.0634318
0.225589 0.161578 0.0567025
0.276005 0.152972 0.0457618
0.344762 0.141207 0.0264897
0.439109 0.126787 0
0.557031 0.107622 0
0.675578 0.0887617 0
0.773754 0.0733349 0
0.872663 0.0550088 0
0.952056 0.0419013 0
1 0.034287 0
1 0.0302129 0
1 0.0276493 0
1 0.0252842 0
1 0.0231632 0
1 0.023331 0
1 0.0269627 0
1 0.0339818 0
1 0.045182 0
1 0.060914 0
1 0.0834516 0
1 0.116411 0.0178073
1 0.150088 0.0634012
1 0.187793 0.135393
1 0.229435 0.197665
1 0.268101 0.254429
0.0766766 0.19498 0.0556802
0.0886549 0.192782 0.0547951
0.100633 0.190982 0.0543374
0.112337 0.189456 0.0540627
0.125246 0.188128 0.0540169
0.136645 0.188357 0.0551156
0.148714 0.189471 0.0569924
0.175723 0.18735 0.0555276
0.214435 0.182437 0.0513466
0.266651 0.174731 0.0438544
0.337209 0.163363 0.0292058
0.432868 0.148257 0
0.553506 0.129412 0
0.674357 0.111177 0
0.771679 0.0973983 0
0.861341 0.0842908 0
0.946212 0.0706188 0
1 0.0623331 0
1 0.0591592 0
1 0.0577859 0
1 0.0567025 0
1 0.0570993 0
1 0.0617685 0
1 0.0704356 0
1 0.0840314 0
1 0.106661 0
1 0.1308 0.00967422
1 0.16025 0.0552071
1 0.193103 0.128069
1 0.231006 0.187396
1 0.266896 0.244633
1 0.301915 0.294408
1 0.335058 0.339178
0.05449 0.211734 0.033753
0.0685588 0.21004 0.0336767
0.0825055 0.209384 0.0343175
0.096788 0.209522 0.0358282
0.110765 0.21004 0.037644
0.124697 0.211276 0.0398718
0.136416 0.213916 0.043473
0.160021 0.214237 0.0445106
0.198962 0.210849 0.0419928
0.251591 0.204379 0.0358587
0.322515 0.19411 0.0235142
0.418173 0.179767 0
0.542107 0.159487 0
0.669535 0.140352 0
0.773251 0.126375 0
0.864088 0.114839 0
0.944137 0.104982 0
1 0.100069 0
1 0.0990005 0
1 0.0999313 0
1 0.102327 0
1 0.107897 0
1 0.118593 0
1 0.133532 0
1 0.152926 0.0126955
1 0.177478 0.0624094
1 0.206577 0.124727
1 0.2374 0.180026
1 0.269505 0.233204
1 0.302083 0.280705
1 0.334051 0.325216
1 0.364721 0.36611
1 0.394522 0.40531
0.0266728 0.238834 0
0.0453498 0.238117 0
0.0623331 0.23827 0.00227359
0.0784619 0.239048 0.00794995
0.0939956 0.240345 0.0122225
0.109041 0.242298 0.0163119
0.122484 0.245594 0.0213626
0.139452 0.248814 0.0262303
0.177127 0.247242 0.0253605
0.230259 0.242634 0.0211185
0.30164 0.234028 0.00975052
0.396765 0.221164 0
0.520577 0.201907 0
0.65333 0.181552 0
0.763516 0.167376 0
0.858946 0.15639 0
0.942031 0.148074 0
1 0.145617 0
1 0.147875 0
1 0.151858 0
1 0.158999 0
1 0.169558 0
1 0.18471 0
1 0.203906 0.0318761
1 0.224475 0.09337
1 0.248997 0.146212
1 0.275837 0.201541
1 0.30518 0.25069
1 0.335424 0.295842
1 0.366262 0.33933
1 0.396445 0.379522
1 0.425986 0.417792
1 0.453895 0.453178
0 0.277363 0
0.00283818 0.277699 0
0.0306706 0.276539 0
0.0509804 0.277867 0
0.069398 0.280232 0
0.0868086 0.283482 0
0.103685 0.287419 0
0.117342 0.292958 0
0.147219 0.295293 0
0.201251 0.292836 0
0.273136 0.286152 0
0.368002 0.274632 0
0.490364 0.25716 0
0.628611 0.23711 0
0.746517 0.222492 0
0.846128 0.21268 0
0.930678 0.206683 0
0.994308 0.207324 0
1 0.212802 0
1 0.220859 0
1 0.23154 0
1 0.245426 0
1 0.261646 0.0500649
1 0.281041 0.104295
1 0.303929 0.157412
1 0.328908 0.211872
1 0.356298 0.258885
1 0.38468 0.303197
1 0.413611 0.345571
1 0.441672 0.384756
1 0.469123 0.421927
1 0.494896 0.455787
1 0.519356 0.487068
0 0.321736 0
0 0.324681 0
0 0.327871 0
0 0.331197 0
0.0256809 0.332296 0
0.0506142 0.336172 0
0.0711223 0.341527 0
0.0907912 0.34786 0
0.109651 0.355093 0
0.159869 0.355917 0
0.233967 0.351873 0
0.329763 0.342763 0
0.450752 0.328115 0
0.59263 0.309361 0
0.720851 0.294881 0
0.825818 0.286534 0
0.912932 0.283055 0
0.978897 0.286824 0
1 0.295628 0
1 0.308324 0
1 0.322515 0
1 0.337743 0.056199
1 0.356054 0.107973
1 0.377035 0.161898
1 0.399634 0.214267
1 0.424109 0.25977
1 0.449027 0.30248
1 0.474189 0.343435
1 0.498344 0.38085
1 0.522194 0.416495
1 0.545357 0.449287
1 0.56759 0.479728
1 0.58822 0.5075
0 0.37525 0
0 0.380789 0
0 0.386786 0
0 0.39321 0
0 0.40029 0
0 0.407614 0
0.00408942 0.414923 0
0.0459144 0.419532 0
0.0726329 0.428061 0
0.107301 0.434882 0
0.183047 0.43331 0
0.282841 0.426764 0
0.403937 0.415335 0
0.547921 0.398459 0
0.686091 0.384039 0
0.799664 0.376791 0
0.889906 0.376425 0
0.95877 0.383413 0
1 0.39646 0
1 0.411627 0
1 0.426764 0.0570382
1 0.444053 0.107591
1 0.462943 0.161334
1 0.48249 0.210651
1 0.503182 0.253864
1 0.523613 0.294026
1 0.544823 0.333028
1 0.565667 0.369162
1 0.586114 0.403037
1 0.605524 0.434012
1 0.623484 0.462013
1 0.639796 0.487068
1 0.654887 0.51017
0 0.43978 0
0 0.448096 0
0 0.457115 0
0 0.466957 0
0 0.477348 0
0 0.48864 0
0 0.500557 0
0 0.512139 0
0.00923171 0.522042 0
0.0552987 0.529717 0
0.123003 0.531441 0
0.228443 0.526818 0
0.352468 0.518257 0
0.497169 0.504494 0
0.643977 0.491173 0
0.768154 0.484306 0
0.861891 0.485924 0
0.929946 0.49514 0
0.979309 0.509209 0
1 0.523888 0.0507973
1 0.539269 0.101762
1 0.555459 0.153964
1 0.571771 0.201114
1 0.58912 0.243153
1 0.606607 0.282551
1 0.624063 0.319631
1 0.640391 0.352911
1 0.656046 0.383917
1 0.670115 0.411841
1 0.683192 0.437186
1 0.694804 0.460212
1 0.705043 0.481285
1 0.714092 0.500618
0 0.513054 0
0 0.524544 0
0 0.536828 0
0 0.54992 0
0 0.563699 0
0 0.577874 0
0 0.592645 0
0 0.607477 0
0 0.621668 0
0.0114137 0.63476 0
0.0883803 0.638086 0
0.188937 0.636698 0
0.313252 0.630823 0
0.455146 0.620432 0
0.604105 0.608087 0
0.733272 0.600092 0
0.825849 0.601389 0
0.889937 0.609125 0
0.93489 0.620081 0.0562448
0.974289 0.63386 0.106966
1 0.647669 0.159289
1 0.661799 0.203387
1 0.675929 0.243763
1 0.689158 0.27985
1 0.701701 0.312703
1 0.713039 0.34226
1 0.723308 0.369299
1 0.73254 0.394217
1 0.74052 0.416495
1 0.7476 0.436866
1 0.753796 0.455955
1 0.759106 0.473503
1 0.763851 0.490135
0 0.592996 0
0 0.607233 0
0 0.622019 0
0 0.637552 0
0 0.653574 0
0 0.670222 0
0 0.687816 0
0 0.705242 0
0 0.722393 0
0 0.73785 0
0.0445563 0.748608 0
0.138491 0.747387 0
0.269764 0.741634 0
0.409064 0.73254 0
0.555993 0.719829 0
0.687816 0.708904 0
0.778256 0.705913 0.0419471
0.839155 0.712077 0.0952926
0.883467 0.722362 0.145586
0.921233 0.734096 0.189548
0.959014 0.744472 0.227161
0.995071 0.754162 0.261006
1 0.763058 0.291203
1 0.770657 0.317662
1 0.777493 0.342061
1 0.783276 0.364401
1 0.788434 0.385168
1 0.792569 0.403815
1 0.796094 0.421073
1 0.79913 0.437491
1 0.801587 0.452811
1 0.803479 0.467216
1 0.80531 0.4813
0 0.673899 0
0 0.690517 0
0 0.707729 0
0 0.726024 0
0 0.744717 0
0 0.76434 0
0 0.784207 0
0 0.804028 0
0 0.823301 0
0 0.841077 0
0 0.856474 0.0701915
0 0.860487 0.112306
0.150637 0.839673 0.115267
0.338979 0.825483 0.121569
0.500481 0.811475 0.125124
0.64126 0.798703 0.140078
0.735485 0.79501 0.173144
0.795224 0.798688 0.207843
0.837919 0.805493 0.238926
0.874174 0.812802 0.266575
0.911101 0.818631 0.291066
0.946609 0.823667 0.313085
0.981094 0.827802 0.333242
1 0.831052 0.351904
1 0.833631 0.369009
1 0.835798 0.385199
1 0.837247 0.399954
1 0.838361 0.414069
1 0.839109 0.42768
1 0.839704 0.440711
1 0.840009 0.453422
1 0.84036 0.465797
1 0.840635 0.478096
0 0.757626 0
0 0.776913 0
0 0.797147 0
0 0.817533 0
0 0.838315 0
0 0.858915 0
0 0.879393 0
0 0.896956 0.0745098
0 0.914397 0.14493
0 0.931243 0.204562
0 0.94847 0.256428
0 0.955337 0.281636
0 0.949844 0.289525
0.229419 0.908949 0.259327
0.447822 0.8878 0.250492
0.602411 0.871183 0.252842
0.700221 0.863798 0.268177
0.760494 0.863554 0.287343
0.803082 0.866224 0.305653
0.838941 0.869429 0.322576
0.875547 0.871397 0.338094
0.910887 0.872999 0.352956
0.945464 0.873793 0.366491
0.979355 0.874235 0.379477
1 0.874266 0.391775
1 0.873991 0.403601
1 0.87335 0.414939
1 0.87277 0.426139
1 0.872099 0.437354
1 0.871519 0.448508
1 0.871031 0.459693
1 0.870756 0.470954
1 0.870649 0.482277
0 0.846784 0
0 0.86772 0
0 0.888258 0
0 0.908171 0.0065156
0 0.925292 0.0924544
0 0.943496 0.164309
0 0.962127 0.22678
0 0.980911 0.277211
0 0.998276 0.317052
0 1 0.350698
0 1 0.378088
0 1 0.3906
0 1 0.391897
0 0.998016 0.370611
0.389227 0.946853 0.328664
0.565286 0.925765 0.322393
0.668833 0.914641 0.32842
0.731228 0.910903 0.339483
0.774594 0.910277 0.350744
0.810987 0.910643 0.36173
0.848005 0.909911 0.371786
0.884001 0.909056 0.381811
0.919066 0.907927 0.391531
0.95346 0.906584 0.401068
0.98703 0.90518 0.410605
1 0.903655 0.420294
1 0.902312 0.429938
1 0.901045 0.439796
1 0.900008 0.449805
1 0.899229 0.460227
1 0.899168 0.471321
1 0.89926 0.482399
1 0.899245 0.493248
0 0.934478 0.0228733
0 0.950774 0.116365
0 0.968765 0.188815
0 0.98706 0.250187
0 1 0.297597
0 1 0.335836
0 1 0.368215
0 1 0.395621
0 1 0.419043
0 1 0.439399
0 1 0.453925
0 1 0.458915
0 1 0.456336
0 1 0.441001
0.312139 0.993759 0.382696
0.523766 0.967697 0.369497
0.635889 0.95349 0.369604
0.702113 0.947021 0.37525
0.747158 0.94432 0.382269
0.784482 0.942809 0.389578
0.822736 0.940642 0.396826
0.859586 0.938491 0.404196
0.895415 0.9364 0.41178
0.93048 0.93434 0.419669
0.965011 0.932418 0.427817
0.998734 0.930755 0.436393
1 0.929671 0.445777
1 0.928893 0.455406
1 0.928023 0.465034
1 0.927382 0.4748
1 0.926833 0.484733
1 0.926452 0.494804
1 0.926268 0.504967
0 1 0.27303
0 1 0.317052
0 1 0.353124
0 1 0.383902
0 1 0.409689
0 1 0.432029
0 1 0.451072
0 1 0.467308
0 1 0.480934
0 1 0.493416
0 1 0.501091
0 1 0.502388
0 1 0.498314
0 1 0.485801
0.158358 1 0.428519
0.468269 1 0.403082
0.595376 0.98613 0.3991
0.666987 0.977905 0.401511
0.714443 0.973968 0.406104
0.753491 0.971527 0.41149
0.793301 0.968734 0.417197
0.831449 0.966201 0.423346
0.868711 0.963928 0.430045
0.905211 0.962325 0.437858
0.940917 0.960906 0.445838
0.975723 0.959442 0.45391
1 0.958099 0.462272
1 0.956893 0.470863
1 0.955901 0.479622
1 0.955062 0.488655
1 0.954452 0.497841
1 0.953857 0.507225
1 0.953521 0.516701
0 1 0.398642
0 1 0.422415
0 1 0.443244
0 1 0.46096
0 1 0.476265
0 1 0.489342
0 1 0.500801
0 1 0.510811
0 1 0.519402
0 1 0.527504
0 1 0.532036
0 1 0.531594
0 1 0.52723
0 1 0.517098
0 1 0.488624
0.398062 1 0.431235
0.549737 1 0.423621
0.628611 1 0.424247
0.679011 1 0.42771
0.720836 0.999817 0.432792
0.762722 0.997177 0.43798
0.802792 0.995102 0.444007
0.841703 0.99295 0.450187
0.879393 0.991012 0.456748
0.916167 0.989212 0.463676
0.952239 0.987579 0.470924
0.987366 0.986145 0.478462
1 0.984833 0.486305
1 0.983749 0.494347
1 0.982742 0.502647
1 0.981933 0.511162
1 0.981247 0.519783
1 0.980697 0.528572
0 1 0.470054
0 1 0.484138
0 1 0.496544
0 1 0.507439
0 1 0.516899
0 1 0.525292
0 1 0.532647
0 1 0.539284
0 1 0.545022
0 1 0.550668
0 1 0.554253
0 1 0.553216
0 1 0.549523
0 1 0.541787
0 1 0.523537
0.301198 1 0.459159
0.49749 1 0.447654
0.586511 1 0.447501
0.641169 1 0.450477
0.686015 1 0.45452
0.730297 1 0.458961
0.772564 1 0.463905
0.813214 1 0.469337
0.852323 1 0.47509
0.890654 1 0.4813
0.927764 1 0.487816
0.964111 1 0.494636
0.999527 1 0.501717
1 1 0.509087
1 1 0.516686
1 1 0.524498
1 1 0.532494
1 1 0.540673
0 1 0.513375
0 1 0.522255
0 1 0.530205
0 1 0.53727
0 1 0.543404
0 1 0.549203
0 1 0.554528
0 1 0.559426
0 1 0.563897
0 1 0.568383
0 1 0.572122
0 1 0.571618
0 1 0.568856
0 1 0.564004
0 1 0.552422
0.108827 1 0.4981
0.43473 1 0.472541
0.539239 1 0.470329
0.600031 1 0.472374
0.648417 1 0.475578
0.695781 1 0.479255
0.740459 1 0.483467
0.783185 1 0.488136
0.824186 1 0.493202
0.863844 1 0.49868
0.902373 1 0.504494
0.939879 1 0.510597
0.976562 1 0.517021
1 1 0.523735
1 1 0.530724
1 1 0.537896
1 1 0.54522
1 1 0.552758
0 1 0.541238
0 1 0.547295
0 1 0.55285
0 1 0.557961
0 1 0.562783
0 1 0.567346
0 1 0.571801
0 1 0.576074
0 1 0.58024
0 1 0.584756
0 1 0.589197
0 1 0.589731
0 1 0.588113
0 1 0.584787
0 1 0.577096
0 1 0.552407
0.35378 1 0.49781
0.484352 1 0.493004
0.553826 1 0.493889
0.606531 1 0.496361
0.658274 1 0.499229
0.70602 1 0.502724
0.751522 1 0.50663
0.794705 1 0.511025
0.836011 1 0.515831
0.876143 1 0.521019
0.915038 1 0.526497
0.95285 1 0.532311
0.9897 1 0.538338
1 1 0.544686
1 1 0.551293
1 1 0.558038
1 1 0.565011
0 1 0.560769
0 1 0.565454
0 1 0.56997
0 1 0.57435
0 1 0.578683
0 1 0.582956
0 1 0.587716
0 1 0.592325
0 1 0.596597
0 1 0.600595
0 1 0.605203
0 1 0.606226
0 1 0.605386
0 1 0.603387
0 1 0.598733
0 1 0.583856
0.229023 1 0.52639
0.418433 1 0.515846
0.501228 1 0.515297
0.560571 1 0.516823
0.617655 1 0.518868
0.669322 1 0.521614
0.717708 1 0.524895
0.763272 1 0.528603
0.806851 1 0.532815
0.848646 1 0.537301
0.888914 1 0.542229
0.928176 1 0.547387
0.966354 1 0.55285
1 1 0.558602
1 1 0.564614
1 1 0.570825
1 1 0.577173
0 1 0.57673
0 1 0.580972
0 1 0.585229
0 1 0.58996
0 1 0.594522
0 1 0.598901
0 1 0.603143
0 1 0.60737
0 1 0.611414
0 1 0.615366
0 1 0.61973
0 1 0.621378
0 1 0.62121
0 1 0.620279
0 1 0.618021
0 1 0.609216
0 1 0.57998
0.331075 1 0.539742
0.438224 1 0.536873
0.508309 1 0.537209
0.572335 1 0.538369
0.629129 1 0.540276
0.681239 1 0.54287
0.730007 1 0.545937
0.775982 1 0.549493
0.819852 1 0.553414
0.862058 1 0.557702
0.9028 1 0.56231
0.942031 1 0.567208
0.980575 1 0.572457
1 1 0.577829
1 1 0.583505
1 1 0.58938
0 1 0.591852
0 1 0.596353
0 1 0.600656
0 1 0.604913
0 1 0.609094
0 1 0.61326
0 1 0.617288
0 1 0.621302
0 1 0.625284
