A-tak/A-tak Cloudy Cafe for BMPCC.cube
TITLE "Generated by Resolve"
LUT_3D_SIZE 9
0 0.0336614 0.0492561
0 0.0277104 0.0305638
0.148806 0.0774548 0.127764
0.555611 0.227512 0.370001
0.885634 0.12784 0
0.885634 0.12784 0
0.885634 0.12784 0
0.885634 0.12784 0
0.885634 0.12784 0
0 0.0623941 0.0738689
0 0.0678569 0.0768139
0.0840467 0.0542306 0.109606
0.509911 0.201221 0.342519
0.885634 0.12784 0
0.885634 0.12784 0
0.885634 0.12784 0
0.885634 0.12784 0
0.885634 0.12784 0
0 0.149248 0.150179
0 0.139391 0.145083
0.0579538 0.137682 0.168765
0.497292 0.144579 0.345922
0.939071 0.118074 0.123659
0.934356 0.117693 0.117647
0.94464 0.11899 0.130785
0.958618 0.120867 0.148257
0.974151 0.119753 0.166049
0 0.435386 0
0 0.442344 0
0 0.466087 0.0111543
0.406683 0.455726 0.208148
0.937179 0.415625 0.0534524
0.992523 0.452369 0.241474
0.992584 0.483879 0.258412
0.992889 0.507073 0.219394
0.993225 0.530205 0.16466
0.153903 0.817624 0.0709087
0 0.855222 0.0574655
0.13669 0.868223 0.137148
0.234668 0.877226 0
0.820386 0.81799 0.06009
0.995651 0.82533 0.131029
0.997513 0.842817 0.0458076
0.998154 0.846403 0.0259861
0.99675 0.837156 0.0747082
0.530617 0.992294 0.385931
0.530617 0.992294 0.385931
0.530617 0.992294 0.385931
0.158373 1 0.166567
0.825544 1 0.283772
1 1 0
1 1 0
1 1 0
1 1 0
0.530617 0.992294 0.385931
0.530617 0.992294 0.385931
0.530617 0.992294 0.385931
0.267292 1 0.243519
0.779873 1 0.165438
1 1 0
1 1 0
1 1 0
1 1 0
0.530617 0.992294 0.385931
0.530617 0.992294 0.385931
0.530617 0.992294 0.385931
0 1 0.00579843
0.73463 1 0.168032
0.995041 1 0
1 1 0
1 1 0
1 1 0
0.530617 0.992294 0.385931
0.530617 0.992294 0.385931
0.530617 0.992294 0.385931
0.427909 1 0.403616
0.686259 1 0.352163
0.946777 0.999924 0.195834
1 1 0
1 1 0
1 1 0
0 0 0
0 0.0169223 0
0.14902 0.0716869 0.0902419
0.55317 0.22385 0.324727
0.885634 0.12784 0
0.885634 0.12784 0
0.885634 0.12784 0
0.885634 0.12784 0
0.885634 0.12784 0
0 0.0726635 0.126894
0 0.0692149 0.120134
0.0890059 0.0504768 0.0631418
0.507988 0.19942 0.333791
0.885634 0.12784 0
0.885634 0.12784 0
0.885634 0.12784 0
0.885634 0.12784 0
0.885634 0.12784 0
0 0.145373 0.118761
0 0.136599 0.12398
0.0568704 0.1364 0.157824
0.500633 0.145907 0.348333
0.940383 0.118288 0.125353
0.937591 0.11783 0.121767
0.949279 0.119753 0.13669
0.964019 0.12047 0.154467
0.979812 0.120516 0.125551
0 0.437201 0
0 0.447959 0
0 0.476036 0.0138552
0.418448 0.46598 0.182605
0.947372 0.428458 0.0565652
0.992447 0.467384 0.282795
0.992691 0.493294 0.244388
0.993042 0.515526 0.203189
0.993332 0.538186 0.136416
0.102022 0.828748 0.0671244
0 0.864332 0.0778668
0.24564 0.874769 0.180835
0.244648 0.885298 0.0136873
0.831632 0.828214 0.0387884
0.996368 0.833585 0.0920424
0.998199 0.846677 0.0246281
0.998001 0.84535 0.0315251
0.996307 0.832959 0.095079
0.530617 0.992294 0.385931
0.530617 0.992294 0.385931
0.530617 0.992294 0.385931
0.138781 1 0.152712
0.823224 1 0.274372
1 1 0
1 1 0
1 1 0
1 1 0.00323491
0.530617 0.992294 0.385931
0.530617 0.992294 0.385931
0.530617 0.992294 0.385931
0.171984 1 0.176196
0.774762 1 0.128527
1 1 0
1 1 0
1 1 0
1 1 0
0.530617 0.992294 0.385931
0.530617 0.992294 0.385931
0.530617 0.992294 0.385931
0 1 0.0404822
0.729946 1 0.204166
0.990219 1 0
1 1 0
1 1 0
1 1 0
0.530617 0.992294 0.385931
0.530617 0.992294 0.385931
0.530617 0.992294 0.385931
0.42771 1 0.408682
0.68307 1 0.368475
0.941436 0.999634 0.237034
1 1 0
1 1 0
1 1 0
0 0 0
0 0 0
0.129458 0.147982 0.319081
0.542367 0.15552 0.229328
0.888106 0.168658 0.0512093
0.90161 0.0323339 0.0102541
0.908766 0 0
0.908431 0 0.00590524
0.90721 0 0.0115206
0 0 0
0 0 0
0.0842451 0.112245 0.267491
0.501244 0.148867 0.196658
0.908614 0 0
0.9084 0 0.00640879
0.908309 0 0.00880446
0.908385 0 0.00706493
0.908629 0 0.000854505
0 0.137881 0.204501
0 0.132113 0.196002
0.0610971 0.130449 0.189685
0.510658 0.13341 0.226642
0.956588 0.0591897 0.0296483
0.956542 0.0542458 0.0234531
0.976501 0.0284886 0.115419
0.979156 0.143648 0.140566
0.992264 0.1523 0.165484
0 0.44239 0.036759
0 0.457069 0.047364
0 0.489876 0.0778668
0.434119 0.47982 0.118303
0.960296 0.44097 0.0407111
0.99379 0.456794 0.0796826
0.993835 0.48481 0.0869459
0.993881 0.506981 0.0961776
0.994003 0.537087 0.107515
0.0602121 0.836454 0.0635386
0.0563516 0.864683 0.105943
0.239918 0.881804 0.170565
0.260014 0.891066 0.0291142
0.839048 0.83476 0.022446
0.99675 0.837156 0.0747082
0.997986 0.845212 0.0322423
0.997009 0.839353 0.0637827
0.995636 0.825193 0.131609
0.530617 0.992294 0.385931
0.534829 0.993652 0.371237
0.519829 0.994675 0.344335
0.206638 1 0.200687
0.816495 1 0.252506
1 1 0
1 1 0
1 1 0
1 0.992737 0.0857862
0.493126 0.995804 0.305852
0.523766 0.994507 0.349996
0.533196 0.993118 0.376959
0.0150454 1 0.0617533
0.76669 1 0.0630198
1 1 0
1 1 0
1 1 0
1 1 0
0.530785 0.992355 0.385351
0.530617 0.992294 0.385931
0.530617 0.992294 0.385931
0.128145 1 0.158999
0.72018 1 0.238499
0.982391 1 0
1 1 0
1 1 0
1 1 0
0.530617 0.992294 0.385931
0.530617 0.992294 0.385931
0.530617 0.992294 0.385931
0.427375 1 0.416861
0.678004 1 0.394263
0.933486 0.999649 0.242435
1 1 0
1 1 0
1 1 0
0 0.00178531 0.776318
0 0 0.760739
0.0958724 0 0.725505
0.518853 0 0.620661
0.882139 0.24477 0.506523
0.882719 0.21471 0.470497
0.894301 0.0469062 0.458549
0.906279 0 0.451987
0.906157 0 0.439902
0 0.0121767 0.728817
0 0.00407416 0.714275
0.0522011 0 0.687221
0.475761 0 0.580819
0.883787 0.179873 0.466651
0.90634 0 0.457572
0.906294 0 0.453025
0.906325 0 0.456397
0.895201 0.042359 0.458824
0 0.105989 0.661311
0 0.100343 0.654734
0.0155489 0.0935073 0.656214
0.489937 0.0482338 0.592447
0.96701 0 0.535393
0.968429 0 0.534295
0.967193 0.0897078 0.555077
0.979629 0.173587 0.592538
0.994202 0.178317 0.634607
0 0.430152 0.492866
0 0.44799 0.509606
0 0.480537 0.541283
0.423957 0.473335 0.539498
0.958862 0.437095 0.500084
0.992401 0.442283 0.512016
0.992462 0.465919 0.534264
0.992615 0.502052 0.562951
0.992737 0.523781 0.583337
0.172732 0.829526 0.348775
0.120134 0.85951 0.385611
0.276753 0.87808 0.413077
0.290135 0.887861 0.410117
0.835172 0.831037 0.331594
0.996735 0.830259 0.331716
0.996735 0.832639 0.340185
0.996628 0.824628 0.329885
0.996414 0.810056 0.318074
0.468238 0.999557 0.416373
0.10869 1 0.441382
0 1 0.451469
0.206775 1 0.427008
0.799115 1 0.234363
1 1 0.137667
1 1 0.00468452
1 0.99205 0.0851453
1 0.979919 0.157977
0 1 0.463127
0.169162 1 0.436866
0.394903 1 0.408408
0.169986 1 0.329488
0.754101 1 0.234562
1 1 0
1 1 0
1 1 0
1 1 0
0.205203 1 0.389563
0 1 0.373312
0.421454 1 0.388708
0 1 0.289189
0.699611 1 0.219211
0.965743 1 0.114839
1 1 0
1 1 0
1 1 0
0.536171 0.999908 0.383688
0.47483 1 0.325521
0.263783 1 0.287404
0.245258 1 0.322774
0.669703 1 0.309895
0.919112 1 0.114687
1 1 0
1 1 0
1 1 0
0 0.155322 0.95848
0 0.102037 0.955505
0.106828 0 0.958846
0.467735 0.0967117 0.901579
0.897856 0.112123 0.904112
0.897856 0.112123 0.904112
0.898405 0.102144 0.896406
0.899458 0.0864576 0.884565
0.90045 0.0751965 0.877134
0 0.173739 0.958953
0 0.155322 0.95848
0.0453651 0.101381 0.952224
0.438544 0 0.918883
0.890806 0.0605936 0.908553
0.898817 0.0955978 0.891417
0.898955 0.0935836 0.889906
0.898528 0.100008 0.894774
0.897856 0.112123 0.904112
0.0084535 0.0961166 0.966247
0 0.118578 0.968017
0.117494 0 0.983474
0.465171 0.0351415 0.961913
0.947402 0.0612345 0.956497
0.960159 0.0509041 0.961791
0.969696 0.120623 0.970733
0.984237 0.191104 0.984283
0.994079 0.271244 0.99353
0 0.41442 0.941421
0 0.443229 0.963851
0 0.476997 0.993561
0.418723 0.458762 0.98793
0.950515 0.399176 0.964172
0.994598 0.446677 0.969848
0.994598 0.473747 0.98352
0.994629 0.502663 0.994339
0.994614 0.507698 0.994354
0.0372931 0.820371 0.842588
0.0141451 0.850538 0.872267
0 0.879393 0.900969
0.266178 0.874464 0.896529
0.813764 0.812726 0.839673
0.996292 0.806729 0.83151
0.996262 0.805432 0.830259
0.996078 0.794553 0.819806
0.995819 0.778943 0.804257
0.509392 0.997726 0.882872
0.25214 1 0.907362
0.185779 1 0.912245
0 1 0.906188
0.763607 1 0.787427
0.999298 0.990829 0.747173
0.998993 0.975464 0.731548
0.998688 0.960815 0.716014
0.998398 0.946227 0.701091
0.242023 1 0.90808
0.554726 0.997009 0.887404
0.17528 1 0.875593
0.169299 1 0.847349
0.710948 1 0.738231
0.975601 0.999573 0.696086
0.999435 0.999405 0.6795
0.999435 0.999405 0.664607
0.999435 0.999405 0.649775
0 1 0.876905
0 1 0.861555
0.0866255 1 0.831617
0.110521 1 0.802197
0.674922 1 0.693874
0.930541 0.999878 0.650553
0.999435 0.999405 0.631907
0.999435 0.999405 0.614298
0.999451 0.99942 0.593835
0.299641 1 0.812192
0.341604 1 0.795773
0 1 0.789792
0.315251 1 0.745434
0.604837 1 0.644648
0.884993 1 0.598917
0.999466 0.99942 0.576715
0.999481 0.999435 0.564508
0.999496 0.999451 0.550378
0 0.155322 0.95848
0 0.130709 0.957565
0.106981 0 0.95996
0.461799 0.0457313 0.907057
0.897856 0.112123 0.904112
0.897856 0.112123 0.904112
0.897856 0.112123 0.904112
0.897856 0.112123 0.904112
0.897856 0.112123 0.904112
0 0.155322 0.95848
0 0.155322 0.95848
0.0175479 0.123156 0.952789
0.428901 0 0.91989
0.891386 0.0267033 0.915846
0.897856 0.112123 0.904112
0.897856 0.112123 0.904112
0.897856 0.112123 0.904112
0.897856 0.112123 0.904112
0 0.120195 0.968185
0 0.135958 0.969116
0.135103 0 0.983185
0.462028 0.0357977 0.961349
0.948409 0.0631876 0.957656
0.960845 0.0611734 0.962448
0.971832 0.131914 0.972717
0.986419 0.20264 0.986328
0.995407 0.2822 0.994766
0 0.428901 0.980148
0 0.449302 0.9823
0 0.482567 0.994858
0.426169 0.464591 0.995514
0.951705 0.419944 0.994369
0.994675 0.473228 0.994354
0.994629 0.49015 0.994339
0.994629 0.503334 0.994354
0.994614 0.506996 0.994354
0 0.833402 1
0.14873 0.849928 0.998337
0.283177 0.867811 0.995468
0.223209 0.879011 1
0.817761 0.814404 0.997925
0.996841 0.803433 0.996811
0.996765 0.797925 0.996735
0.996597 0.785214 0.996551
0.996399 0.769131 0.996353
0 1 1
0 1 1
0 1 1
0.461295 1 1
0.751949 1 1
0.999588 0.980652 0.982437
0.999268 0.965133 0.966659
0.998962 0.950362 0.952255
0.998672 0.935714 0.937942
0 1 1
0 1 1
0 1 1
0 1 1
0.695293 1 0.972061
0.963409 1 0.935668
0.999771 0.999771 0.920424
0.999741 0.999741 0.907347
0.99971 0.99971 0.893797
0 1 1
0 1 1
0 1 1
0.0458686 1 1
0.653513 1 0.928878
0.917998 1 0.89189
0.99968 0.999664 0.875624
0.999649 0.999634 0.86128
0.999619 0.999603 0.84744
0 1 1
0 1 1
0 1 1
0 1 0.993271
0.579019 1 0.886061
0.872602 1 0.847379
0.999588 0.999573 0.830335
0.999557 0.999557 0.815488
0.999542 0.999527 0.801282
0 0.155322 0.95848
0 0.147982 0.958221
0.099321 0 0.95996
0.462394 0.0118257 0.914458
0.897856 0.112123 0.904112
0.897856 0.112123 0.904112
0.897856 0.112123 0.904112
0.897856 0.112123 0.904112
0.897856 0.112123 0.904112
0 0.155322 0.95848
0 0.155322 0.95848
0.00198367 0.135119 0.953338
0.423026 0 0.919264
0.890669 0.0149691 0.917556
0.897856 0.112123 0.904112
0.897856 0.112123 0.904112
0.897856 0.112123 0.904112
0.897856 0.112123 0.904112
0 0.129915 0.968826
0 0.138949 0.969238
0.128069 0 0.983368
0.467277 0.0416419 0.962417
0.958373 0.0669566 0.962325
0.963806 0.0855116 0.965209
0.976638 0.155947 0.977203
0.989334 0.230076 0.989059
0.997604 0.263172 0.99678
0 0.43418 0.980697
0 0.457038 0.983108
0 0.493904 0.997162
0.43328 0.478492 0.995636
0.957382 0.43653 0.994324
0.994659 0.478477 0.994354
0.994629 0.49662 0.994339
0.994614 0.505058 0.994354
0.994614 0.507347 0.994354
0 0.840528 1
0.211185 0.856092 0.996735
0.326696 0.875135 0.994842
0.250584 0.884779 1
0.822416 0.818357 0.997955
0.996841 0.803555 0.996811
0.996719 0.794308 0.996674
0.996536 0.779812 0.99649
0.996323 0.763287 0.996277
0 1 1
0 1 1
0 1 1
0.452323 1 1
0.748943 1 1
0.999542 0.975113 0.999542
0.999283 0.959823 0.999283
0.999023 0.945129 0.999023
0.998764 0.930449 0.998764
0 1 1
0 1 1
0 1 1
0 1 1
0.690059 1 1
0.958007 1 1
1 1 1
1 1 1
1 1 1
0 1 1
0 1 1
0 1 1
0.0726329 1 1
0.618219 1 1
0.912505 1 1
1 1 1
1 1 1
1 1 1
0 1 1
0 1 1
0 1 1
0.171466 1 1
0.609018 1 1
0.867491 1 1
1 1 1
0.999954 0.999954 0.98706
0.999924 0.999924 0.973342
0 0.155322 0.95848
0 0.155322 0.95848
0.0900435 0.0209049 0.958358
0.45716 0 0.916457
0.895872 0.100053 0.904875
0.897856 0.112123 0.904112
0.897856 0.112123 0.904112
0.897856 0.112123 0.904112
0.897856 0.112123 0.904112
0 0.155322 0.95848
0 0.155322 0.95848
0 0.145708 0.954009
0.417426 0.0108339 0.917891
0.889967 0.00813306 0.918334
0.897856 0.112123 0.904112
0.897856 0.112123 0.904112
0.897856 0.112123 0.904112
0.897856 0.112123 0.904112
0 0.137087 0.969162
0 0.139696 0.969268
0.1149 0 0.983474
0.477806 0.0352483 0.966445
0.963958 0.0865797 0.965362
0.96791 0.110765 0.969055
0.981796 0.180072 0.98201
0.992416 0.257328 0.991974
0.999802 0.202716 0.998749
0 0.440558 0.981369
0 0.466255 0.98407
0 0.505989 0.999451
0.44184 0.490455 0.995727
0.963638 0.456352 0.994293
0.994644 0.485145 0.994339
0.994629 0.50161 0.994339
0.994614 0.506401 0.994354
0.994614 0.507317 0.994354
0.0594339 0.843336 1
0.253056 0.862837 0.995956
0.364981 0.883009 0.994446
0.282704 0.88986 1
0.82536 0.820676 0.997986
0.996826 0.802335 0.996796
0.996658 0.790372 0.996628
0.99646 0.774639 0.996414
0.996262 0.757824 0.996201
0 1 1
0 1 1
0 1 1
0.439628 1 1
0.744717 1 1
0.999466 0.970352 0.999466
0.999191 0.955001 0.999191
0.998932 0.939956 0.998932
0.998688 0.925124 0.998672
0 1 1
0 1 1
0 1 1
0 1 1
0.68661 1 1
0.953948 1 1
1 1 1
1 1 1
1 1 1
0 1 1
0 1 1
0 1 1
0.104005 1 1
0.615473 1 1
0.907454 1 1
1 1 1
1 1 1
1 1 1
0 1 1
0 1 1
0 1 1
0.176547 1 1
0.602747 1 1
0.862043 1 1
1 1 1
1 1 1
1 1 1
0 0.155322 0.95848
0 0.155322 0.95848
0.07776 0.0462654 0.954009
0.450904 0 0.917357
0.892393 0.0756237 0.906874
0.897856 0.112123 0.904112
0.897856 0.112123 0.904112
0.897856 0.112123 0.904112
0.897856 0.112123 0.904112
0 0.155322 0.95848
0 0.155322 0.95848
0 0.155291 0.954833
0.412802 0.0238041 0.916167
0.889723 0.00604257 0.918547
0.897856 0.112123 0.904112
0.897856 0.112123 0.904112
0.897856 0.112123 0.904112
0.897856 0.112123 0.904112
0 0.141924 0.96936
0 0.137835 0.969192
0.0933547 0.0172885 0.98294
0.490929 0.0293431 0.971725
0.967605 0.109026 0.96878
0.972457 0.135134 0.973297
0.986679 0.205234 0.986572
0.995575 0.283665 0.994934
1 0.137652 1
0 0.447913 0.982147
0 0.477226 0.985183
0 0.518013 1
0.456062 0.500664 0.995743
0.970443 0.463523 0.994308
0.994629 0.491966 0.994339
0.994629 0.503822 0.994354
0.994614 0.507317 0.994354
0.994614 0.50695 0.994354
0.134356 0.848753 0.998779
0.297536 0.870207 0.995254
0.382361 0.891066 0.994583
0.308553 0.894102 1
0.826703 0.821607 0.997986
0.99678 0.799634 0.99675
0.996612 0.785992 0.996567
0.996399 0.769467 0.996353
0.996201 0.753079 0.996139
0 1 1
0 1 1
0 1 1
0.423728 1 1
0.740658 0.997574 1
0.994812 0.965331 0.999405
0.9991 0.950072 0.9991
0.99884 0.934966 0.99884
0.998596 0.920027 0.998596
0 1 1
0 1 1
0 1 1
0 1 1
0.680674 1 1
0.949538 1 1
1 1 1
1 1 1
1 1 1
0 1 1
0 1 1
0 1 1
0.130892 1 1
0.61323 1 1
0.902983 1 1
1 1 1
1 1 1
1 1 1
0 1 1
0 1 1
0 1 1
0.181048 1 1
0.597589 1 1
0.85716 1 1
1 1 1
1 1 1
1 1 1
