A-tak/A-tak Teal Film Room33 1.0.cube
TITLE "Generated by Resolve"
LUT_3D_SIZE 5
0.065507 0.065507 0.065507
0.149691 0.0854505 0.109377
0.43331 0.142611 0.253895
0.662242 0.152239 0.271321
0.886564 0.13257 0
0 0.165621 0.148989
0.170397 0.180285 0.191455
0.479927 0.193072 0.318212
0.753902 0.222065 0.374609
1 0.141695 0
0.0105287 0.444373 0.0125887
0.176379 0.489052 0.0579385
0.487648 0.487648 0.0555428
0.750973 0.499168 0.434592
1 0.512184 0.177432
0.0810254 0.733211 0.0323339
0.207797 0.763958 0.0867628
0.492607 0.752148 0.0554208
0.751125 0.751141 0.0972915
0.997269 0.752804 0
0.534691 0.987045 0.355016
0.436484 1 0.357565
0.471153 1 0
0.752255 0.999222 0
0.998474 0.998489 0.0133974
0.0374914 0 0
0.15874 0.127321 0.199283
0.432914 0.000915541 0.120653
0.663447 0.0920729 0.139391
0.892164 0 0.081117
0.0423743 0.165301 0.165499
0.18468 0.184695 0.184695
0.494545 0.187213 0.198138
0.769436 0.219257 0.257267
1 0.302342 0.24033
0.0196384 0.459724 0.147387
0.191638 0.503304 0.19115
0.499367 0.499367 0.18703
0.761807 0.50811 0.314855
1 0.500786 0.189914
0.0639963 0.74374 0.17377
0.205936 0.774105 0.203784
0.503548 0.761959 0.19118
0.760754 0.760769 0.184726
1 0.762066 0.12639
0.46424 0.996612 0.278447
0 1 0.231907
0.483497 1 0.179156
0.760281 1 0.140841
1 1 0
0.033402 0 0
0.14107 0 0.476951
0.418601 0 0.418601
0.651438 0 0.392645
0.888319 0 0.385504
0.0362554 0 0
0.194003 0 0.181186
0.496071 0.183734 0.496071
0.771023 0.20174 0.512261
1 0.321553 0.531518
0.0270085 0.461067 0.461067
0.190356 0.502892 0.502892
0.496941 0.496956 0.496941
0.758282 0.499489 0.499489
1 0.502525 0.502678
0.204379 0.740322 0.481941
0.198428 0.770047 0.511345
0.497032 0.757733 0.498787
0.756191 0.756207 0.497246
1 0.757839 0.49926
0.24683 0.992264 0.496162
0.389487 1 0.521874
0.445914 1 0.498146
0.760479 1 0.500511
1 1 0.505837
0.0252842 0.0179294 0.71902
0.138231 0.0345922 0.710048
0.409003 0 0.667796
0.644724 0 0.644709
0.890288 0.231937 0.645792
0.032578 0.150484 0.721904
0.188388 0.185718 0.757488
0.501457 0.188663 0.760281
0.776028 0.207492 0.776028
1 0 0.791028
0.0534371 0.465843 0.724697
0.193256 0.505058 0.763912
0.498131 0.498207 0.756939
0.758541 0.500008 0.758541
1 0.510109 0.761959
0.0238041 0.74052 0.74052
0.200931 0.769757 0.769757
0.497795 0.757336 0.757336
0.755749 0.755764 0.755749
1 0.757229 0.757137
0 0.991775 0.747005
0.171435 1 0.774716
0.506386 1 0.761059
0.756146 1 0.756924
1 1 0.755596
0 0.15108 0.950927
0.145281 0 0.944305
0.39794 0.151583 0.90483
0.641505 0.0746471 0.886152
0.894789 0.115892 0.894789
0.158038 0.174914 0.968063
0.191409 0.174777 1
0.509544 0.178363 1
0.781994 0.240269 1
1 0.299229 1
0 0.473823 0.974563
0.149691 0.513252 1
0.499626 0.498238 1
0.759808 0.500923 1
1 0.496864 1
0.123766 0.741482 0.986328
0.159899 0.770672 1
0.499855 0.757565 1
0.756405 0.756588 1
1 0.758328 1
0 0.991958 0.991989
0 1 1
0.459876 1 1
0.75555 1 1
1 1 1
