A-tak/A-tak High Contrast CT125.cube
TITLE "Generated by Resolve"
LUT_3D_SIZE 33
0 0 0
0 0 0
0 0 0
0 0 0
0 0 0
0 0 0
0 0 0
0.00262455 0 0
0.0464485 0 0
0.0886702 0 0
0.125383 0 0
0.165026 0 0
0.22678 0 0
0.33254 0 0
0.495857 0 0
0.671321 0 0
0.842969 0 0
0.958633 0 0
1 0 0
1 0 0
1 0 0
1 0 0
1 0 0
1 0 0
1 0 0
1 0 0
1 0 0
1 0 0
1 0 0
1 0 0
1 0 0
1 0 0
1 0 0
0 0 0
0 0 0
0 0 0
0 0 0
0 0 0
0 0 0
0 0 0
0 0 0
0.0361334 0 0
0.0783093 0 0
0.115312 0 0
0.154208 0 0
0.213672 0 0
0.314839 0 0
0.474876 0 0
0.650324 0 0
0.824414 0 0
0.945251 0 0
1 0 0
1 0 0
1 0 0
1 0 0
1 0 0
1 0 0
1 0 0
1 0 0
1 0 0
1 0 0
1 0 0
1 0 0
1 0 0
1 0 0
1 0 0
0 0 0
0 0 0
0 0 0
0 0 0
0 0 0
0 0 0
0 0 0
0 0 0
0.025452 0 0
0.0675517 0 0
0.105043 0 0
0.143252 0 0
0.200519 0 0
0.297108 0 0
0.453239 0 0
0.628779 0 0
0.804868 0 0
0.931258 0 0
1 0 0
1 0 0
1 0 0
1 0 0
1 0 0
1 0 0
1 0 0
1 0 0
1 0 0
1 0 0
1 0 0
1 0 0
1 0 0
1 0 0
1 0 0
0 0 0
0 0 0
0 0 0
0 0 0
0 0 0
0 0 0
0 0 0
0 0 0
0.0144503 0 0
0.056733 0 0
0.0945754 0 0
0.132235 0 0
0.187396 0 0
0.279408 0 0
0.431037 0 0
0.606729 0 0
0.784314 0 0
0.916579 0 0
0.994263 0 0
1 0 0
1 0 0
1 0 0
1 0 0
1 0 0
1 0 0
1 0 0
1 0 0
1 0 0
1 0 0
1 0 0
1 0 0
1 0 0
1 0 0
0 0 0
0 0 0
0 0 0
0 0 0
0 0 0
0 0 0
0 0 0
0 0 0
0.00329595 0 0
0.0458534 0 0
0.0839704 0 0
0.121218 0 0
0.174426 0 0
0.261891 0 0
0.408423 0 0
0.584314 0 0
0.762783 0 0
0.901137 0 0
0.98262 0 0
1 0 0
1 0 0
1 0 0
1 0 0
1 0 0
1 0 0
1 0 0
1 0 0
1 0 0
1 0 0
1 0 0
1 0 0
1 0 0
1 0 0
0 0 0
0 0 0
0 0 0
0 0 0
0 0 0
0 0 0
0 0 0
0 0 0
0 0 0
0.0350042 0 0
0.0733654 0 0
0.110307 0 0
0.1617 0 0
0.244739 0 0
0.385641 0 0
0.56173 0 0
0.740307 0 0
0.884825 0 0
0.970565 0 0
1 0 0
1 0 0
1 0 0
1 0 0
1 0 0
1 0 0
1 0 0
1 0 0
1 0 0
1 0 0
1 0 0
1 0 0
1 0 0
1 0 0
0 0 0
0 0 0
0 0 0
0 0 0
0 0 0
0 0 0
0 0 0
0 0 0
0 0 0
0.0244144 0 0
0.0629282 0 0
0.0996719 0 0
0.149401 0 0
0.228214 0 0
0.363058 0 0
0.538933 0 0
0.717052 0 0
0.867582 0 0
0.958022 0 0
1 0 0
1 0 0
1 0 0
1 0 0
1 0 0
1 0 0
1 0 0
1 0 0
1 0 0
1 0 0
1 0 0
1 0 0
1 0 0
1 0 0
0 0 0
0 0 0
0 0 0
0 0 0
0 0 0
0 0 0
0 0 0
0 0 0
0 0 0
0.0142977 0 0
0.0528115 0 0
0.0894484 0 0
0.137621 0 0
0.212421 0 0
0.340826 0 0
0.515435 0 0
0.692821 0 0
0.849027 0 0
0.944717 0 0
1 0 0
1 0 0
1 0 0
1 0 0
1 0 0
1 0 0
1 0 0
1 0 0
1 0 0
1 0 0
1 0 0
1 0 0
1 0 0
1 0 0
0 0 0
0 0 0
0 0 0
0 0 0
0 0 0
0 0 0
0 0 0
0 0 0
0 0 0
0.00497444 0 0
0.0433051 0 0
0.0798505 0 0
0.126619 0 0
0.197681 0 0
0.319417 0 0
0.491447 0 0
0.667491 0 0
0.828519 0 0
0.929915 0 0
0.991577 0 0
1 0 0
1 0 0
1 0 0
1 0 0
1 0 0
1 0 0
1 0 0
1 0 0
1 0 0
1 0 0
1 0 0
1 0 0
1 0 0
0 0.0286259 0
0 0.0249485 0
0 0.02121 0
0 0.0173953 0
0 0.0135653 0
0 0.00978103 0
0 0.00608835 0
0 0.00262455 0
0 0 0
0 0 0
0.0349126 0 0
0.0713054 0 0
0.116777 0 0
0.184375 0 0
0.299123 0 0
0.466423 0 0
0.638941 0 0
0.798932 0 0
0.909728 0 0
0.977569 0 0
1 0 0
1 0 0
1 0 0
1 0 0
1 0 0
1 0 0
1 0 0
1 0 0
1 0 0
1 0 0
1 0 0
1 0 0
1 0 0
0 0.0648356 0
0 0.0610208 0
0 0.0571298 0
0 0.053193 0
0 0.0492103 0
0 0.0452583 0
0 0.0413672 0
0 0.0376287 0
0 0.0341802 0
0 0.0311894 0
0.0292363 0.0292363 0
0.0651255 0.0274662 0
0.10959 0.0229648 0
0.174121 0.0124208 0
0.278172 0 0
0.440116 0 0
0.614725 0 0
0.786343 0 0
0.903044 0 0
0.97232 0 0
1 0 0
1 0 0
1 0 0
1 0 0
1 0 0
1 0 0
1 0 0
1 0 0
1 0 0
1 0 0
1 0 0
1 0 0
1 0 0
0 0.100038 0
0 0.0959182 0
0 0.0917525 0
0 0.0875257 0
0 0.0832532 0
0 0.0789807 0
0 0.0747234 0
0 0.070573 0
0 0.0665599 0
0 0.0628214 0
0.0217288 0.0596017 0
0.0561379 0.0561379 0
0.0993973 0.0522011 0
0.161639 0.0433204 0
0.267155 0.0228733 0
0.4318 0 0
0.609537 0 0
0.783276 0 0
0.900038 0 0
0.969421 0 0
1 0 0
1 0 0
1 0 0
1 0 0
1 0 0
1 0 0
1 0 0
1 0 0
1 0 0
1 0 0
1 0 0
1 0 0
1 0 0
0 0.139757 0
0 0.13492 0
0 0.130007 0
0 0.125002 0
0 0.119905 0
0 0.114656 0
0 0.109194 0
0 0.102861 0
0 0.0978561 0
0 0.094377 0
0.00753796 0.0924239 0
0.0442969 0.0905623 0
0.0871443 0.087129 0
0.14757 0.0791638 0
0.250004 0.0601663 0
0.414145 0.0250095 0
0.594965 0 0
0.773358 0 0
0.895445 0 0
0.968551 0 0
1 0 0
1 0 0
1 0 0
1 0 0
1 0 0
1 0 0
1 0 0
1 0 0
1 0 0
1 0.0016022 0
1 0.0238193 0
1 0.0476081 0
1 0.0722667 0
0 0.187701 0
0 0.18114 0
0 0.174319 0
0 0.166934 0
0 0.158206 0
0 0.152178 0
0 0.146838 0
0 0.142046 0
0 0.137881 0
0 0.134585 0
0 0.133135 0
0.0200961 0.131991 0
0.0634165 0.129564 0
0.123293 0.123293 0
0.223667 0.106905 0
0.387732 0.074342 0
0.573083 0.0372473 0
0.758114 0.0016022 0
0.888853 0 0
0.969024 0 0
1 0 0
1 0 0
1 0 0
1 0.0107729 0
1 0.0257115 0
1 0.0438544 0
1 0.0646525 0
1 0.08748 0
1 0.111604 0
1 0.13637 0
1 0.161028 0
1 0.184817 0
1 0.208225 0
0 0.244419 0
0 0.234195 0
0 0.226078 0
0 0.218738 0
0 0.211978 0
0 0.205783 0
0 0.200229 0
0 0.195453 0
0 0.191699 0
0 0.189349 0
0 0.189685 0
0 0.190799 0
0.013901 0.190723 0
0.0750286 0.187518 0
0.175204 0.175204 0
0.340658 0.147189 0
0.533104 0.114153 0
0.727779 0.0831159 0
0.871611 0.0687266 0
0.963149 0.0717021 0
1 0.0837568 0
1 0.0993362 0
1 0.118074 0
1 0.139239 0
1 0.162173 0
1 0.18616 0
1 0.210529 0
1 0.234531 0
1 0.257481 0
1 0.28098 0
1 0.305623 0
1 0.330648 0
1 0.355291 0
0 0.31458 0
0 0.306569 0
0 0.299031 0
0 0.292027 0
0 0.285634 0
0 0.280034 0
0 0.275425 0
0 0.272023 0
0 0.270176 0
0 0.270405 0
0 0.274327 0
0 0.279622 0
0 0.284092 0
0 0.286519 0
0.092256 0.281331 0
0.26125 0.26125 0
0.463554 0.235569 0
0.67042 0.21239 0
0.830839 0.20589 0
0.936767 0.21767 0
1 0.238361 0
1 0.261067 0
1 0.284627 0
1 0.308248 0
1 0.331197 0
1 0.353262 0
1 0.376486 0
1 0.400549 0
1 0.42472 0
1 0.448234 0
1 0.470298 0
1 0.490135 0
1 0.506935 0
0 0.391836 0
0 0.385168 0
0 0.379187 0
0 0.374044 0
0 0.369924 0
0 0.366979 0
0 0.365454 0
0 0.365606 0
0 0.367941 0
0 0.373159 0
0 0.38291 0
0 0.39501 0
0 0.407218 0
0 0.418723 0
0.0141299 0.42417 0
0.187793 0.415747 0
0.400168 0.400153 0
0.616983 0.385855 0
0.789395 0.385122 0
0.902571 0.401053 0
0.988861 0.424048 0
1 0.446845 0
1 0.469429 0
1 0.493202 0
1 0.517494 0
1 0.541543 0
1 0.564599 0
1 0.585855 0
1 0.604547 0
1 0.619883 0
1 0.631861 0
1 0.640787 0
1 0.646937 0
0 0.474006 0
0 0.469978 0
0 0.466987 0
0 0.465232 0
0 0.464942 0
0 0.466529 0
0 0.470359 0
0 0.476814 0
0 0.486336 0
0 0.499565 0
0 0.518196 0
0 0.540139 0
0 0.562768 0
0 0.584726 0
0 0.599878 0
0.140154 0.599298 0
0.356313 0.587747 0
0.57496 0.57496 0
0.751629 0.572122 0
0.867018 0.586725 0
0.954635 0.610147 0
1 0.634882 0
1 0.659068 0
1 0.681941 0
1 0.702708 0
1 0.720562 0
1 0.734936 0
1 0.746059 0
1 0.754223 0
1 0.759686 0
1 0.762768 0
1 0.763729 0
1 0.762921 0
0 0.549386 0
0 0.550057 0
0 0.552529 0
0 0.557046 0
0 0.563943 0
0 0.57351 0
0 0.586114 0
0 0.60209 0
0 0.621912 0
0 0.645365 0
0 0.672786 0
0 0.701732 0
0 0.729671 0
0 0.755261 0
0 0.772381 0
0.132967 0.77258 0
0.347692 0.761379 0
0.566171 0.750164 0
0.748699 0.748699 0
0.866407 0.763745 0
0.951431 0.785687 0
1 0.806607 0
1 0.824308 0
1 0.838514 0
1 0.849546 0
1 0.85771 0
1 0.863249 0
1 0.866468 0
1 0.867658 0
1 0.867231 0
1 0.865522 0
1 0.862715 0
1 0.859022 0
0 0.623453 0
0 0.631312 0
0 0.641825 0
0 0.655268 0
0 0.672023 0
0 0.692134 0
0 0.715068 0
0 0.7402 0
0 0.766964 0
0 0.794888 0
0 0.823987 0
0 0.852201 0
0 0.878996 0
0 0.905226 0
0.0180056 0.924865 0
0.180636 0.928725 0
0.393866 0.917678 0
0.608896 0.903868 0
0.790143 0.895857 0
0.902235 0.902235 0
0.977462 0.914382 0
1 0.925231 0
1 0.933257 0
1 0.938781 0
1 0.942077 0
1 0.943481 0
1 0.94345 0
1 0.942199 0
1 0.939941 0
1 0.936889 0
1 0.933227 0
1 0.929183 0
1 0.924956 0
0 0.7149 0
0 0.732692 0
0 0.753582 0
0 0.776898 0
0 0.802029 0
0 0.828305 0
0 0.855055 0
0 0.881575 0
0 0.907454 0
0 0.934798 0
0 0.964401 0
0 0.994415 0
0 1 0
0 1 0
0.0919509 1 0
0.242634 1 0
0.445624 1 0
0.650278 1 0
0.82562 0.999847 0
0.931304 0.995529 0
0.998611 0.998596 0
1 1 0
1 1 0
1 1 0
1 1 0
1 0.999573 0
1 0.996704 0
1 0.993301 0
1 0.989609 0
1 0.985824 0
1 0.982162 0
1 0.978836 0
1 0.976074 0
0 0.83743 0
0 0.862638 0
0 0.88867 0
0 0.914839 0
0 0.940414 0
0 0.965591 0
0 0.992294 0
0 1 0
0 1 0
0 1 0
0 1 0
0 1 0
0 1 0
0.0566567 1 0
0.141466 1 0
0.27657 1 0
0.468513 1 0
0.664775 1 0
0.837156 1 0
0.940352 1 0
1 1 0
1 1 0
1 1 0
1 1 0
1 1 0
1 1 0
1 1 0
1 1 0
1 1 0
1 1 0
1 1 0
1 1 0
1 1 0
0 0.976364 0
0 1 0
0 1 0
0 1 0
0 1 0
0 1 0
0 1 0
0 1 0
0 1 0
0 1 0
0 1 0
0 1 0
0.0298314 1 0
0.0852522 1 0
0.159304 1 0
0.28217 1 0
0.465904 1 0
0.657176 1 0
0.829816 1 0
0.933745 1 0
0.996094 1 0
1 1 0
1 1 0
1 1 0
1 1 0
1 1 0
1 1 0
1 1 0
1 1 0
1 1 0
1 1 0
1 1 0
1 1 0
0 1 0
0 1 0
0 1 0
0 1 0
0 1 0
0 1 0
0 1 0
0 1 0
0 1 0
0 1 0
0 1 0
0 1 0
0.0415351 1 0
0.0905776 1 0
0.157671 1 0
0.272114 1 0
0.450309 1 0
0.639292 1 0
0.81416 1 0
0.92134 1 0
0.985107 1 0
1 1 0
1 1 0
1 1 0
1 1 0
1 1 0
1 1 0
1 1 0
1 1 0
1 1 0
1 1 0
1 1 0
1 1 0
0 1 0
0 1 0
0 1 0
0 1 0
0 1 0
0 1 0
0 1 0
0 1 0
0 1 0
0 1 0
0 1 0
0 1 0
0.0379034 1 0
0.0836194 1 0
0.146532 1 0
0.255131 1 0
0.429725 1 0
0.618738 1 0
0.797818 1 0
0.910124 1 0
0.975906 1 0
1 1 0
1 1 0
1 1 0
1 1 0
1 1 0
1 1 0
1 1 0
1 1 0
1 1 0
1 1 0
1 1 0
1 1 0
0 1 0
0 1 0
0 1 0
0 1 0
0 1 0
0 1 0
0 1 0
0 1 0
0 1 0
0 1 0
0 1 0
0 1 0
0.0275883 1 0
0.0724193 1 0
0.133715 1 0
0.239322 1 0
0.411032 1 0
0.600092 1 0
0.781857 1 0
0.898054 1 0
0.965743 1 0
1 1 0
1 1 0
1 1 0
1 1 0
1 1 0
1 1 0
1 1 0
1 1 0
1 1 0
1 1 0
1 1 0
1 1 0
0 1 0
0 1 0
0 1 0
0 1 0
0 1 0
0 1 0
0 1 0
0 1 0
0 1 0
0 1 0
0 1 0
0 1 0
0.0183719 1 0
0.0631571 1 0
0.122652 1 0
0.223529 1 0
0.39173 1 0
0.580789 1 0
0.765148 1 0
0.885801 1 0
0.955505 1 0
1 1 0
1 1 0
1 1 0
1 1 0
1 1 0
1 1 0
1 1 0
1 1 0
1 1 0
1 1 0
1 1 0
1 1 0
0 1 0
0 1 0
0 1 0
0 1 0
0 1 0
0 1 0
0 1 0
0 1 0
0 1 0
