A-tak/A-tak Neutral Low Contrast Room 1.0_1.A042_12142250_C017.cube
TITLE "Generated by Resolve"
LUT_3D_SIZE 33
0.0370947 0.0370947 0.0370947
0.0939651 0.0590982 0.0590982
0.11696 0.0649729 0.0649729
0.139956 0.0690013 0.0690013
0.165316 0.0716259 0.0716259
0.194965 0.0717479 0.0717479
0.232624 0.0676738 0.0676738
0.278798 0.0576181 0.0576181
0.329839 0.0424811 0.0424811
0.375326 0.0286107 0.0286107
0.413275 0.0186923 0.0186923
0.447257 0.0116426 0.0116426
0.476188 0.00794995 0.00794995
0.503151 0.00646983 0.00646983
0.528923 0.00636301 0.00636301
0.553994 0.00675975 0.00675975
0.579217 0.00851453 0.00851453
0.604288 0.0108339 0.0108339
0.629236 0.0145724 0.0145724
0.654215 0.0200198 0.0200198
0.679194 0.0269627 0.0269627
0.70425 0.035935 0.035935
0.729976 0.0474098 0.0474098
0.755199 0.0601968 0.0601816
0.780529 0.0749828 0.0749828
0.805859 0.0918135 0.0918135
0.831022 0.108522 0.108522
0.855589 0.123384 0.123384
0.879866 0.137713 0.137713
0.903746 0.150958 0.150958
0.927153 0.163409 0.163409
0.949813 0.17435 0.17435
0.971542 0.183642 0.183642
0.0557412 0.0948043 0.0557412
0.093843 0.093843 0.0485542
0.112642 0.0951858 0.051133
0.131777 0.096788 0.0542916
0.152377 0.098085 0.0570993
0.175906 0.0987411 0.0585489
0.204364 0.0971847 0.0579995
0.240085 0.0920272 0.0536507
0.283299 0.081117 0.0448768
0.330007 0.0658732 0.0326848
0.372549 0.0508736 0.0214847
0.408408 0.0403754 0.014374
0.441291 0.0315251 0.00903334
0.469856 0.0267338 0.00643931
0.496651 0.0251011 0.0055848
0.52224 0.0261234 0.00587472
0.547524 0.0294041 0.00735485
0.572412 0.0342565 0.00965896
0.597467 0.0408179 0.013077
0.622843 0.0502022 0.0186313
0.647868 0.0608682 0.0253147
0.672877 0.0738842 0.0344091
0.698222 0.0900282 0.0461585
0.72343 0.10605 0.0593576
0.748653 0.121035 0.0734569
0.773953 0.136538 0.0904402
0.798947 0.151293 0.10663
0.823514 0.16492 0.121721
0.847288 0.177081 0.134722
0.870939 0.189029 0.147387
0.893919 0.199969 0.158709
0.916106 0.209491 0.16849
0.937499 0.218021 0.176776
0.0603494 0.117067 0.0603494
0.0963607 0.114137 0.0519265
0.114519 0.114519 0.0511177
0.132998 0.115694 0.0524453
0.15285 0.116808 0.054139
0.175097 0.117266 0.0551461
0.201907 0.116289 0.0544442
0.235538 0.112627 0.0512245
0.275883 0.104738 0.0440986
0.32047 0.0913252 0.0332647
0.36347 0.076463 0.0229953
0.399435 0.0652171 0.0159304
0.432456 0.056672 0.011017
0.462013 0.0517433 0.0083772
0.489387 0.0513008 0.00788891
0.515908 0.0548409 0.00891127
0.541436 0.0607462 0.0112154
0.566903 0.0695201 0.0150607
0.592676 0.0810864 0.0209049
0.618021 0.0937057 0.0278172
0.643778 0.108461 0.0378729
0.669505 0.123735 0.0498512
0.694591 0.138064 0.063035
0.719997 0.152941 0.0785077
0.745357 0.167422 0.0954147
0.770275 0.180438 0.110338
0.794842 0.193011 0.124834
0.818875 0.204837 0.137819
0.842451 0.215808 0.149889
0.864973 0.225452 0.159762
0.886931 0.234333 0.168536
0.908385 0.242878 0.176654
0.929442 0.250935 0.184375
0.0632486 0.138811 0.0632486
0.0984512 0.134585 0.0551919
0.116915 0.134508 0.0532692
0.135058 0.135058 0.0529793
0.154604 0.135851 0.0534829
0.176715 0.136477 0.0540169
0.203265 0.135988 0.0535439
0.235889 0.133104 0.0500649
0.274891 0.126955 0.0436255
0.318532 0.11667 0.0341802
0.360708 0.104555 0.0243839
0.39675 0.0954604 0.0181735
0.429511 0.088777 0.0140841
0.459617 0.0858473 0.0120851
0.487999 0.0889754 0.0126497
0.514809 0.0953231 0.0146487
0.54139 0.105715 0.0194247
0.567315 0.116945 0.0252995
0.593408 0.129641 0.033753
0.619593 0.143114 0.0443122
0.645838 0.15697 0.0569772
0.671672 0.170901 0.0716564
0.697139 0.184375 0.087129
0.722484 0.197803 0.103639
0.747173 0.210391 0.118105
0.771511 0.221515 0.130648
0.795377 0.232593 0.142779
0.818601 0.242557 0.153414
0.84065 0.251118 0.161807
0.862348 0.259525 0.169818
0.883574 0.267628 0.17702
0.904112 0.27538 0.183337
0.924163 0.282567 0.189044
0.0637064 0.161807 0.0637064
0.0995956 0.156298 0.0568704
0.118563 0.155688 0.0549172
0.137118 0.156039 0.0541238
0.156771 0.156771 0.0540627
0.179187 0.157382 0.0540017
0.205844 0.157351 0.0532082
0.238285 0.155383 0.0500191
0.277073 0.150546 0.0439612
0.31986 0.142855 0.0352789
0.361593 0.134447 0.0270085
0.397269 0.128908 0.021561
0.43006 0.126665 0.0187686
0.460578 0.127794 0.0182345
0.489525 0.132937 0.0201877
0.517555 0.142061 0.0251164
0.544335 0.152316 0.0315251
0.571267 0.164843 0.0413367
0.597711 0.177584 0.0525368
0.624201 0.190555 0.0657206
0.650721 0.203647 0.0809949
0.676326 0.216175 0.0966201
0.701671 0.228367 0.111421
0.726116 0.239719 0.124254
0.749981 0.250385 0.135973
0.773404 0.260365 0.14612
0.795773 0.269215 0.154391
0.817411 0.277226 0.161608
0.838666 0.285252 0.168399
0.859449 0.292866 0.174441
0.879499 0.300008 0.179553
0.899184 0.307362 0.18436
0.918608 0.314473 0.188952
0.0601663 0.187564 0.0601663
0.0979934 0.18056 0.0560769
0.118227 0.179477 0.0544747
0.137682 0.179614 0.0539712
0.158556 0.180621 0.0541543
0.181506 0.181506 0.054078
0.208637 0.18172 0.0530251
0.241917 0.180728 0.0501564
0.281086 0.177646 0.0449226
0.323522 0.172503 0.0372625
0.364599 0.167498 0.0301366
0.400229 0.166049 0.0268711
0.432624 0.166903 0.0252537
0.463722 0.171832 0.0274205
0.49337 0.179034 0.0315709
0.521843 0.188663 0.0388495
0.549813 0.200549 0.049134
0.576776 0.212177 0.0605783
0.603464 0.224689 0.0741283
0.62977 0.236591 0.088426
0.655726 0.248295 0.102724
0.680766 0.259297 0.115831
0.704997 0.269429 0.127184
0.728405 0.279255 0.137118
0.750729 0.287922 0.1449
0.772198 0.295918 0.151385
0.793606 0.303777 0.157275
0.814328 0.311177 0.162753
0.834485 0.318273 0.167391
0.854185 0.32549 0.171633
0.873533 0.332479 0.17557
0.892287 0.339178 0.178637
0.910719 0.345998 0.181598
0.0499275 0.21857 0.0499275
0.0913558 0.209354 0.0505074
0.113954 0.20763 0.0501717
0.135256 0.207538 0.050248
0.157351 0.208499 0.0508431
0.182422 0.210101 0.0518502
0.211154 0.211154 0.0515145
0.245426 0.210956 0.0489509
0.285237 0.209674 0.0449989
0.328176 0.207675 0.0394751
0.369009 0.205737 0.0338903
0.404135 0.207095 0.0323491
0.436576 0.211276 0.033463
0.467796 0.217884 0.0375525
0.498207 0.226871 0.0447547
0.527047 0.236851 0.0542763
0.555047 0.248081 0.0661021
0.58204 0.25919 0.0788586
0.608255 0.270329 0.092256
0.633921 0.280644 0.104509
0.65861 0.290272 0.115251
0.682445 0.299535 0.124437
0.704784 0.307546 0.131426
0.726497 0.315511 0.137682
0.747585 0.323201 0.143084
0.767941 0.330282 0.147189
0.788434 0.337331 0.151415
0.808118 0.34435 0.155047
0.827329 0.350942 0.158175
0.846372 0.357641 0.161273
0.864851 0.364157 0.163745
0.882795 0.370413 0.165576
0.900725 0.376654 0.167803
0.0328679 0.256199 0.0328679
0.0757 0.244541 0.0378271
0.102373 0.24213 0.039826
0.127169 0.24181 0.0415198
0.152499 0.242924 0.043473
0.179858 0.2448 0.0454108
0.211398 0.246815 0.0467079
0.24802 0.24802 0.0460059
0.289265 0.248264 0.0431373
0.332738 0.248371 0.0395056
0.373342 0.248997 0.0365606
0.408301 0.252613 0.0370642
0.440711 0.25861 0.0411841
0.47216 0.266163 0.0472419
0.5028 0.275135 0.0562905
0.531533 0.284779 0.0666361
0.559091 0.294606 0.0783246
0.584909 0.303883 0.0885176
0.610147 0.3131 0.099382
0.634134 0.321355 0.107149
0.657069 0.328908 0.113603
0.679347 0.336263 0.119524
0.700435 0.343267 0.123613
0.721172 0.350195 0.127932
0.741222 0.356802 0.131456
0.761059 0.36347 0.135119
0.780652 0.369985 0.137881
0.799741 0.376165 0.140536
0.818677 0.38233 0.143496
0.837278 0.388296 0.146151
0.855283 0.39411 0.147936
0.873259 0.399802 0.149981
0.890852 0.405142 0.151781
0.0148775 0.301274 0.0148775
0.0548409 0.286976 0.0222782
0.0835889 0.283833 0.0256962
0.113939 0.283391 0.0293278
0.143191 0.284352 0.032639
0.174578 0.286336 0.0359503
0.209949 0.28896 0.0391546
0.249363 0.291005 0.0403296
0.292226 0.292226 0.0391394
0.336522 0.293629 0.0374456
0.37763 0.296193 0.0375677
0.412085 0.300755 0.0400092
0.444312 0.307225 0.0455787
0.475685 0.314488 0.0532235
0.505592 0.322118 0.0608377
0.533516 0.329992 0.0698711
0.559564 0.337682 0.0778973
0.584237 0.344915 0.08542
0.607538 0.351476 0.0913863
0.630152 0.358144 0.0963149
0.652308 0.364508 0.101213
0.673426 0.370611 0.105257
0.694194 0.376867 0.109407
0.714366 0.382788 0.113008
0.73434 0.388846 0.116945
0.754009 0.394751 0.12079
0.773342 0.400259 0.12343
0.792691 0.405814 0.127306
0.811566 0.411032 0.130388
0.830243 0.416251 0.133639
0.848646 0.421347 0.136675
0.866407 0.42623 0.138735
0.884199 0.431037 0.141085
0.00743114 0.349966 0.00743114
0.0385595 0.33434 0.0116884
0.0665904 0.330587 0.0150759
0.0997482 0.329641 0.0188296
0.133806 0.330694 0.0230716
0.169284 0.332601 0.0275731
0.208408 0.335164 0.0320287
0.251057 0.337499 0.0350195
0.295766 0.339193 0.0356756
0.340932 0.340932 0.035996
0.381415 0.343877 0.0373693
0.415549 0.348241 0.0411078
0.447196 0.353429 0.0467384
0.477745 0.358923 0.0524758
0.506508 0.364691 0.0585794
0.532784 0.369924 0.0634165
0.557671 0.375463 0.0690013
0.581003 0.380865 0.0734112
0.603845 0.386328 0.0786755
0.625925 0.391623 0.0829786
0.647959 0.396963 0.0882277
0.66923 0.402243 0.0938582
0.690028 0.407492 0.098909
0.710307 0.412787 0.103532
0.730129 0.417823 0.107683
0.749844 0.422934 0.112169
0.769345 0.427695 0.115587
0.788418 0.432532 0.119234
0.807034 0.437324 0.122255
0.825223 0.441794 0.124468
0.843305 0.446342 0.127123
0.860838 0.45069 0.128878
0.878172 0.455161 0.130602
0.0132906 0.397986 0.0132906
0.0414588 0.381979 0.0133059
0.0686198 0.37789 0.0157626
0.102876 0.376867 0.0197299
0.138064 0.377661 0.024506
0.174975 0.379156 0.0298772
0.215274 0.381064 0.0348516
0.258824 0.382864 0.0385595
0.304341 0.384222 0.040177
0.348531 0.385397 0.0403143
0.387335 0.387335 0.0420386
0.420401 0.390188 0.0449836
0.450629 0.393362 0.0480964
0.479835 0.396567 0.0512245
0.507424 0.400381 0.054902
0.532982 0.404273 0.0590524
0.557275 0.408637 0.063859
0.580514 0.41294 0.0687572
0.603037 0.417533 0.0739147
0.625132 0.421958 0.0788586
0.646876 0.42652 0.0839094
0.667689 0.431098 0.0884718
0.688136 0.43566 0.0934768
0.708171 0.440208 0.0980697
0.727657 0.444587 0.101808
0.747021 0.449058 0.105501
0.765835 0.453376 0.107866
0.784421 0.457954 0.110689
0.802686 0.462531 0.113191
0.820462 0.467033 0.114946
0.838087 0.471611 0.116564
0.855314 0.476051 0.117861
0.872404 0.480476 0.11928
0.0286412 0.442466 0.0286412
0.0624094 0.426856 0.0273136
0.0922866 0.4224 0.0296483
0.124178 0.420859 0.0340734
0.157534 0.420829 0.0397498
0.192477 0.421454 0.0451972
0.230991 0.42237 0.0496529
0.272663 0.423148 0.0523384
0.31632 0.423423 0.0523842
0.357794 0.423117 0.0494698
0.393957 0.423728 0.0482185
0.425269 0.425269 0.0490272
0.454337 0.427054 0.0497749
0.48307 0.429465 0.0521859
0.509636 0.432273 0.0548104
0.534905 0.435554 0.0590524
0.558526 0.439033 0.0629282
0.581521 0.442725 0.0676738
0.603387 0.446448 0.0716106
0.625177 0.450355 0.0763104
0.646357 0.454383 0.0806592
0.666621 0.458503 0.0840009
0.686702 0.462852 0.0881819
0.706035 0.467063 0.0916152
0.725322 0.471427 0.0950942
0.744152 0.475776 0.0982681
0.762539 0.479912 0.099733
0.78085 0.484169 0.10222
0.798627 0.488258 0.103853
0.816312 0.492393 0.105684
0.833783 0.496483 0.107439
0.850889 0.500435 0.108537
0.867765 0.504494 0.109636
0.0430457 0.47982 0.0430457
0.0827955 0.465705 0.0428168
0.112673 0.461295 0.045243
0.142489 0.459251 0.0495918
0.172488 0.458366 0.0538796
0.20589 0.458244 0.0585641
0.242557 0.458106 0.0606851
0.282902 0.457725 0.0606088
0.324788 0.456947 0.0577401
0.364843 0.456153 0.0536507
0.399512 0.456245 0.0518196
0.429892 0.457191 0.0519265
0.458518 0.458518 0.0521096
0.486534 0.460517 0.0538033
0.512703 0.46276 0.0561379
0.53727 0.465644 0.0594644
0.560616 0.468788 0.0634775
0.582681 0.471992 0.0667124
0.604501 0.475456 0.0708019
0.625544 0.479057 0.0742351
0.646036 0.482521 0.0773022
0.666209 0.486244 0.0806287
0.685679 0.490028 0.0835584
0.704646 0.49366 0.086183
0.723537 0.497459 0.0893416
0.741939 0.501289 0.0917525
0.760174 0.50486 0.0933852
0.77821 0.508629 0.0954299
0.795895 0.512413 0.0971389
0.813306 0.515969 0.0985733
0.830686 0.519661 0.100435
0.847852 0.523354 0.102098
0.864622 0.526894 0.103044
0.0570535 0.513893 0.0570535
0.0980392 0.50042 0.0553445
0.126253 0.496117 0.0572824
0.154421 0.494072 0.0610361
0.183841 0.492988 0.0648661
0.216312 0.492622 0.0683757
0.25275 0.492012 0.0696117
0.292439 0.491081 0.0683299
0.33373 0.489754 0.0644388
0.372396 0.488411 0.0596017
0.405585 0.488106 0.0572213
0.43508 0.488579 0.0565499
0.463294 0.489387 0.0562295
0.490776 0.490776 0.057496
0.516396 0.492668 0.0593118
0.5402 0.494881 0.0614481
0.562966 0.497429 0.0646372
0.584756 0.500175 0.0674449
0.60592 0.50309 0.0706951
0.626413 0.505913 0.0729381
0.646555 0.508934 0.0754253
0.666285 0.512062 0.0780957
0.685542 0.515251 0.0808728
0.704036 0.51838 0.0826123
0.72256 0.521675 0.0851148
0.740826 0.525002 0.0873732
0.758907 0.528267 0.0892958
0.776654 0.531472 0.0908522
0.794217 0.534859 0.0925765
0.811643 0.538216 0.0944381
0.828748 0.541451 0.0958419
0.845792 0.544823 0.0975662
0.862577 0.548241 0.0988479
0.0738231 0.546212 0.0738231
0.113863 0.533013 0.0703593
0.140291 0.528817 0.0715801
0.167514 0.526741 0.0750896
0.196094 0.52575 0.0785687
0.227878 0.524926 0.0809644
0.263966 0.524117 0.0814527
0.303059 0.522637 0.0787671
0.34342 0.520653 0.0733959
0.380758 0.518898 0.0679026
0.412268 0.518212 0.0650645
0.440818 0.51809 0.0633249
0.468711 0.51838 0.0622263
0.495598 0.519234 0.0622263
0.520516 0.5205 0.063447
0.543877 0.522179 0.0649271
0.565988 0.524208 0.0669566
0.587198 0.52639 0.0691539
0.607996 0.528695 0.0715801
0.628153 0.53106 0.0733806
0.647898 0.53344 0.0753185
0.66714 0.536095 0.0771191
0.68603 0.538827 0.079408
0.704402 0.54165 0.0812695
0.722454 0.544396 0.0830549
0.740414 0.547341 0.0847334
0.758434 0.550225 0.0866102
0.776089 0.553216 0.0884565
0.793484 0.556283 0.0901808
0.810666 0.559243 0.0916609
0.82768 0.562325 0.0931258
0.844617 0.565469 0.0948043
0.861433 0.568643 0.0966049
0.0907454 0.576669 0.0907454
0.128923 0.563928 0.0865187
0.154482 0.559762 0.0877699
0.180362 0.557671 0.0909285
0.208484 0.556481 0.0940566
0.239582 0.555383 0.0950637
0.275196 0.55404 0.0943008
0.313893 0.552056 0.0905165
0.353002 0.549554 0.0836194
0.388708 0.547387 0.0769818
0.418875 0.546273 0.0733043
0.446601 0.54548 0.070222
0.474357 0.545312 0.0686351
0.500603 0.545647 0.0677806
0.524956 0.546456 0.0679179
0.547601 0.547601 0.0685283
0.569207 0.549142 0.0698711
0.590158 0.550759 0.0715343
0.610437 0.552636 0.0730297
0.630213 0.554635 0.0745403
0.649653 0.55668 0.0762341
0.668528 0.558831 0.0772869
0.687053 0.561105 0.0789807
0.705165 0.563577 0.0805676
0.723033 0.566125 0.0822309
0.740841 0.568719 0.0840162
0.758663 0.571328 0.0856489
0.776059 0.57406 0.0871443
0.793225 0.576684 0.0882582
0.810269 0.579553 0.0899672
0.827283 0.582437 0.0917372
0.844007 0.585412 0.0931868
0.860731 0.588403 0.0949874
0.104845 0.605341 0.104845
0.141955 0.59295 0.101717
0.166613 0.588846 0.102663
0.192081 0.586633 0.105013
0.219516 0.585275 0.107179
0.250568 0.583795 0.107546
0.285695 0.582086 0.105547
0.323644 0.579507 0.100374
0.361822 0.576471 0.0928511
0.396078 0.573892 0.0855879
0.425223 0.572335 0.0810407
0.452338 0.571099 0.0769207
0.479744 0.570413 0.073991
0.505379 0.570321 0.0724346
0.529152 0.570764 0.0719463
0.551446 0.571618 0.0723125
0.572717 0.572717 0.0729534
0.593057 0.573922 0.0738231
0.612955 0.575341 0.0746777
0.632471 0.576959 0.0757
0.651545 0.578698 0.0767224
0.670192 0.580575 0.0780194
0.688365 0.582635 0.0793317
0.706447 0.584756 0.0808728
0.724086 0.58703 0.0823072
0.741527 0.58938 0.0837568
0.759182 0.591699 0.085069
0.776379 0.594171 0.0863661
0.793439 0.596658 0.0875868
0.810437 0.599283 0.0894331
0.827207 0.602029 0.0908675
0.843946 0.604791 0.092607
0.860441 0.60766 0.0940719
0.115541 0.632334 0.115541
0.152132 0.620218 0.113207
0.176623 0.616129 0.114412
0.201465 0.61384 0.116167
0.228702 0.612268 0.11754
0.25977 0.610468 0.117311
0.294774 0.60824 0.114214
0.332357 0.605112 0.108003
0.369665 0.601572 0.0996414
0.402564 0.598703 0.0922408
0.430991 0.596735 0.0866712
0.457771 0.595178 0.0821241
0.48481 0.594064 0.0783551
0.50988 0.593652 0.0762036
0.53315 0.593759 0.075227
0.555138 0.594263 0.0749828
0.575952 0.595087 0.0753033
0.596094 0.596094 0.0757458
0.615717 0.597238 0.0763409
0.63505 0.59852 0.0771649
0.653803 0.600015 0.0778668
0.672099 0.601648 0.0787823
0.690135 0.603387 0.0801404
0.707774 0.605325 0.0813001
0.725307 0.60734 0.0824292
0.742641 0.609445 0.0839857
0.759945 0.611536 0.0847486
0.777035 0.613748 0.0861067
0.793942 0.616159 0.0872969
0.810803 0.618616 0.0887922
0.82742 0.621195 0.0903792
0.844022 0.623789 0.0920119
0.860334 0.626459 0.0932479
0.123873 0.657877 0.123873
0.160128 0.646067 0.122087
0.18439 0.641962 0.122896
0.209308 0.639521 0.124758
0.236332 0.637552 0.125185
0.267735 0.635569 0.124208
0.302647 0.632761 0.120363
0.340307 0.629084 0.11313
0.376867 0.625223 0.104417
0.408377 0.622156 0.0968338
0.436133 0.619898 0.0907759
0.462821 0.618006 0.0852064
0.489525 0.616724 0.0813001
0.514244 0.616083 0.0789349
0.537118 0.615961 0.0776989
0.558618 0.61622 0.0772412
0.579217 0.616754 0.0774853
0.599084 0.617517 0.0776379
0.618433 0.618433 0.0778821
0.637415 0.619501 0.078233
0.65594 0.620752 0.0788128
0.674113 0.622141 0.0798657
0.691951 0.623682 0.0806897
0.709377 0.625406 0.0816815
0.726665 0.627207 0.0829786
0.743877 0.62916 0.084123
0.761028 0.631113 0.0849622
0.777935 0.633112 0.0861219
0.794644 0.635325 0.0871595
0.811337 0.637583 0.0884718
0.827771 0.639933 0.0898299
0.84416 0.642329 0.0911879
0.860349 0.6448 0.0923934
0.130083 0.68188 0.130083
0.165972 0.670329 0.128344
0.190295 0.666224 0.129305
0.215167 0.663706 0.13051
0.242893 0.661646 0.131258
0.274403 0.659159 0.129091
0.310079 0.656062 0.124681
0.347372 0.652033 0.116716
0.383124 0.647807 0.107408
0.413703 0.644602 0.100008
0.440986 0.6421 0.0939345
0.467811 0.639979 0.0880751
0.494026 0.638498 0.0838941
0.518227 0.637552 0.0809186
0.540764 0.637263 0.0794995
0.561913 0.637324 0.0787518
0.582254 0.637675 0.0784466
0.601892 0.638224 0.0784314
0.621103 0.639002 0.0787213
0.639887 0.639887 0.0789502
0.658259 0.640909 0.0796216
0.676173 0.642145 0.0803845
0.693797 0.643626 0.0814679
0.711177 0.645136 0.0823224
0.728344 0.646754 0.08365
0.745342 0.648478 0.0845808
0.762371 0.650278 0.0854505
0.779156 0.652155 0.0867018
0.795666 0.654139 0.087541
0.812131 0.656123 0.0884871
0.828458 0.658335 0.0899062
0.844495 0.660441 0.0905928
0.860594 0.662669 0.0917983
0.135866 0.70489 0.135866
0.171603 0.693538 0.134249
0.195972 0.689403 0.135103
0.221012 0.686778 0.135958
0.248829 0.684428 0.135683
0.280949 0.681712 0.13344
0.316701 0.678111 0.127626
0.354177 0.673854 0.119585
0.389212 0.669413 0.110216
0.418906 0.666117 0.102541
0.445609 0.663417 0.0962234
0.47248 0.661021 0.0901808
0.498314 0.659449 0.0857404
0.52224 0.658488 0.0830396
0.544442 0.658076 0.0815137
0.565469 0.657984 0.0806287
0.585458 0.658198 0.0803082
0.604913 0.658595 0.0801709
0.623896 0.659159 0.0801862
0.642527 0.659861 0.0804608
0.660746 0.660746 0.081117
0.678599 0.66183 0.0817273
0.695994 0.663081 0.0825666
0.713161 0.664469 0.0835279
0.73022 0.665843 0.0845808
0.746929 0.667399 0.08542
0.763821 0.668956 0.0860304
0.780438 0.670619 0.087129
0.796811 0.672419 0.0878309
0.813046 0.674296 0.0885328
0.829252 0.676204 0.0899367
0.845243 0.678248 0.0907912
0.861204 0.680323 0.0918898
0.140475 0.727062 0.140475
0.176303 0.715831 0.139132
0.200778 0.711681 0.139864
0.226123 0.708934 0.140475
0.25452 0.706264 0.139696
0.287327 0.703288 0.136797
0.323354 0.699336 0.130694
0.360433 0.694667 0.121508
0.394781 0.69012 0.112001
0.423774 0.686732 0.104738
0.450217 0.683894 0.0984817
0.477226 0.681559 0.0925154
0.502739 0.679927 0.0881514
0.526314 0.678889 0.0854658
0.548226 0.67837 0.0839246
0.569039 0.678172 0.0829938
0.588952 0.678248 0.0825208
0.608148 0.678523 0.0823835
0.627008 0.67895 0.0823224
0.645594 0.679438 0.0825666
0.6636 0.680232 0.0830243
0.681178 0.681178 0.08365
0.698436 0.682185 0.0841535
0.715358 0.68333 0.0847639
0.732113 0.68455 0.0856489
0.74876 0.685847 0.086305
0.765438 0.687205 0.0867323
0.781781 0.688716 0.0873732
0.798093 0.690272 0.0881971
0.81416 0.691966 0.0888075
0.830152 0.693736 0.0898909
0.846052 0.695583 0.0907912
0.861769 0.697536 0.0915389
0.144579 0.748516 0.144579
0.180621 0.737316 0.143603
0.20528 0.73315 0.143877
0.231052 0.730175 0.144335
0.260105 0.727382 0.143175
0.293263 0.724117 0.139559
0.329671 0.719875 0.13315
0.366659 0.714946 0.123644
0.400153 0.710369 0.114244
0.428595 0.706935 0.107118
0.454978 0.70399 0.100664
0.482063 0.701579 0.0951858
0.507195 0.699916 0.0910811
0.530449 0.698848 0.0881971
0.552224 0.698238 0.0865797
0.572717 0.697978 0.0857099
0.592462 0.697902 0.0851301
0.611566 0.698024 0.0847334
0.630243 0.698268 0.0844282
0.648508 0.698634 0.0845045
0.666285 0.699184 0.0847486
0.683864 0.699992 0.0852827
0.700816 0.700816 0.0856184
0.717617 0.701762 0.0859846
0.734142 0.702815 0.0864576
0.750668 0.703929 0.0872206
0.767193 0.705119 0.0875105
0.783352 0.706447 0.087892
0.799405 0.707866 0.0883345
0.815412 0.709361 0.0894331
0.831205 0.710994 0.0900282
0.846952 0.712673 0.0908217
0.862593 0.714458 0.0916304
0.147845 0.769482 0.147845
0.184298 0.758144 0.14699
0.209354 0.753979 0.147509
0.235508 0.750835 0.147601
0.265309 0.747921 0.146288
0.298878 0.744289 0.142
0.336034 0.739818 0.135073
0.372915 0.734646 0.125643
0.405325 0.730159 0.116472
0.433356 0.726665 0.109438
0.459815 0.723659 0.103044
0.486824 0.721202 0.0976577
0.511788 0.719493 0.0936599
0.534691 0.718395 0.0910658
0.556085 0.717693 0.0895552
0.576364 0.717296 0.0882429
0.595895 0.717083 0.0874952
0.614847 0.717067 0.0869459
0.633356 0.717159 0.0864881
0.651408 0.717418 0.0862745
0.66923 0.717891 0.0865949
0.686412 0.718425 0.0868238
0.703334 0.719066 0.0869306
0.719875 0.719875 0.0872053
0.736324 0.720745 0.0874495
0.752483 0.721736 0.0878157
0.768994 0.722713 0.0881666
0.785168 0.724041 0.088838
0.801053 0.725322 0.0895094
0.816815 0.726696 0.0899519
0.832578 0.728115 0.0907454
0.848127 0.729671 0.0912795
0.863569 0.731319 0.0918441
0.151034 0.789929 0.151034
0.187213 0.778698 0.149828
0.212863 0.774411 0.150408
0.239963 0.771069 0.150698
0.270283 0.767987 0.149142
0.304753 0.764035 0.144411
0.342092 0.759335 0.137026
0.378729 0.754009 0.127306
0.410483 0.749538 0.118502
0.438025 0.746044 0.111711
0.464729 0.742947 0.105318
0.491478 0.740444 0.100008
0.516045 0.738674 0.0959945
0.538674 0.737499 0.0934157
0.559838 0.736706 0.0917372
0.580011 0.736156 0.0904707
0.599359 0.735821 0.0896468
0.618112 0.735668 0.0887465
0.636515 0.735607 0.0881361
0.654521 0.735882 0.0881514
0.671885 0.736141 0.0879225
0.68896 0.736522 0.0877852
0.705684 0.737041 0.0880446
0.722225 0.737652 0.0882124
0.73843 0.73843 0.0884108
0.754925 0.739345 0.0887312
0.770932 0.740276 0.0888838
0.786801 0.741314 0.0893873
0.802655 0.742397 0.0899977
0.818265 0.743618 0.0903487
0.833799 0.744961 0.0907454
0.849302 0.746349 0.0914778
0.864637 0.74786 0.0919966
0.154101 0.809979 0.154101
0.190646 0.798825 0.153063
0.216632 0.794461 0.153384
0.243702 0.791074 0.153063
0.275059 0.787732 0.151034
0.310079 0.783536 0.14609
0.347845 0.778561 0.138231
0.384115 0.773129 0.128267
0.415213 0.768627 0.119738
0.442374 0.765057 0.112871
0.469322 0.761852 0.106416
0.49572 0.75935 0.101198
0.519982 0.757504 0.0974289
0.542336 0.756237 0.0948501
0.563256 0.755367 0.09308
0.58323 0.754726 0.0917372
0.602426 0.754299 0.0906844
0.621088 0.754009 0.0898299
0.639429 0.753979 0.0894636
0.65713 0.754009 0.0887465
0.674479 0.754131 0.0883497
0.69131 0.754421 0.0882277
0.707912 0.754818 0.0881361
0.724269 0.755383 0.0883497
0.740551 0.756085 0.0886854
0.756741 0.756741 0.0886854
0.772641 0.757519 0.088838
0.788403 0.758419 0.0893263
0.804028 0.759411 0.089601
0.819547 0.76051 0.0899519
0.835111 0.761852 0.0907759
0.850431 0.763149 0.091249
0.86566 0.764538 0.0917678
0.15697 0.829618 0.15697
0.193835 0.818494 0.155856
0.220081 0.814084 0.156283
0.247883 0.810529 0.155673
0.27985 0.806973 0.153277
0.315785 0.802441 0.147524
0.353811 0.797162 0.139254
0.389456 0.791684 0.12932
0.419791 0.787213 0.12105
0.446662 0.783551 0.114046
