A-tak Green Low Contrast Room 1.0.cube
TITLE "Generated by Resolve"
LUT_3D_SIZE 5
0.165942 0.165942 0.165942
0.212222 0.169543 0.170214
0.471748 0.152163 0.202319
1 0 0
1 0 0
0.101152 0.22977 0.146319
0.228443 0.258595 0.176089
0.506004 0.276493 0.254002
1 0 0
1 0 0
0 0.343435 0
0 0.344549 0
0.442924 0.450156 0
0.713481 0.469123 0
1 0 0
0 0.449226 0
0 0.449424 0
0 0.450538 0
0.343603 0.351797 0
1 0 0
0 0 0
0 0 0
0 0 0
0 0 0
1 0 0
0.165942 0.165942 0.165942
0.211887 0.172641 0.210666
0.473152 0.0904555 0.203204
1 0 0
1 0 0
0.142336 0.234897 0.215579
0.232792 0.255009 0.235752
0.503075 0.256474 0.247578
1 0 0
1 0 0
0 0.343542 0
0 0.344884 0
0.535149 0.542443 0.165988
0.718654 0.470909 0
1 0 0
0 0.449348 0
0 0.449424 0
0 0.45066 0
0.343542 0.351904 0
1 0 0
0 0 0
0 0 0
0 0 0
0 0 0
1 0 0
0.165942 0.165942 0.165942
0.226612 0.224567 0.455039
0.473228 0.0341955 0.475822
1 0 1
1 0 0
0.165942 0.165942 0.165942
0.165942 0.165942 0.165942
0.49868 0.234699 0.503838
1 0 1
1 0 0
0 0.323217 0.322835
0 0.324453 0.323827
0.544915 0.554238 0.553033
0.803906 0.545113 0.557137
1 0 0
0 0.450889 0
0 0.45095 0
0 0.452049 0
0.343633 0.352667 0
1 0 0
0 0 0
0 0 0
0 0 0
0 0 0
1 0 0
0.00848402 0 1
0.194812 0 1
1 0 1
1 0 1
1 0 1
0 0 1
0.0969558 0 1
0.890929 0 1
1 0 1
1 0 1
0 0.29337 0.569131
0 0.293477 0.569268
0.515068 0.50869 0.786358
1 0 1
1 0 1
0 0.417441 0.418647
0 0.417609 0.418616
0 0.41857 0.418997
0.817563 0.831174 0.828641
1 0 1
0 0 0
0 0 0
0 0 0
0 0 0
1 0 0
0 0 1
0 0 1
0 0 1
1 0 1
1 0 1
0 0 1
0 0 1
0 0 1
1 0 1
1 0 1
0 0 1
0 0 1
0 0 1
1 0 1
1 0 1
0 0 1
0 0 1
0 0 1
1 0 1
1 0 1
0 0 0
0 0 0
0 0 0
0 0 0
1 1 1
