A-tak Green Low Contrast Room 1.0.cube
TITLE "Generated by Resolve"
LUT_3D_SIZE 33
0.165942 0.165942 0.165942
0.165942 0.165942 0.165942
0.165942 0.165942 0.165942
0.165942 0.165942 0.165942
0.174777 0.166522 0.166964
0.182223 0.167956 0.168627
0.188922 0.169451 0.170062
0.197818 0.170108 0.170977
0.212222 0.169543 0.170214
0.234119 0.167224 0.167086
0.260487 0.16408 0.163439
0.289937 0.160769 0.15993
0.322316 0.157946 0.157717
0.357702 0.155367 0.158618
0.395468 0.154253 0.165774
0.43357 0.153307 0.180957
0.471748 0.152163 0.202319
0.504738 0.145464 0.223957
0.528435 0.121202 0.239277
0.560403 0.0608682 0.262455
0.621546 0 0.312062
0.720516 0 0.388525
0.881636 0 0.498512
1 0 0.593988
1 0 0
1 0 0
1 0 0
1 0 0
1 0 0
1 0 0
1 0 0
1 0 0
1 0 0
0.165011 0.169238 0.165667
0.167193 0.170291 0.165606
0.171359 0.170352 0.165988
0.176349 0.17084 0.166796
0.181186 0.171633 0.167788
0.185977 0.172137 0.168917
0.189776 0.172183 0.169528
0.197833 0.172793 0.170001
0.211765 0.172244 0.168811
0.233188 0.16997 0.16585
0.259342 0.167086 0.162432
0.288792 0.164126 0.159167
0.321874 0.161654 0.157824
0.358129 0.159991 0.159823
0.396429 0.159472 0.167636
0.436255 0.160113 0.184436
0.475181 0.160342 0.206668
0.508919 0.154681 0.228824
0.534081 0.134737 0.245533
0.55407 0.0751812 0.256947
0.617121 0 0.308232
0.713726 0 0.38262
0.878126 0 0.496086
1 0 0.585275
1 0 0
1 0 0
1 0 0
1 0 0
1 0 0
1 0 0
1 0 0
1 0 0
1 0 0
0.162097 0.176059 0.164462
0.166567 0.177508 0.164599
0.169131 0.177188 0.164767
0.173724 0.177203 0.165316
0.178561 0.177386 0.166247
0.184115 0.177523 0.1673
0.191409 0.177356 0.168109
0.201877 0.176715 0.168048
0.212833 0.175051 0.167163
0.233265 0.172854 0.164614
0.258656 0.170321 0.161471
0.288426 0.168017 0.15906
0.321721 0.165911 0.158297
0.359075 0.165316 0.161624
0.398245 0.165988 0.170504
0.439384 0.168185 0.18854
0.478737 0.169299 0.211261
0.513878 0.16527 0.234607
0.540673 0.148669 0.252811
0.55256 0.0888228 0.256062
0.60882 0.000137331 0.300908
0.706722 0 0.376532
0.867445 0 0.487129
1 0 0.576684
1 0 0
1 0 0
1 0 0
1 0 0
1 0 0
1 0 0
1 0 0
1 0 0
1 0 0
0.157427 0.183154 0.16321
0.161288 0.183597 0.163317
0.167224 0.184039 0.163577
0.170642 0.183902 0.163973
0.175387 0.183978 0.164782
0.181018 0.183948 0.165682
0.188739 0.18349 0.166232
0.200366 0.182315 0.16611
0.218372 0.179797 0.164706
0.238514 0.177172 0.162661
0.259602 0.174365 0.160906
0.288808 0.172457 0.159167
0.322728 0.17171 0.159869
0.360494 0.172061 0.163973
0.401679 0.174975 0.17525
0.443565 0.177951 0.194064
0.483726 0.180606 0.217472
0.519982 0.178561 0.241856
0.549218 0.16585 0.262409
0.561929 0.12256 0.266606
0.601648 0.0167086 0.294606
0.696818 0 0.367788
0.858015 0 0.479423
1 0 0.568429
1 0 0
1 0 0
1 0 0
1 0 0
1 0 0
1 0 0
1 0 0
1 0 0
1 0 0
0.152392 0.190066 0.162371
0.156237 0.190265 0.162524
0.163195 0.190402 0.1626
0.168063 0.190784 0.163073
0.172381 0.19089 0.163745
0.17821 0.191043 0.164538
0.186358 0.190753 0.165103
0.198825 0.189563 0.165011
0.218082 0.187137 0.16379
0.241871 0.184054 0.162264
0.26775 0.181109 0.160616
0.291447 0.179065 0.160494
0.32488 0.178927 0.162081
0.364065 0.18146 0.168612
0.405783 0.185931 0.181033
0.448463 0.190372 0.200717
0.489097 0.193927 0.22446
0.526375 0.193683 0.249744
0.558312 0.185138 0.272923
0.576822 0.152636 0.28278
0.590616 0.0454261 0.284779
0.683894 0 0.356344
0.841474 0 0.465232
1 0 0.555383
1 0 0
1 0 0
1 0 0
1 0 0
1 0 0
1 0 0
1 0 0
1 0 0
1 0 0
0.145922 0.197269 0.161364
0.15024 0.197452 0.161547
0.157076 0.197528 0.161852
0.166491 0.198642 0.162737
0.170214 0.199039 0.163302
0.176242 0.199466 0.164294
0.185077 0.19971 0.165255
0.198489 0.198978 0.165423
0.219059 0.196887 0.164691
0.244099 0.194644 0.163928
0.271809 0.192477 0.163516
0.302541 0.190814 0.16434
0.331441 0.190555 0.167239
0.369024 0.193576 0.174548
0.411231 0.199313 0.188342
0.453437 0.205386 0.208042
0.493858 0.210269 0.231418
0.531929 0.212161 0.257145
0.56614 0.207218 0.282612
0.59205 0.182971 0.299702
0.580606 0.0795758 0.276143
0.667231 0 0.341497
0.821424 0 0.447669
1 0 0.545769
1 0 0
1 0 0
1 0 0
1 0 0
1 0 0
1 0 0
1 0 0
1 0 0
1 0 0
0.137346 0.205585 0.159838
0.142229 0.205859 0.160159
0.148699 0.206378 0.160693
0.158968 0.207401 0.161654
0.17052 0.210254 0.164019
0.175189 0.210819 0.164889
0.185046 0.211704 0.166552
0.199924 0.211994 0.16762
0.221393 0.210986 0.16759
0.247776 0.209903 0.167849
0.277653 0.209293 0.168978
0.310597 0.209125 0.171756
0.345495 0.209964 0.175906
0.379614 0.212329 0.183719
0.416388 0.215671 0.195789
0.457664 0.223255 0.214954
0.498009 0.229755 0.238453
0.536751 0.23415 0.264607
0.572305 0.231952 0.291142
0.603555 0.215793 0.313466
0.611185 0.153796 0.308949
0.645121 0 0.321736
0.794354 0 0.424033
1 0 0.530221
1 0 0
1 0 0
1 0 0
1 0 0
1 0 0
1 0 0
1 0 0
1 0 0
1 0 0
0.122988 0.216434 0.155001
0.128679 0.217075 0.155642
0.13579 0.21796 0.156512
0.147356 0.219608 0.158038
0.160525 0.223301 0.161517
0.175509 0.228061 0.165743
0.184802 0.229587 0.167697
0.201358 0.231342 0.170047
0.224613 0.232074 0.17145
0.252201 0.232303 0.172702
0.283055 0.23267 0.17496
0.316945 0.233295 0.178454
0.3523 0.234424 0.183551
0.389258 0.236271 0.191348
0.426627 0.24004 0.205158
0.461616 0.243656 0.222431
0.501961 0.252644 0.245899
0.540612 0.25803 0.271855
0.577157 0.259251 0.298863
0.61117 0.248692 0.323568
0.636713 0.210071 0.337285
0.615625 0.0411231 0.294926
0.762478 0 0.395987
1 0 0.502602
1 0 0
1 0 0
1 0 0
1 0 0
1 0 0
1 0 0
1 0 0
1 0 0
1 0 0
0.101152 0.22977 0.146319
0.107774 0.230671 0.147356
0.116213 0.232242 0.149157
0.128679 0.235172 0.152239
0.147631 0.240223 0.157259
0.166384 0.248325 0.165286
0.187839 0.255207 0.171344
0.204211 0.25713 0.173754
0.228443 0.258595 0.176089
0.256794 0.259678 0.178607
0.288014 0.260594 0.181384
0.322057 0.26157 0.185275
0.358175 0.262776 0.191104
0.395315 0.264256 0.199435
0.433646 0.267109 0.213504
0.471305 0.271473 0.232044
0.506004 0.276493 0.254002
0.544884 0.285222 0.280201
0.581994 0.288685 0.307668
0.617548 0.28513 0.333761
0.648539 0.260365 0.352499
0.652476 0.168154 0.335378
0.718151 0 0.356374
0.977096 0 0.464332
1 0 0
1 0 0
1 0 0
1 0 0
1 0 0
1 0 0
1 0 0
1 0 0
1 0 0
0.0721141 0.244038 0.135698
0.0797894 0.245594 0.137346
0.0891432 0.247745 0.13962
0.102708 0.251179 0.143191
0.1243 0.258762 0.151003
0.153506 0.270329 0.16289
0.179019 0.280842 0.173907
0.21001 0.287129 0.18027
0.23328 0.288716 0.182589
0.261799 0.290135 0.185229
0.293156 0.291463 0.188556
0.327321 0.292668 0.193118
0.363745 0.293965 0.199191
0.40145 0.295354 0.209018
0.439857 0.297749 0.222461
0.477913 0.301808 0.240299
0.5149 0.307317 0.262776
0.549279 0.313207 0.289479
0.586465 0.320638 0.317037
0.622736 0.321004 0.343389
0.656809 0.307424 0.365148
0.683085 0.258076 0.370565
0.662242 0 0.306325
0.915526 0 0.418448
1 0 0
1 0 0
1 0 0
1 0 0
1 0 0
1 0 0
1 0 0
1 0 0
1 0 0
0.0330816 0.258228 0.122393
0.0413519 0.259953 0.124269
0.0514382 0.262165 0.126711
0.0661479 0.266239 0.131075
0.0904707 0.274922 0.140215
0.127581 0.28986 0.155688
0.164492 0.306493 0.173434
0.199329 0.316854 0.185183
0.238972 0.321614 0.190204
0.266972 0.323278 0.19321
0.298589 0.324666 0.19675
0.332525 0.32604 0.201282
0.368811 0.327535 0.208469
0.407065 0.329107 0.218555
0.445518 0.33135 0.231556
0.483757 0.334676 0.248234
0.521157 0.339361 0.269474
0.556954 0.346319 0.295613
0.590234 0.352834 0.326268
0.626932 0.357198 0.353246
0.662409 0.35201 0.37615
0.694453 0.32401 0.387625
0.706233 0.214633 0.357534
0.822019 0 0.343709
1 0 0
1 0 0
1 0 0
1 0 0
1 0 0
1 0 0
1 0 0
1 0 0
1 0 0
0 0.27158 0.105943
0 0.273243 0.107851
0.00549325 0.275685 0.110582
0.0216983 0.279789 0.11516
0.0469825 0.288701 0.124743
0.0844129 0.30367 0.140581
0.140307 0.32813 0.1664
0.180087 0.346258 0.186267
0.228031 0.354574 0.196811
0.272618 0.358602 0.201465
0.303761 0.360174 0.205234
0.338064 0.361608 0.210407
0.37464 0.363088 0.217502
0.412467 0.364858 0.226596
0.450996 0.366979 0.238956
0.489219 0.369879 0.254627
0.526513 0.373663 0.274434
0.562219 0.379538 0.298711
0.597009 0.386679 0.327932
0.630259 0.393668 0.362493
0.665904 0.393317 0.386252
0.700648 0.379705 0.400656
0.730098 0.327611 0.389914
0.70605 0 0.248051
1 0 0
1 0 0
1 0 0
1 0 0
1 0 0
1 0 0
1 0 0
1 0 0
1 0 0
0 0.285283 0.0851453
0 0.286305 0.0865339
0 0.288151 0.088777
0 0.291707 0.0928664
0 0.299306 0.10135
0.0284428 0.313237 0.116442
0.0845655 0.337789 0.142473
0.155337 0.371496 0.178103
0.203494 0.387717 0.19707
0.262028 0.393652 0.207401
0.30959 0.397238 0.212467
0.343923 0.398581 0.216922
0.380285 0.400031 0.222766
0.417746 0.401831 0.230793
0.456001 0.403861 0.241825
0.494118 0.406424 0.256168
0.531411 0.409659 0.274708
0.566567 0.414252 0.297307
0.60119 0.420371 0.324376
0.635431 0.427466 0.356359
0.668666 0.43331 0.395438
0.703426 0.428229 0.411353
0.737301 0.402594 0.407156
0.75906 0.293339 0.322591
0.969985 0 0
1 0 0
1 0 0
1 0 0
1 0 0
1 0 0
1 0 0
1 0 0
1 0 0
0 0.299199 0.0555428
0 0.299901 0.0565957
0 0.300832 0.0579538
0 0.302922 0.0606394
0 0.307668 0.0661173
0 0.319203 0.0787518
0.0173953 0.342138 0.103243
0.0968032 0.378958 0.142229
0.175753 0.417319 0.183825
0.236622 0.428412 0.1991
0.299641 0.43328 0.210819
0.34873 0.436255 0.21445
0.384924 0.437552 0.218341
0.422522 0.438987 0.224582
0.460349 0.44094 0.233433
0.498054 0.443244 0.246281
0.535119 0.446082 0.263203
0.570443 0.44979 0.284504
0.604654 0.454322 0.309834
0.639048 0.459892 0.340154
0.672297 0.466575 0.375341
0.705013 0.470954 0.420066
0.739162 0.459815 0.420111
0.772366 0.411597 0.35816
0.735912 0 0
1 0 0
1 0 0
1 0 0
1 0 0
1 0 0
1 0 0
1 0 0
1 0 0
0 0.314214 0
0 0.314153 0
0 0.314229 0
0 0.314611 0
0 0.316152 0.00244144
0 0.321981 0.0112917
0 0.337972 0.0313268
0.0130465 0.371298 0.0703136
0.13077 0.428702 0.132677
0.203662 0.457572 0.166217
0.273976 0.465888 0.179904
0.338231 0.470985 0.192157
0.38706 0.472862 0.191623
0.424659 0.47396 0.193194
0.462837 0.475624 0.19791
0.500542 0.478096 0.205493
0.53724 0.480858 0.218875
0.572778 0.484016 0.23917
0.60734 0.487922 0.265049
0.641367 0.492317 0.29543
0.674876 0.49688 0.330526
0.707454 0.502602 0.372808
0.739559 0.505379 0.428367
0.773678 0.484001 0.381765
0.644053 0.232029 0
1 0 0
1 0 0
1 0 0
1 0 0
1 0 0
1 0 0
1 0 0
1 0 0
0 0.328786 0
0 0.328908 0
0 0.329519 0
0 0.330022 0
0 0.329793 0
0 0.329061 0
0 0.329381 0
0 0.337575 0
0 0.377066 0
0.121752 0.436027 0
0.203555 0.452491 0
0.276341 0.462577 0.0278935
0.344732 0.473503 0.0614481
0.386465 0.469108 0.0416419
0.421988 0.467247 0.0325933
0.458625 0.467826 0.0303807
0.494942 0.470146 0.0328679
0.532403 0.475288 0.044831
0.573495 0.484596 0.0705272
0.618143 0.498421 0.112108
0.667369 0.517678 0.173892
0.707881 0.529046 0.221027
0.741543 0.534951 0.296223
0.773114 0.536187 0.393332
0.685649 0.377493 0
0.693111 0.108934 0
1 0 0
1 0 0
1 0 0
1 0 0
1 0 0
1 0 0
1 0 0
0 0.343435 0
0 0.34345 0
0 0.343465 0
0 0.343496 0
0 0.343511 0
0 0.343542 0
0 0.343572 0
0 0.343633 0
0 0.344549 0
0 0.344167 0
0.0384833 0.408606 0
0.162646 0.436805 0
0.247227 0.439994 0
0.31664 0.442878 0
0.358724 0.437659 0
0.39762 0.439399 0
0.442924 0.450156 0
0.451514 0.42594 0
0.436133 0.377859 0
0.430701 0.339803 0
0.456001 0.33341 0
0.481559 0.328222 0
0.510384 0.327291 0
0.558358 0.346654 0
0.713481 0.469123 0
0.555856 0.209491 0
0.861723 0 0
1 0 0
1 0 0
1 0 0
1 0 0
1 0 0
1 0 0
0 0.357656 0
0 0.357671 0
0 0.357687 0
0 0.357702 0
0 0.357733 0
0 0.357748 0
0 0.357778 0
0 0.357824 0
0 0.357885 0
0 0.357961 0
0 0.358053 0
0 0.358236 0
0.0818952 0.407263 0
0.204074 0.409049 0
0.285801 0.411414 0
0.328862 0.403616 0
0.365591 0.404425 0
0.42388 0.430152 0
0.410193 0.384253 0
0.375494 0.316747 0
0.370367 0.278767 0
0.395804 0.271855 0
0.421469 0.265507 0
0.447669 0.260166 0
0.473259 0.255207 0
0.504372 0.245945 0
0.568017 0.214176 0
1 0 0
1 0 0
1 0 0
1 0 0
1 0 0
1 0 0
0 0.371633 0
0 0.371664 0
0 0.371679 0
0 0.371695 0
0 0.371725 0
0 0.37174 0
0 0.371771 0
0 0.371817 0
0 0.371862 0
0 0.371939 0
0 0.372015 0
0 0.372137 0
0 0.37229 0
0 0.373419 0
0.129397 0.353536 0
0.224094 0.34966 0
0.266667 0.338933 0
0.299397 0.337819 0
0.361196 0.367376 0
0.340505 0.314641 0
0.350515 0.291691 0
0.376806 0.284855 0
0.4038 0.27895 0
0.430365 0.273289 0
0.456535 0.267903 0
0.482033 0.262928 0
0.513191 0.253498 0
0.584695 0.215564 0
1 0 0
1 0 0
1 0 0
1 0 0
1 0 0
0 0.385489 0
0 0.385504 0
0 0.385534 0
0 0.38555 0
0 0.38555 0
0 0.385565 0
0 0.385626 0
0 0.385641 0
0 0.385702 0
0 0.385779 0
0 0.38584 0
0 0.385916 0
0 0.386007 0
0 0.38616 0
0 0.386404 0
0.0965896 0.35404 0
0.202899 0.332677 0
0.250507 0.322911 0
0.278553 0.317235 0
0.304494 0.310903 0
0.330877 0.305226 0
0.3579 0.299107 0
0.385229 0.292897 0
0.412406 0.286809 0
0.439124 0.280995 0
0.465278 0.275517 0
0.490837 0.27042 0
0.521263 0.261295 0
0.602106 0.216236 0
1 0 0
1 0 0
1 0 0
1 0 0
0 0.39913 0
0 0.399145 0
0 0.399176 0
0 0.399176 0
0 0.399176 0
0 0.399191 0
0 0.399222 0
0 0.399252 0
0 0.399268 0
0 0.399313 0
0 0.399359 0
0 0.399435 0
0 0.399573 0
0 0.39971 0
0 0.399954 0
0 0.40029 0
0.0420081 0.375525 0
0.202991 0.341115 0
0.257038 0.330159 0
0.285206 0.324453 0
0.312749 0.319112 0
0.339101 0.313512 0
0.366125 0.307225 0
0.393652 0.300786 0
0.421134 0.294453 0
0.447776 0.288548 0
0.474052 0.282856 0
0.499397 0.277729 0
0.529168 0.269139 0
0.916533 0 0
1 0 0
1 0 0
1 0 0
0 0.412512 0
0 0.412497 0
0 0.412482 0
0 0.412497 0
0 0.412528 0
0 0.412528 0
0 0.412543 0
0 0.412589 0
0 0.412589 0
0 0.412634 0
0 0.412695 0
0 0.412741 0
0 0.412848 0
0 0.413031 0
0 0.413245 0
0 0.413565 0
0 0.413901 0
0 0.41445 0
0.19942 0.35169 0
0.26453 0.338506 0
0.293217 0.332647 0
0.320562 0.327489 0
0.347112 0.321767 0
0.374289 0.315221 0
0.402152 0.308461 0
0.42974 0.3019 0
0.456962 0.295567 0
0.483528 0.289601 0
0.509239 0.284138 0
0.545754 0.270481 0
1 0 0
1 0 0
1 0 0
0 0.425467 0
0 0.425437 0
0 0.425452 0
0 0.425422 0
0 0.425483 0
0 0.425513 0
0 0.425528 0
0 0.425574 0
0 0.425635 0
0 0.425666 0
0 0.425711 0
0 0.425788 0
0 0.425849 0
0 0.425925 0
0 0.426093 0
0 0.426352 0
0 0.426749 0
0 0.427222 0
0 0.427863 0
0.186496 0.364065 0
0.271656 0.346792 0
0.300618 0.340917 0
0.328115 0.335821 0
0.354864 0.329976 0
0.382422 0.323049 0
0.410971 0.31577 0
0.439002 0.308782 0
0.466804 0.301961 0
0.49369 0.295613 0
0.520302 0.289494 0
0.573831 0.263416 0
1 0 0
1 0 0
0 0.437736 0
0 0.437812 0
0 0.437812 0
0 0.437812 0
0 0.437827 0
0 0.437797 0
0 0.437827 0
0 0.437873 0
0 0.437964 0
0 0.437964 0
0 0.438071 0
0 0.438163 0
0 0.43827 0
0 0.438346 0
0 0.43856 0
0 0.438788 0
0 0.439094 0
0 0.439399 0
0 0.440101 0
0 0.440848 0
0.156405 0.379828 0
0.278355 0.355032 0
0.307897 0.34902 0
0.335821 0.343938 0
0.36286 0.337942 0
0.391012 0.330434 0
0.419898 0.322667 0
0.449104 0.314839 0
0.477607 0.307347 0
0.505745 0.30013 0
0.533928 0.292927 0
0.715023 0.175402 0
1 0 0
0 0.449226 0
0 0.449302 0
0 0.449226 0
0 0.449302 0
0 0.449241 0
0 0.449409 0
0 0.449317 0
0 0.449409 0
0 0.449424 0
0 0.449332 0
0 0.449531 0
0 0.4495 0
0 0.449714 0
0 0.449836 0
0 0.45008 0
0 0.450233 0
0 0.450538 0
0 0.45098 0
0 0.451591 0
0 0.452216 0
0 0.453208 0
0 0.436164 0
0.284504 0.363149 0
0.314946 0.356909 0
0.343603 0.351797 0
0.370977 0.345617 0
0.399847 0.337377 0
0.429816 0.328649 0
0.460166 0.319829 0
0.490776 0.310918 0
0.521187 0.301991 0
0.552972 0.29247 0
1 0 0
0 0.459648 0
0 0.459586 0
0 0.459617 0
0 0.459586 0
0 0.459632 0
0 0.45951 0
0 0.459617 0
0 0.459693 0
0 0.459785 0
0 0.459709 0
0 0.459785 0
0 0.459846 0
0 0.459998 0
0 0.459922 0
0 0.460365 0
0 0.460578 0
0 0.460716 0
0 0.461234 0
0 0.461769 0
0 0.462531 0
0 0.463478 0
0 0.464698 0
0 0.466651 0
0.28983 0.371069 0
0.321782 0.364462 0
0.3514 0.359304 0
0.379278 0.352926 0
0.408896 0.343664 0
0.440864 0.333379 0
0.473945 0.322484 0
0.508309 0.310872 0
0.544671 0.29807 0
0.583871 0.283131 0
0 0.467796 0
0 0.467842 0
0 0.467948 0
0 0.467735 0
0 0.468299 0
0 0.467964 0
0 0.467887 0
0 0.468208 0
0 0.467765 0
0 0.468055 0
0 0.468406 0
0 0.468406 0
0 0.468269 0
0 0.468391 0
0 0.468681 0
0 0.468544 0
0 0.46894 0
0 0.469413 0
0 0.470008 0
0 0.470726 0
0 0.471778 0
0 0.473121 0
0 0.474922 0
0 0.477378 0
0.293797 0.37879 0
0.328008 0.371618 0
0.35938 0.366293 0
0.387381 0.359762 0
0.419104 0.348608 0
0.454566 0.335576 0
0.493263 0.320729 0
0.536782 0.302724 0
0.589761 0.277882 0
0 0.472114 0
0 0.472435 0
0 0.471992 0
0 0.472007 0
0 0.472023 0
0 0.472099 0
0 0.472282 0
0 0.472404 0
0 0.47248 0
