A-tak Green Low Contrast Room 1.0.cube
TITLE "Generated by Resolve"
LUT_3D_SIZE 9
0.165942 0.165942 0.165942
0.174777 0.166522 0.166964
0.212222 0.169543 0.170214
0.322316 0.157946 0.157717
0.471748 0.152163 0.202319
0.621546 0 0.312062
1 0 0
1 0 0
1 0 0
0.152392 0.190066 0.162371
0.172381 0.19089 0.163745
0.218082 0.187137 0.16379
0.32488 0.178927 0.162081
0.489097 0.193927 0.22446
0.590616 0.0454261 0.284779
1 0 0
1 0 0
1 0 0
0.101152 0.22977 0.146319
0.147631 0.240223 0.157259
0.228443 0.258595 0.176089
0.358175 0.262776 0.191104
0.506004 0.276493 0.254002
0.648539 0.260365 0.352499
1 0 0
1 0 0
1 0 0
0 0.285283 0.0851453
0 0.299306 0.10135
0.203494 0.387717 0.19707
0.380285 0.400031 0.222766
0.531411 0.409659 0.274708
0.668666 0.43331 0.395438
0.969985 0 0
1 0 0
1 0 0
0 0.343435 0
0 0.343511 0
0 0.344549 0
0.247227 0.439994 0
0.442924 0.450156 0
0.456001 0.33341 0
0.713481 0.469123 0
1 0 0
1 0 0
0 0.39913 0
0 0.399176 0
0 0.399268 0
0 0.399573 0
0.0420081 0.375525 0
0.312749 0.319112 0
0.421134 0.294453 0
0.529168 0.269139 0
1 0 0
0 0.449226 0
0 0.449241 0
0 0.449424 0
0 0.449714 0
0 0.450538 0
0 0.453208 0
0.343603 0.351797 0
0.460166 0.319829 0
1 0 0
0 0.466194 0
0 0.467109 0
0 0.466346 0
0 0.467033 0
0 0.46804 0
0 0.473152 0
0 0.485893 0
0.374319 0.377768 0
1 0 0
0 0 0
0 0 0
0 0 0
0 0 0
0 0 0
0 0 0
0 0 0
0 0 0
1 0 0
0.165942 0.165942 0.165942
0.165942 0.165942 0.165942
0.217685 0.168292 0.177554
0.325322 0.151339 0.158465
0.46598 0.138781 0.195407
0.630121 0 0.319722
1 0 0
1 0 0
1 0 0
0.158145 0.188968 0.174655
0.174533 0.189563 0.174838
0.223926 0.18381 0.168887
0.324681 0.174365 0.160754
0.484947 0.184436 0.219257
0.598337 0.0238651 0.291752
1 0 0
1 0 0
1 0 0
0.125353 0.233082 0.153857
0.162127 0.243473 0.164324
0.230289 0.253925 0.175616
0.357671 0.257786 0.189853
0.505119 0.271855 0.25243
0.646738 0.251728 0.350164
1 0 0
1 0 0
1 0 0
0 0.290211 0.0927901
0.0302892 0.312642 0.117388
0.212406 0.387015 0.198627
0.3794 0.398154 0.222354
0.530785 0.407996 0.274571
0.668101 0.431449 0.394659
0.972961 0 0
1 0 0
1 0 0
0 0.343465 0
0 0.343542 0
0 0.344854 0
0.265309 0.460014 0
0.466957 0.47422 0
0.459724 0.336996 0
0.714855 0.469749 0
1 0 0
1 0 0
0 0.399161 0
0 0.399207 0
0 0.399298 0
0 0.399588 0
0.0408789 0.375799 0
0.312688 0.319158 0
0.421012 0.29453 0
0.528725 0.269429 0
1 0 0
0 0.449271 0
0 0.449317 0
0 0.449454 0
0 0.449729 0
0 0.450568 0
0 0.453223 0
0.343511 0.351843 0
0.460105 0.31986 0
1 0 0
0 0.46659 0
0 0.467079 0
0 0.46746 0
0 0.467369 0
0 0.46891 0
0 0.471885 0
0 0.485496 0
0.374243 0.377768 0
1 0 0
0 0 0
0 0 0
0 0 0
0 0 0
0 0 0
0 0 0
0 0 0
0 0 0
1 0 0
0.165942 0.165942 0.165942
0.165942 0.165942 0.165942
0.211887 0.172641 0.210666
0.326329 0.148913 0.207385
0.473152 0.0904555 0.203204
0.654185 0 0.341115
1 0 0
1 0 0
1 0 0
0.160189 0.185885 0.210925
0.171908 0.186496 0.213916
0.210895 0.18471 0.211765
0.326986 0.172686 0.208606
0.467308 0.143053 0.198962
0.621454 0 0.312352
1 0 0
1 0 0
1 0 0
0.142336 0.234897 0.215579
0.166583 0.244099 0.224872
0.232792 0.255009 0.235752
0.361807 0.250858 0.232227
0.503075 0.256474 0.247578
0.638392 0.217777 0.339498
1 0 0
1 0 0
1 0 0
0 0.282841 0.13669
0 0.299931 0.15404
0.204791 0.386862 0.24213
0.380118 0.395483 0.252705
0.529961 0.40174 0.275029
0.66772 0.424567 0.393332
0.997864 0 0
1 0 0
1 0 0
0 0.343542 0
0 0.343618 0
0 0.344884 0
0.325429 0.526955 0.122499
0.535149 0.542443 0.165988
0.500862 0.37792 0
0.718654 0.470909 0
1 0 0
1 0 0
0 0.399237 0
0 0.399268 0
0 0.399359 0
0 0.399695 0
0.0344701 0.377249 0
0.312657 0.319234 0
0.420737 0.294743 0
0.528832 0.269352 0
1 0 0
0 0.449348 0
0 0.44947 0
0 0.449424 0
0 0.449805 0
0 0.45066 0
0 0.45333 0
0.343542 0.351904 0
0.459876 0.320043 0
1 0 0
0 0.4663 0
0 0.467277 0
0 0.468132 0
0 0.468132 0
0 0.470329 0
0 0.473548 0
0 0.485618 0
0.374212 0.377844 0
1 0 0
0 0 0
0 0 0
0 0 0
0 0 0
0 0 0
0 0 0
0 0 0
0 0 0
1 0 0
0.165942 0.165942 0.165942
0.165942 0.165942 0.165942
0.203311 0.182681 0.304158
0.320455 0.153002 0.320943
0.472663 0.0684215 0.330678
0.715404 0 0.438392
1 0 0.507851
1 0 0
1 0 0
0.165942 0.165942 0.165942
0.165942 0.165942 0.165942
0.203387 0.191318 0.309041
0.326802 0.179004 0.328634
0.456641 0.114534 0.315862
0.684016 0 0.408988
1 0 0.486946
1 0 0
1 0 0
0.148318 0.230182 0.329564
0.16791 0.237308 0.336828
0.22742 0.249424 0.357687
0.347082 0.247974 0.351629
0.500298 0.2365 0.360204
0.590127 0.0378729 0.318181
1 0 0.365789
1 0 0
1 0 0
0.0528267 0.319524 0.310063
0.118196 0.349752 0.340261
0.226062 0.387198 0.377691
0.379736 0.39585 0.385824
0.532387 0.395926 0.386984
0.665614 0.399634 0.397314
1 0 0
1 0 0
1 0 0
0 0.333013 0.167132
0 0.333089 0.16762
0 0.333257 0.169665
0.200916 0.542565 0.385397
0.547723 0.555337 0.407858
0.678248 0.556359 0.321736
0.724605 0.468147 0
1 0 0
1 0 0
0 0.399481 0
0 0.399527 0
0 0.399664 0
0 0.400061 0
0.00740063 0.383612 0
0.385061 0.392004 0
0.419913 0.295415 0
0.529061 0.269169 0
1 0 0
0 0.449775 0
0 0.44976 0
0 0.449912 0
0 0.450217 0
0 0.450996 0
0 0.453635 0
0.34345 0.352117 0
0.459052 0.320684 0
1 0 0
0 0.468376 0
0 0.468406 0
0 0.467063 0
0 0.468894 0
0 0.469535 0
0 0.473503 0
0 0.485939 0
0.374136 0.378042 0
1 0 0
0 0 0
0 0 0
0 0 0
0 0 0
0 0 0
0 0 0
0 0 0
0 0 0
1 0 0
0.165942 0.165942 0.165942
0.165942 0.165942 0.165942
0.226612 0.224567 0.455039
0.329381 0.175723 0.471122
0.473228 0.0341955 0.475822
0.879499 0 0.752392
1 0 1
1 0 1
1 0 0
0.165942 0.165942 0.165942
0.165942 0.165942 0.165942
0.224765 0.234562 0.454124
0.337896 0.201617 0.481331
0.452094 0.0827192 0.456016
0.843976 0 0.71809
1 0 1
1 0 1
1 0 0
0.165942 0.165942 0.165942
0.165942 0.165942 0.165942
0.165942 0.165942 0.165942
0.34667 0.262425 0.492729
0.49868 0.234699 0.503838
0.744778 0 0.620447
1 0 1
1 0 1
1 0 0
0.115694 0.340887 0.474144
0.162432 0.363775 0.496971
0.239445 0.379751 0.51313
0.373724 0.389227 0.527794
0.521096 0.3906 0.527489
0.65539 0.308843 0.53312
1 0 0.910582
1 0 0.573098
1 0 0
0 0.323217 0.322835
0 0.323278 0.322805
0 0.324453 0.323827
0.31075 0.550881 0.550042
0.544915 0.554238 0.553033
0.678538 0.554025 0.554101
0.803906 0.545113 0.557137
1 0 0
1 0 0
0 0.380636 0.208118
0 0.380682 0.208408
0 0.380774 0.210712
0 0.38088 0.216587
0 0.381842 0.233982
0.686488 0.695155 0.565698
0.670268 0.550347 0
0.531807 0.267216 0
1 0 0
0 0.450889 0
0 0.45095 0
0 0.45095 0
0 0.451164 0
0 0.452049 0
0 0.454643 0
0.343633 0.352667 0
0.456825 0.322591 0
1 0 0
0 0.470436 0
0 0.470039 0
0 0.469474 0
0 0.470634 0
0 0.471305 0
0 0.475456 0
0 0.4878 0
0.37406 0.378744 0
0.679088 0.208606 0
0 0 0
0 0 0
0 0 0
0 0 0
0 0 0
0 0 0
0 0 0
0 0 0
1 0 0
0.226917 0.277867 0.618204
0.240513 0.276997 0.618952
0.276188 0.273182 0.619928
0.339422 0.179721 0.607446
0.564614 0 0.698604
0.953643 0 0.958648
1 0 1
1 0 1
1 0 1
0.226871 0.287633 0.619455
0.240543 0.287556 0.620295
0.276555 0.284718 0.621271
0.350149 0.213535 0.619257
0.53991 0 0.675242
0.916671 0 0.922621
1 0 1
1 0 1
1 0 1
0.224598 0.316381 0.621469
0.239261 0.316594 0.622538
0.277241 0.316152 0.624537
0.360357 0.283223 0.630442
0.472923 0.00062562 0.609613
0.818708 0 0.825772
1 0 1
1 0 1
1 0 1
0.211902 0.384451 0.626291
0.229847 0.386358 0.628382
0.275029 0.389044 0.631495
0.366384 0.390295 0.636103
0.5131 0.344823 0.650813
0.630671 0.201678 0.638529
1 0 1
1 0 1
1 0 1
0 0.313878 0.439445
0 0.317449 0.442924
0 0.418296 0.543648
0.357122 0.545205 0.670283
0.539788 0.547448 0.676417
0.669993 0.548745 0.677653
1 0 1
1 0 1
1 0 1
0 0.371817 0.373205
0 0.371878 0.373175
0 0.372 0.373129
0 0.37229 0.373205
0 0.373266 0.373663
0.684581 0.694774 0.693858
0.813138 0.69456 0.694957
0.933745 0.645197 0.68719
1 0 0
0 0.433616 0.0726482
0 0.433814 0.0706798
0 0.433478 0.0766613
0 0.432059 0.107774
0 0.429877 0.163226
0 0.429572 0.250813
0.819532 0.831159 0.700694
0.450126 0.328511 0
1 0 0
0 0.476997 0
0 0.476753 0
0 0.476417 0
0 0.47715 0
0 0.47837 0
0 0.481514 0
0 0.491737 0
0.374014 0.380667 0
0.583719 0.278584 0
0 0 0
0 0 0
0 0 0
0 0 0
0 0 0
0 0 0
0 0 0
0 0 0
1 0 0
0.00848402 0 1
0.0574655 0 1
0.194812 0 1
0.590127 0 1
1 0 1
1 0 1
1 0 1
1 0 1
1 0 1
0 0 1
0.0322423 0 1
0.170718 0 1
0.5608 0 1
0.985992 0 1
1 0 1
1 0 1
1 0 1
1 0 1
0 0 1
0 0 1
0.0969558 0 1
0.480781 0 1
0.890929 0 1
1 0 1
1 0 1
1 0 1
1 0 1
0 0.0429694 0.784833
0 0.0378424 0.786984
0 0.036759 0.787488
0.241856 0.0237888 0.783551
0.590799 0 0.870497
1 0 1
1 0 1
1 0 1
1 0 1
0 0.29337 0.569131
0 0.293339 0.569177
0 0.293477 0.569268
0.222995 0.503807 0.780316
0.515068 0.50869 0.786358
1 0 1
1 0 1
1 0 1
1 0 1
0 0.363653 0.487861
0 0.363684 0.487846
0 0.363729 0.487816
0 0.363851 0.487724
0.427176 0.687221 0.810101
0.680323 0.688182 0.812818
0.805341 0.688457 0.814511
1 0 1
1 0 1
0 0.417441 0.418647
0 0.417472 0.418616
0 0.417609 0.418616
0 0.417868 0.418708
0 0.41857 0.418997
0 0.420661 0.420172
0.817563 0.831174 0.828641
0.940993 0.830732 0.829572
1 0 1
0 0.448264 0
0 0.448142 0
0 0.446433 0
0 0.451514 0
0 0.456306 0
0 0.468223 0
0 0.493385 0
0.944533 0.95816 0.75172
0.511391 0.334813 0
0 0 0
0 0 0
0 0 0
0 0 0
0 0 0
0 0 0
0 0 0
0 0 0
1 0 0
0 0 1
0 0 1
0 0 1
0 0 1
1 0 1
1 0 1
1 0 1
1 0 1
1 0 1
0 0 1
0 0 1
0 0 1
0 0 1
1 0 1
1 0 1
1 0 1
1 0 1
1 0 1
0 0 1
0 0 1
0 0 1
0 0 1
1 0 1
1 0 1
1 0 1
1 0 1
1 0 1
0 0 1
0 0 1
0 0 1
0 0 1
1 0 1
1 0 1
1 0 1
1 0 1
1 0 1
0 0 1
0 0 1
0 0 1
0 0 1
0.111437 0 1
1 0 1
1 0 1
1 0 1
1 0 1
0 0.307515 0.664332
0 0.309575 0.661402
0 0.308003 0.663661
0 0.308614 0.662806
0 0.30956 0.66157
0.627558 0.571313 0.921416
1 0 1
1 0 1
1 0 1
0 0.412192 0.533654
0 0.412238 0.533623
0 0.412238 0.533623
0 0.41236 0.533578
0 0.41265 0.533288
0 0.413779 0.531853
0.813794 0.824613 0.942489
0.935286 0.830701 0.945068
1 0 1
0 0.448325 0.456764
0 0.448188 0.456596
0 0.448539 0.456611
0 0.449317 0.457023
0 0.449744 0.457374
0 0.452125 0.457923
0 0.459159 0.461448
0.944411 0.961089 0.956649
1 0.959762 0.956725
0 0 0
0 0 0
0 0 0
0 0 0
0 0 0
0 0 0
0 0 0
0 0 0
0.403235 0.411948 0
0 0 1
0 0 1
0 0 1
0 0 1
0 0 1
1 0 1
1 0 1
1 0 1
1 0 1
0 0 1
0 0 1
0 0 1
0 0 1
0 0 1
1 0 1
1 0 1
1 0 1
1 0 1
0 0 1
0 0 1
0 0 1
0 0 1
0 0 1
1 0 1
1 0 1
1 0 1
1 0 1
0 0 1
0 0 1
0 0 1
0 0 1
0 0 1
1 0 1
1 0 1
1 0 1
1 0 1
0 0 1
0 0 1
0 0 1
0 0 1
0 0 1
1 0 1
1 0 1
1 0 1
1 0 1
0 0 1
0 0 1
0 0 1
0 0 1
0 0 1
0 0 1
1 0 1
1 0 1
1 0 1
0 0 1
0 0 1
0 0 1
0 0 1
0 0 1
0 0 1
1 0 1
1 0 1
1 0 1
0 0.456352 0.583734
0 0.456245 0.583703
0 0.456291 0.583703
0 0.456336 0.583749
0 0.456519 0.583688
0 0.457633 0.58262
0 0.459876 0.58027
0.9411 0.954681 1
1 0.959792 1
0 0 0
0 0 0
0 0 0
0 0 0
0 0 0
0 0 0
0 0 0
0 0 0
1 1 1
